; generated by PrusaSlicer 2.9.3 on 2025-10-20 at 02:16:29 UTC

; 

; external perimeters extrusion width = 0.42mm
; perimeters extrusion width = 0.44mm
; infill extrusion width = 0.44mm
; solid infill extrusion width = 0.44mm
; top infill extrusion width = 0.40mm
; first layer extrusion width = 0.42mm

M201 X500 Y500 Z100 E5000 ; sets maximum accelerations, mm/sec^2
M203 X500 Y500 Z10 E60 ; sets maximum feedrates, mm / sec
M204 S500 T1000 ; sets acceleration (S) and retract acceleration (R), mm/sec^2
M205 X8.00 Y8.00 Z0.40 E5.00 ; sets the jerk limits, mm/sec
M205 S0 T0 ; sets the minimum extruding and travel feed rate, mm/sec

; printing object RuedaDentada_v03.stl id:0 copy 0
; stop printing object RuedaDentada_v03.stl id:0 copy 0

;TYPE:Custom
G90 ; use absolute coordinates
M83 ; extruder relative mode
M104 S150 ; set temporary nozzle temp to prevent oozing during homing
M140 S60 ; set final bed temp
G4 S30 ; allow partial nozzle warmup
G28 ; home all axis
G1 Z50 F240
G1 X2.0 Y10 F3000
M104 S210 ; set final nozzle temp
M190 S60 ; wait for bed temp to stabilize
M109 S210 ; wait for nozzle temp to stabilize
G1 Z0.28 F240
G92 E0
G1 X2.0 Y140 E10 F1500 ; prime the nozzle
G1 X2.3 Y140 F5000
G92 E0
G1 X2.3 Y10 E10 F1200 ; prime the nozzle
G92 E0
G21 ; set units to millimeters
G90 ; use absolute coordinates
M83 ; use relative distances for extrusion
; Filament gcode
M107
;LAYER_CHANGE
;Z:0.2
;HEIGHT:0.2
G1 E-5 F3600
G1 Z.2 F9000
G1 X113.157 Y112.475
G1 E5 F2400
M204 S500
;TYPE:Skirt/Brim
;WIDTH:0.42
G1 X114.849 Y110.995 E.07048
G1 X116.954 Y109.494 E.08106
G1 X119.208 Y108.225 E.0811
G1 X121.583 Y107.203 E.08107
G1 X124.054 Y106.439 E.0811
G1 X126.592 Y105.942 E.08109
G1 X129.169 Y105.718 E.0811
G1 X131.305 Y105.757 E.06698
G1 X132.093 Y105.796 E.02474
G1 X134.653 Y106.157 E.08106
G1 X137.161 Y106.788 E.08109
G1 X139.588 Y107.682 E.0811
G1 X141.609 Y108.665 E.07047
G1 X143.811 Y110.021 E.08108
G1 X145.856 Y111.604 E.08109
G1 X147.722 Y113.395 E.0811
G1 X149.588 Y115.647 E.0917
G1 X151.003 Y117.812 E.08109
G1 X152.179 Y120.115 E.08108
G1 X153.104 Y122.53 E.08108
G1 X153.767 Y125.03 E.0811
G1 X154.161 Y127.586 E.08109
G1 X154.28 Y130.17 E.08111
G1 X154.161 Y132.414 E.07046
G1 X153.767 Y134.97 E.08109
G1 X153.104 Y137.47 E.0811
G1 X152.179 Y139.885 E.08108
G1 X151.003 Y142.188 E.08108
G1 X149.588 Y144.353 E.08109
G1 X147.952 Y146.355 E.08106
G1 X146.112 Y148.172 E.08108
G1 X143.811 Y149.979 E.09173
G1 X141.609 Y151.335 E.08108
G1 X139.275 Y152.45 E.0811
G1 X136.836 Y153.31 E.08109
G1 X134.32 Y153.906 E.08107
G1 X131.754 Y154.232 E.0811
G1 X129.169 Y154.282 E.08107
G1 X126.929 Y154.103 E.07046
G1 X124.384 Y153.642 E.0811
G1 X121.903 Y152.912 E.08109
G1 X119.513 Y151.923 E.0811
G1 X117.242 Y150.686 E.08108
G1 X115.115 Y149.214 E.0811
G1 X113.157 Y147.525 E.08108
G1 X111.492 Y145.747 E.07638
G1 X109.646 Y143.289 E.09638
G1 X108.348 Y141.052 E.08109
G1 X107.296 Y138.689 E.0811
G1 X106.59 Y136.556 E.07045
G1 X106.026 Y134.032 E.08109
G1 X105.733 Y131.463 E.08107
G1 X105.715 Y128.876 E.08112
G1 X106.026 Y125.968 E.0917
G1 X106.59 Y123.444 E.08109
G1 X107.42 Y120.995 E.08108
G1 X108.505 Y118.647 E.0811
G1 X109.833 Y116.428 E.08108
G1 X111.39 Y114.363 E.08109
G1 X113.116 Y112.519 E.07919
G1 E-3.5 F3600
;WIPE_START
G1 F7200
G1 X113.157 Y112.475 E-.02857
G1 X114.849 Y110.995 E-1.06777
G1 X115.541 Y110.502 E-.40366
;WIPE_END
; printing object RuedaDentada_v03.stl id:0 copy 0
G1 X123.996 Y124.541 F9000
G1 E5 F2400
;TYPE:Perimeter
;WIDTH:0.419999
G1 X125.028 Y123.58 E.04421
G1 X126.292 Y122.778 E.04694
G1 X127.373 Y122.343 E.03654
G1 X127.848 Y122.175 E.0158
G1 X129.15 Y121.932 E.04153
G1 X130.647 Y121.916 E.04694
G1 X131.492 Y122.058 E.02687
G1 X132.121 Y122.175 E.02006
G1 X132.288 Y122.223 E.00545
G1 X133.522 Y122.701 E.04149
G1 X133.678 Y122.778 E.00545
G1 X134.807 Y123.477 E.04163
G1 X135.92 Y124.472 E.04681
G1 X136.835 Y125.656 E.04692
G1 X136.927 Y125.804 E.00546
G1 X137.517 Y126.989 E.04151
G1 X137.598 Y127.216 E.00756
G1 X137.942 Y128.424 E.03938
G1 X138.096 Y129.913 E.04694
G1 X137.966 Y131.468 E.04893
G1 X137.579 Y132.849 E.04497
G1 X137.447 Y133.15 E.01031
G1 X136.927 Y134.196 E.03663
G1 X136.037 Y135.4 E.04694
G1 X135.22 Y136.167 E.03514
G1 X134.821 Y136.514 E.01658
G1 X133.676 Y137.223 E.04223
G1 X132.288 Y137.777 E.04686
G1 X130.82 Y138.068 E.04692
G1 X130.647 Y138.084 E.00545
G1 X129.323 Y138.084 E.04151
G1 X129.15 Y138.068 E.00545
G1 X127.848 Y137.825 E.04153
G1 X126.448 Y137.299 E.04689
G1 X125.167 Y136.525 E.04693
G1 X125.028 Y136.42 E.00546
G1 X124.05 Y135.528 E.0415
G1 X123.919 Y135.381 E.00617
G1 X123.131 Y134.338 E.04099
G1 X123.043 Y134.196 E.00524
G1 X122.453 Y133.011 E.04151
G1 X122.028 Y131.576 E.04693
G1 X121.996 Y131.405 E.00545
G1 X121.877 Y130.111 E.04074
G1 X121.89 Y129.783 E.01029
G1 X121.996 Y128.598 E.0373
G1 X122.167 Y127.936 E.02144
G1 X122.391 Y127.151 E.0256
G1 X122.856 Y126.18 E.03376
G1 X123.119 Y125.678 E.01777
G1 X123.933 Y124.6 E.04235
G1 X123.952 Y124.582 E.00082
G1 X124.272 Y124.792 F9000
G1 F2400
G1 X125.282 Y123.859 E.04311
G1 X126.49 Y123.099 E.04475
G1 X127.918 Y122.546 E.04801
G1 X129.225 Y122.302 E.04169
G1 X130.647 Y122.293 E.04459
G1 X132.152 Y122.574 E.048
G1 X133.48 Y123.099 E.04477
G1 X134.607 Y123.797 E.04156
G1 X135.666 Y124.75 E.04467
G1 X136.589 Y125.972 E.04802
G1 X137.179 Y127.157 E.04151
G1 X137.579 Y128.527 E.04475
G1 X137.72 Y129.948 E.04477
G1 X137.593 Y131.408 E.04595
G1 X137.217 Y132.746 E.04358
G1 X136.589 Y134.028 E.04476
G1 X135.737 Y135.173 E.04475
G1 X134.605 Y136.204 E.04801
G1 X133.478 Y136.902 E.04156
G1 X132.152 Y137.426 E.0447
G1 X130.751 Y137.697 E.04474
G1 X129.323 Y137.707 E.04477
G1 X127.918 Y137.454 E.04476
G1 X126.584 Y136.948 E.04473
G1 X125.282 Y136.141 E.04803
G1 X124.304 Y135.25 E.04148
G1 X123.381 Y134.028 E.04802
G1 X122.791 Y132.843 E.04151
G1 X122.372 Y131.37 E.04802
G1 X122.252 Y130.077 E.04072
G1 X122.372 Y128.632 E.04546
G1 X122.53 Y128.039 E.01924
G1 X122.753 Y127.254 E.02559
G1 X123.426 Y125.897 E.04749
G1 X124.229 Y124.834 E.04177
G1 X124.547 Y125.043 F9000
;TYPE:External perimeter
G1 F2400
G1 X125.536 Y124.137 E.04205
G1 X126.689 Y123.42 E.04257
G1 X127.988 Y122.916 E.04369
G1 X129.29 Y122.673 E.04153
G1 X130.647 Y122.67 E.04255
G1 X132.016 Y122.926 E.04367
G1 X133.281 Y123.42 E.04258
G1 X134.407 Y124.117 E.04152
G1 X135.412 Y125.029 E.04255
G1 X136.252 Y126.14 E.04367
G1 X136.841 Y127.325 E.04149
G1 X136.872 Y127.422 E.00319
G1 X137.217 Y128.633 E.03948
G1 X137.345 Y129.983 E.04252
G1 X137.216 Y131.369 E.04364
G1 X136.854 Y132.642 E.0415
G1 X136.25 Y133.862 E.04268
G1 X135.436 Y134.945 E.04248
G1 X134.406 Y135.884 E.0437
G1 X133.281 Y136.581 E.04149
G1 X132.016 Y137.074 E.04257
G1 X130.681 Y137.327 E.0426
G1 X129.323 Y137.33 E.04258
G1 X127.985 Y137.083 E.04266
G1 X126.72 Y136.596 E.0425
G1 X125.536 Y135.863 E.04366
G1 X124.558 Y134.971 E.0415
G1 X123.719 Y133.86 E.04365
G1 X123.129 Y132.675 E.04151
G1 X122.747 Y131.335 E.04369
G1 X122.628 Y130.042 E.04071
G1 X122.748 Y128.662 E.04343
G1 X122.893 Y128.142 E.01693
G1 X123.116 Y127.358 E.02556
G1 X123.737 Y126.111 E.04368
G1 X124.509 Y125.089 E.04016
G1 E-3.5 F3600
;WIPE_START
G1 F7200
G1 X124.547 Y125.043 E-.02834
G1 X125.536 Y124.137 E-.63709
G1 X126.689 Y123.42 E-.64493
G1 X127.061 Y123.276 E-.18964
;WIPE_END
G1 X115.205 Y116.5 F9000
G1 E5 F2400
;TYPE:Perimeter
G1 X116.001 Y115.638 E.03679
G1 X117.606 Y114.233 E.06688
G1 X119.352 Y113.007 E.06689
G1 X121.219 Y111.973 E.06692
G1 X123.185 Y111.143 E.06691
G1 X125.228 Y110.527 E.06691
G1 X127.324 Y110.132 E.06688
G1 X129.451 Y109.961 E.06691
G1 X131.584 Y110.018 E.0669
G1 X133.699 Y110.301 E.06691
G1 X135.772 Y110.808 E.06691
G1 X137.779 Y111.532 E.0669
G1 X139.698 Y112.465 E.0669
G1 X141.507 Y113.597 E.06691
G1 X143.185 Y114.914 E.06688
G1 X144.714 Y116.403 E.06692
G1 X146.076 Y118.045 E.06689
G1 X147.256 Y119.823 E.06691
G1 X148.239 Y121.717 E.06691
G1 X149.016 Y123.704 E.06689
G1 X149.578 Y125.763 E.06692
G1 X149.917 Y127.869 E.06688
G1 X150.014 Y129.683 E.05696
G1 X150.014 Y130.317 E.01988
G1 X149.917 Y132.131 E.05696
G1 X149.578 Y134.237 E.06688
G1 X149.016 Y136.296 E.06692
G1 X148.239 Y138.283 E.06689
G1 X147.256 Y140.177 E.06691
G1 X146.076 Y141.955 E.06691
G1 X144.714 Y143.597 E.06689
G1 X143.185 Y145.086 E.06692
G1 X141.507 Y146.403 E.06688
G1 X139.698 Y147.535 E.06691
G1 X137.779 Y148.468 E.0669
G1 X135.772 Y149.192 E.0669
G1 X133.699 Y149.699 E.06691
G1 X131.584 Y149.982 E.06691
G1 X129.451 Y150.039 E.0669
G1 X127.324 Y149.868 E.06691
G1 X125.228 Y149.473 E.06688
G1 X123.185 Y148.857 E.06691
G1 X121.219 Y148.027 E.06691
G1 X119.352 Y146.993 E.06692
G1 X117.606 Y145.767 E.06689
G1 X116.001 Y144.362 E.06688
G1 X114.553 Y142.794 E.06692
G1 X113.281 Y141.081 E.0669
G1 X112.197 Y139.243 E.06691
G1 X111.316 Y137.3 E.06689
G1 X110.646 Y135.274 E.06691
G1 X110.195 Y133.189 E.06689
G1 X109.968 Y131.067 E.06691
G1 X109.968 Y128.933 E.06691
G1 X110.195 Y126.811 E.06691
G1 X110.646 Y124.726 E.06689
G1 X111.316 Y122.7 E.06691
G1 X112.197 Y120.757 E.06689
G1 X113.281 Y118.919 E.06691
G1 X114.553 Y117.206 E.0669
G1 X115.164 Y116.544 E.02825
G1 X114.887 Y116.288 F9000
G1 F2400
G1 X115.737 Y115.368 E.03927
G1 X117.373 Y113.936 E.06817
G1 X119.152 Y112.686 E.06817
G1 X121.054 Y111.633 E.06817
G1 X123.057 Y110.788 E.06816
G1 X125.138 Y110.16 E.06815
G1 X127.274 Y109.757 E.06815
G1 X129.441 Y109.584 E.06816
G1 X131.615 Y109.642 E.06819
G1 X133.769 Y109.93 E.06814
G1 X135.881 Y110.446 E.06817
G1 X137.926 Y111.184 E.06817
G1 X139.881 Y112.134 E.06815
G1 X141.724 Y113.288 E.06818
G1 X143.434 Y114.63 E.06816
G1 X144.992 Y116.147 E.06818
G1 X146.379 Y117.82 E.06814
G1 X147.581 Y119.632 E.06818
G1 X148.583 Y121.561 E.06816
G1 X149.375 Y123.585 E.06815
G1 X149.947 Y125.683 E.06818
G1 X150.293 Y127.829 E.06816
G1 X150.39 Y129.663 E.05758
G1 X150.39 Y130.337 E.02113
G1 X150.293 Y132.171 E.05758
G1 X149.947 Y134.317 E.06816
G1 X149.375 Y136.415 E.06818
G1 X148.583 Y138.439 E.06815
G1 X147.581 Y140.368 E.06816
G1 X146.379 Y142.18 E.06818
G1 X144.992 Y143.853 E.06814
G1 X143.434 Y145.37 E.06818
G1 X141.724 Y146.712 E.06816
G1 X139.881 Y147.866 E.06818
G1 X137.926 Y148.816 E.06815
G1 X135.881 Y149.554 E.06817
G1 X133.769 Y150.07 E.06817
G1 X131.615 Y150.358 E.06814
G1 X129.441 Y150.416 E.06819
G1 X127.274 Y150.243 E.06816
G1 X125.138 Y149.84 E.06815
G1 X123.057 Y149.212 E.06815
G1 X121.054 Y148.367 E.06816
G1 X119.152 Y147.314 E.06817
G1 X117.373 Y146.064 E.06817
G1 X115.737 Y144.632 E.06817
G1 X114.262 Y143.035 E.06816
G1 X112.966 Y141.29 E.06815
G1 X111.862 Y139.417 E.06817
G1 X110.964 Y137.437 E.06817
G1 X110.281 Y135.373 E.06817
G1 X109.822 Y133.249 E.06813
G1 X109.591 Y131.087 E.06817
G1 X109.591 Y128.913 E.06816
G1 X109.822 Y126.751 E.06817
G1 X110.281 Y124.627 E.06813
G1 X110.964 Y122.563 E.06817
G1 X111.862 Y120.583 E.06817
G1 X112.966 Y118.71 E.06817
G1 X114.262 Y116.965 E.06815
G1 X114.847 Y116.332 E.02702
G1 X114.57 Y116.076 F9000
;TYPE:External perimeter
G1 F2400
G1 X115.474 Y115.097 E.04178
G1 X117.14 Y113.639 E.06941
G1 X118.952 Y112.366 E.06943
G1 X120.889 Y111.293 E.06943
G1 X122.929 Y110.433 E.06941
G1 X125.048 Y109.793 E.0694
G1 X127.224 Y109.383 E.06943
G1 X129.431 Y109.206 E.06942
G1 X131.645 Y109.265 E.06944
G1 X133.839 Y109.559 E.06941
G1 X135.99 Y110.085 E.06943
G1 X138.073 Y110.836 E.06943
G1 X140.064 Y111.804 E.06941
G1 X141.941 Y112.979 E.06943
G1 X143.683 Y114.346 E.06943
G1 X145.269 Y115.89 E.0694
G1 X146.682 Y117.595 E.06943
G1 X147.906 Y119.44 E.06942
G1 X148.927 Y121.405 E.06943
G1 X149.733 Y123.467 E.06942
G1 X150.316 Y125.603 E.06942
G1 X150.668 Y127.789 E.06942
G1 X150.767 Y129.643 E.05821
G1 X150.767 Y130.357 E.02239
G1 X150.668 Y132.211 E.05821
G1 X150.316 Y134.397 E.06942
G1 X149.733 Y136.533 E.06942
G1 X148.927 Y138.595 E.06942
G1 X147.906 Y140.56 E.06943
G1 X146.682 Y142.405 E.06942
G1 X145.269 Y144.11 E.06943
G1 X143.683 Y145.654 E.0694
G1 X141.941 Y147.021 E.06943
G1 X140.064 Y148.196 E.06943
G1 X138.073 Y149.164 E.06941
G1 X135.99 Y149.915 E.06943
G1 X133.839 Y150.441 E.06943
G1 X131.645 Y150.735 E.06941
G1 X129.431 Y150.794 E.06944
G1 X127.224 Y150.617 E.06942
G1 X125.048 Y150.207 E.06943
G1 X122.929 Y149.567 E.0694
G1 X120.889 Y148.707 E.06941
G1 X118.952 Y147.634 E.06943
G1 X117.14 Y146.361 E.06943
G1 X115.474 Y144.903 E.06941
G1 X113.972 Y143.276 E.06943
G1 X112.651 Y141.499 E.06943
G1 X111.527 Y139.591 E.06943
G1 X110.612 Y137.575 E.06942
G1 X109.917 Y135.473 E.06942
G1 X109.449 Y133.309 E.06942
G1 X109.214 Y131.107 E.06943
G1 X109.214 Y128.893 E.06942
G1 X109.449 Y126.691 E.06943
G1 X109.917 Y124.527 E.06942
G1 X110.612 Y122.425 E.06942
G1 X111.527 Y120.409 E.06942
G1 X112.651 Y118.501 E.06943
G1 X113.972 Y116.724 E.06943
G1 X114.529 Y116.12 E.02576
G1 E-3.5 F3600
;WIPE_START
G1 F7200
G1 X114.57 Y116.076 E-.02857
G1 X115.474 Y115.097 E-.63296
G1 X116.802 Y113.934 E-.83847
;WIPE_END
G1 X145.799 Y117.9 F9000
G1 E5 F2400
;TYPE:Solid infill
;WIDTH:0.422633
G1 X144.433 Y116.534 E.06099
G1 X142.994 Y115.133 E.06341
G1 X141.34 Y113.834 E.0664
G1 X140.956 Y113.594 E.0143
G1 X146.359 Y118.997 E.24125
G1 X147.005 Y119.971 E.0369
G1 X147.231 Y120.407 E.01551
G1 X139.531 Y112.706 E.34384
G1 X138.486 Y112.198 E.03669
G1 X147.812 Y121.524 E.41642
G1 X147.975 Y121.837 E.01114
G1 X148.223 Y122.472 E.02152
G1 X137.485 Y111.734 E.47947
G1 X136.645 Y111.431 E.02819
G1 X148.568 Y123.354 E.53238
G1 X148.74 Y123.795 E.01495
G1 X148.841 Y124.164 E.01208
G1 X135.805 Y111.128 E.58207
G1 X135.077 Y110.937 E.02376
G1 X149.042 Y124.902 E.62356
G1 X149.244 Y125.641 E.02419
G1 X134.366 Y110.763 E.66432
G1 X133.655 Y110.59 E.0231
G1 X149.371 Y126.305 E.70172
G1 X149.474 Y126.945 E.02047
G1 X133.034 Y110.505 E.73407
G1 X132.414 Y110.422 E.01975
G1 X149.577 Y127.586 E.76637
G1 X149.628 Y127.9 E.01004
G1 X149.643 Y128.189 E.00914
G1 X131.794 Y110.339 E.797
G1 X131.561 Y110.308 E.00742
G1 X131.217 Y110.299 E.01086
G1 X149.674 Y128.756 E.82413
G1 X149.704 Y129.323 E.01793
G1 X130.665 Y110.284 E.85012
G1 X130.113 Y110.269 E.01743
G1 X149.734 Y129.89 E.8761
G1 X149.718 Y130.411 E.01646
G1 X129.562 Y110.255 E.89999
G1 X129.054 Y110.284 E.01607
G1 X149.691 Y130.921 E.92147
G1 X149.664 Y131.431 E.01612
G1 X128.557 Y110.324 E.94246
G1 X128.06 Y110.364 E.01574
G1 X149.637 Y131.941 E.96344
G1 X149.577 Y132.418 E.01518
G1 X127.563 Y110.404 E.98295
G1 X127.093 Y110.471 E.01499
G1 X149.502 Y132.88 E1.00059
G1 X149.428 Y133.343 E.0148
G1 X126.641 Y110.556 E1.01747
G1 X126.189 Y110.641 E.01452
G1 X149.353 Y133.805 E1.0343
G1 X149.271 Y134.26 E.0146
G1 X125.737 Y110.726 E1.05082
G1 X125.286 Y110.813 E.0145
G1 X149.156 Y134.682 E1.06581
G1 X149.041 Y135.104 E.01381
G1 X124.874 Y110.937 E1.07909
G1 X124.461 Y111.061 E.01361
G1 X148.926 Y135.526 E1.0924
G1 X148.81 Y135.948 E.01382
G1 X124.049 Y111.186 E1.10563
G1 X123.636 Y111.31 E.01361
G1 X148.681 Y136.355 E1.11829
G1 X148.53 Y136.742 E.01312
G1 X123.229 Y111.44 E1.12975
G1 X122.851 Y111.599 E.01295
G1 X133.725 Y122.473 E.48554
G1 X132.845 Y122.13 E.02982
G1 X122.473 Y111.758 E.46312
G1 X122.096 Y111.918 E.01293
G1 X132.054 Y121.876 E.44464
G1 X131.393 Y121.752 E.02123
G1 X121.718 Y112.077 E.432
G1 X121.341 Y112.237 E.01293
G1 X130.732 Y121.628 E.41932
G1 X130.194 Y121.627 E.01699
G1 X120.995 Y112.428 E.41075
G1 X120.65 Y112.62 E.01247
G1 X129.656 Y121.626 E.40213
G1 X129.135 Y121.642 E.01646
G1 X120.304 Y112.811 E.39432
G1 X119.959 Y113.003 E.01247
G1 X128.682 Y121.726 E.38949
G1 X128.231 Y121.812 E.0145
G1 X119.613 Y113.194 E.38481
G1 X119.288 Y113.406 E.01225
G1 X127.781 Y121.899 E.37922
G1 X127.668 Y121.92 E.00363
G1 X127.378 Y122.033 E.00983
G1 X118.973 Y113.628 E.37529
G1 X118.657 Y113.849 E.01218
G1 X126.991 Y122.183 E.37212
G1 X126.603 Y122.332 E.01312
G1 X118.342 Y114.071 E.36886
G1 X118.027 Y114.293 E.01217
G1 X126.222 Y122.488 E.36592
G1 X125.89 Y122.693 E.01232
G1 X117.718 Y114.521 E.36489
G1 X117.432 Y114.772 E.01201
G1 X125.557 Y122.897 E.36279
G1 X125.224 Y123.101 E.01233
G1 X117.145 Y115.022 E.36074
G1 X116.859 Y115.273 E.01201
G1 X124.901 Y123.315 E.35909
