; generated by PrusaSlicer 2.9.3 on 2025-10-20 at 07:01:43 UTC

; 

; external perimeters extrusion width = 0.42mm
; perimeters extrusion width = 0.44mm
; infill extrusion width = 0.44mm
; solid infill extrusion width = 0.44mm
; top infill extrusion width = 0.40mm
; first layer extrusion width = 0.42mm

M201 X500 Y500 Z100 E5000 ; sets maximum accelerations, mm/sec^2
M203 X500 Y500 Z10 E60 ; sets maximum feedrates, mm / sec
M204 S500 T1000 ; sets acceleration (S) and retract acceleration (R), mm/sec^2
M205 X8.00 Y8.00 Z0.40 E5.00 ; sets the jerk limits, mm/sec
M205 S0 T0 ; sets the minimum extruding and travel feed rate, mm/sec

; printing object RuedaDentada_EjeFijo_v01.stl id:0 copy 0
; stop printing object RuedaDentada_EjeFijo_v01.stl id:0 copy 0

;TYPE:Custom
G90 ; use absolute coordinates
M83 ; extruder relative mode
M104 S150 ; set temporary nozzle temp to prevent oozing during homing
M140 S60 ; set final bed temp
G4 S30 ; allow partial nozzle warmup
G28 ; home all axis
G1 Z50 F240
G1 X2.0 Y10 F3000
M104 S210 ; set final nozzle temp
M190 S60 ; wait for bed temp to stabilize
M109 S210 ; wait for nozzle temp to stabilize
G1 Z0.28 F240
G92 E0
G1 X2.0 Y140 E10 F1500 ; prime the nozzle
G1 X2.3 Y140 F5000
G92 E0
G1 X2.3 Y10 E10 F1200 ; prime the nozzle
G92 E0
G21 ; set units to millimeters
G90 ; use absolute coordinates
M83 ; use relative distances for extrusion
; Filament gcode
M107
;LAYER_CHANGE
;Z:0.2
;HEIGHT:0.2
G1 E-5 F3600
G1 Z.2 F9000
G1 X113.157 Y112.475
G1 E5 F2400
M204 S500
;TYPE:Skirt/Brim
;WIDTH:0.42
G1 X114.849 Y110.995 E.07048
G1 X116.954 Y109.494 E.08106
G1 X119.208 Y108.225 E.0811
G1 X121.583 Y107.203 E.08107
G1 X124.054 Y106.439 E.0811
G1 X126.592 Y105.942 E.08109
G1 X129.169 Y105.718 E.0811
G1 X131.305 Y105.757 E.06698
G1 X132.093 Y105.796 E.02474
G1 X134.653 Y106.157 E.08106
G1 X137.161 Y106.788 E.08109
G1 X139.588 Y107.682 E.0811
G1 X141.609 Y108.665 E.07047
G1 X143.811 Y110.021 E.08108
G1 X145.856 Y111.604 E.08109
G1 X147.722 Y113.395 E.0811
G1 X149.588 Y115.647 E.0917
G1 X151.003 Y117.812 E.08109
G1 X152.179 Y120.115 E.08108
G1 X153.104 Y122.53 E.08108
G1 X153.767 Y125.03 E.0811
G1 X154.161 Y127.586 E.08109
G1 X154.28 Y130.17 E.08111
G1 X154.161 Y132.414 E.07046
G1 X153.767 Y134.97 E.08109
G1 X153.104 Y137.47 E.0811
G1 X152.179 Y139.885 E.08108
G1 X151.003 Y142.188 E.08108
G1 X149.588 Y144.353 E.08109
G1 X147.952 Y146.355 E.08106
G1 X146.112 Y148.172 E.08108
G1 X143.811 Y149.979 E.09173
G1 X141.609 Y151.335 E.08108
G1 X139.275 Y152.45 E.0811
G1 X136.836 Y153.31 E.08109
G1 X134.32 Y153.906 E.08107
G1 X131.754 Y154.232 E.0811
G1 X129.169 Y154.282 E.08107
G1 X126.929 Y154.103 E.07046
G1 X124.384 Y153.642 E.0811
G1 X121.903 Y152.912 E.08109
G1 X119.513 Y151.923 E.0811
G1 X117.242 Y150.686 E.08108
G1 X115.115 Y149.214 E.0811
G1 X113.157 Y147.525 E.08108
G1 X111.492 Y145.747 E.07638
G1 X109.646 Y143.289 E.09638
G1 X108.348 Y141.052 E.08109
G1 X107.296 Y138.689 E.0811
G1 X106.59 Y136.556 E.07045
G1 X106.026 Y134.032 E.08109
G1 X105.733 Y131.463 E.08107
G1 X105.715 Y128.876 E.08112
G1 X106.026 Y125.968 E.0917
G1 X106.59 Y123.444 E.08109
G1 X107.42 Y120.995 E.08108
G1 X108.505 Y118.647 E.0811
G1 X109.833 Y116.428 E.08108
G1 X111.39 Y114.363 E.08109
G1 X113.116 Y112.519 E.07919
G1 E-3.5 F3600
;WIPE_START
G1 F7200
G1 X113.157 Y112.475 E-.02857
G1 X114.849 Y110.995 E-1.06777
G1 X115.541 Y110.502 E-.40366
;WIPE_END
; printing object RuedaDentada_EjeFijo_v01.stl id:0 copy 0
G1 X126.412 Y126.222 F9000
G1 E5 F2400
;TYPE:Perimeter
;WIDTH:0.419999
G1 X127.038 Y125.731 E.02494
G1 X127.488 Y125.429 E.01699
G1 X128.4 Y125.038 E.03111
G1 X129.439 Y124.83 E.03322
G1 X129.78 Y124.796 E.01074
G1 X130.793 Y124.855 E.03182
G1 X131.794 Y125.13 E.03255
G1 X132.161 Y125.268 E.01229
G1 X133.018 Y125.766 E.03108
G1 X133.517 Y126.203 E.0208
G1 X133.913 Y126.579 E.01712
G1 X134.584 Y127.555 E.03714
G1 X135.023 Y128.679 E.03783
G1 X135.189 Y129.869 E.03767
G1 X135.174 Y130.279 E.01286
G1 X135.075 Y131.108 E.02618
G1 X134.693 Y132.229 E.03713
G1 X134.053 Y133.253 E.03786
G1 X133.517 Y133.797 E.02395
G1 X133.119 Y134.167 E.01704
G1 X132.327 Y134.634 E.02883
G1 X131.934 Y134.83 E.01377
G1 X130.983 Y135.112 E.0311
G1 X129.939 Y135.196 E.03284
G1 X129.561 Y135.192 E.01185
G1 X128.607 Y135.024 E.03037
G1 X127.592 Y134.616 E.0343
G1 X127.299 Y134.462 E.01038
G1 X126.497 Y133.869 E.03127
G1 X126.34 Y133.721 E.00677
G1 X125.688 Y132.943 E.03183
G1 X125.133 Y131.895 E.03718
G1 X124.827 Y130.727 E.03786
G1 X124.801 Y130.515 E.0067
G1 X124.801 Y129.493 E.03204
G1 X125.059 Y128.308 E.03803
G1 X125.582 Y127.218 E.03791
G1 X126.342 Y126.277 E.03793
G1 X126.365 Y126.259 E.00092
G1 X126.667 Y126.492 F9000
G1 F2400
G1 X127.262 Y126.034 E.02354
G1 X127.637 Y125.775 E.01429
G1 X128.548 Y125.385 E.03107
G1 X129.504 Y125.201 E.03052
G1 X129.912 Y125.181 E.01281
G1 X130.771 Y125.231 E.02698
G1 X131.685 Y125.491 E.02979
G1 X131.972 Y125.594 E.00956
G1 X132.829 Y126.092 E.03108
G1 X133.654 Y126.853 E.03519
G1 X134.269 Y127.762 E.03441
G1 X134.669 Y128.809 E.03514
G1 X134.814 Y129.913 E.03491
G1 X134.704 Y131.027 E.0351
G1 X134.339 Y132.1 E.03554
G1 X133.738 Y133.046 E.03514
G1 X132.889 Y133.868 E.03705
G1 X132.138 Y134.307 E.02727
G1 X131.827 Y134.469 E.01099
G1 X130.876 Y134.751 E.0311
G1 X129.918 Y134.819 E.03011
G1 X129.504 Y134.799 E.013
G1 X128.673 Y134.652 E.02646
G1 X127.74 Y134.269 E.03162
G1 X127.523 Y134.159 E.00763
G1 X126.723 Y133.567 E.0312
G1 X126.629 Y133.478 E.00406
G1 X125.977 Y132.701 E.0318
G1 X125.47 Y131.726 E.03446
G1 X125.194 Y130.639 E.03516
G1 X125.178 Y130.512 E.00401
G1 X125.178 Y129.493 E.03195
G1 X125.425 Y128.396 E.03526
G1 X125.918 Y127.388 E.03518
G1 X126.622 Y126.531 E.03477
G1 X126.922 Y126.761 F9000
;TYPE:External perimeter
G1 F2400
G1 X127.486 Y126.337 E.02212
G1 X127.889 Y126.078 E.01502
G1 X128.697 Y125.732 E.02756
G1 X129.57 Y125.573 E.02782
G1 X129.89 Y125.557 E.01005
G1 X130.749 Y125.607 E.02698
G1 X131.576 Y125.852 E.02704
G1 X131.94 Y126.012 E.01247
G1 X132.64 Y126.418 E.02537
G1 X133.422 Y127.16 E.0338
G1 X133.954 Y127.969 E.03036
G1 X134.315 Y128.939 E.03245
G1 X134.44 Y129.957 E.03216
G1 X134.33 Y130.982 E.03232
G1 X133.984 Y131.971 E.03285
G1 X133.422 Y132.84 E.03245
G1 X132.998 Y133.25 E.01849
G1 X132.555 Y133.631 E.01832
G1 X131.76 Y134.09 E.02878
G1 X130.922 Y134.344 E.02746
G1 X130.595 Y134.404 E.01042
G1 X129.736 Y134.452 E.02698
G1 X128.881 Y134.306 E.0272
G1 X128.531 Y134.198 E.01148
G1 X127.785 Y133.878 E.02545
G1 X126.95 Y133.266 E.03246
G1 X126.266 Y132.459 E.03317
G1 X125.807 Y131.556 E.03176
G1 X125.555 Y130.509 E.03377
G1 X125.555 Y129.493 E.03186
G1 X125.792 Y128.484 E.0325
G1 X126.255 Y127.558 E.03246
G1 X126.882 Y126.807 E.03067
G1 E-3.5 F3600
;WIPE_START
G1 F7200
G1 X126.922 Y126.761 E-.02896
G1 X127.486 Y126.337 E-.33516
G1 X127.889 Y126.078 E-.22755
G1 X128.697 Y125.732 E-.41751
G1 X129.57 Y125.573 E-.4215
G1 X129.716 Y125.566 E-.06932
;WIPE_END
G1 X120.873 Y129.009 F9000
G1 E5 F2400
;TYPE:Perimeter
G1 X120.923 Y129.155 E.00484
G1 X121.038 Y129.845 E.02193
G1 X121.028 Y130.218 E.0117
G1 X120.922 Y130.851 E.02012
G1 X120.823 Y131.138 E.00952
G1 X120.49 Y131.753 E.02193
G1 X120.299 Y131.998 E.00974
G1 X119.785 Y132.471 E.0219
G1 X119.525 Y132.641 E.00974
G1 X118.885 Y132.922 E.02192
G1 X118.584 Y132.998 E.00973
G1 X117.888 Y133.056 E.0219
G1 X117.578 Y133.03 E.00975
G1 X116.901 Y132.858 E.0219
G1 X116.616 Y132.734 E.00975
G1 X116.031 Y132.351 E.02192
G1 X115.803 Y132.141 E.00972
G1 X115.374 Y131.59 E.0219
G1 X115.226 Y131.317 E.00974
G1 X114.999 Y130.656 E.02191
G1 X114.948 Y130.35 E.00973
G1 X114.948 Y129.65 E.02195
G1 X114.999 Y129.344 E.00973
G1 X115.226 Y128.683 E.02191
G1 X115.374 Y128.41 E.00974
G1 X115.803 Y127.859 E.0219
G1 X116.031 Y127.649 E.00972
G1 X116.616 Y127.266 E.02192
G1 X116.901 Y127.142 E.00975
G1 X117.578 Y126.97 E.0219
G1 X117.888 Y126.944 E.00975
G1 X118.584 Y127.002 E.0219
G1 X118.885 Y127.078 E.00973
G1 X119.525 Y127.359 E.02192
G1 X119.785 Y127.529 E.00974
G1 X120.299 Y128.002 E.0219
G1 X120.49 Y128.247 E.00974
G1 X120.823 Y128.862 E.02193
G1 X120.853 Y128.952 E.00297
G1 X120.51 Y129.134 F9000
G1 F2400
G1 X120.66 Y129.867 E.02346
G1 X120.656 Y130.156 E.00906
G1 X120.551 Y130.786 E.02003
G1 X120.158 Y131.573 E.02758
G1 X120.044 Y131.72 E.00583
G1 X119.53 Y132.194 E.02192
G1 X119.374 Y132.296 E.00584
G1 X118.729 Y132.579 E.02208
G1 X117.856 Y132.68 E.02755
G1 X117.29 Y132.568 E.01809
G1 X116.823 Y132.418 E.01538
G1 X116.237 Y132.036 E.02193
G1 X116.101 Y131.91 E.00581
G1 X115.671 Y131.358 E.02194
G1 X115.583 Y131.194 E.00584
G1 X115.356 Y130.533 E.02191
G1 X115.325 Y130.35 E.00582
G1 X115.325 Y129.65 E.02195
G1 X115.356 Y129.467 E.00582
G1 X115.583 Y128.806 E.02191
G1 X115.671 Y128.642 E.00584
G1 X116.101 Y128.09 E.02194
G1 X116.237 Y127.964 E.00581
G1 X116.823 Y127.582 E.02193
G1 X117.29 Y127.432 E.01538
G1 X117.79 Y127.319 E.01607
G1 X118.553 Y127.378 E.02399
G1 X118.734 Y127.424 E.00586
G1 X119.374 Y127.704 E.0219
G1 X119.53 Y127.806 E.00584
G1 X120.044 Y128.28 E.02192
G1 X120.158 Y128.427 E.00583
G1 X120.491 Y129.042 E.02193
G1 X120.498 Y129.075 E.00106
G1 X120.165 Y129.252 F9000
;TYPE:External perimeter
G1 F2400
G1 X120.288 Y129.929 E.02157
G1 X120.179 Y130.721 E.02507
G1 X119.827 Y131.394 E.02381
G1 X119.274 Y131.916 E.02384
G1 X118.582 Y132.231 E.02384
G1 X117.825 Y132.304 E.02385
G1 X117.086 Y132.127 E.02383
G1 X116.398 Y131.678 E.02576
G1 X115.969 Y131.126 E.02192
G1 X115.712 Y130.411 E.02382
G1 X115.702 Y129.65 E.02386
G1 X115.939 Y128.928 E.02383
G1 X116.398 Y128.322 E.02384
G1 X117.029 Y127.898 E.02384
G1 X117.763 Y127.701 E.02383
G1 X118.522 Y127.754 E.02386
G1 X119.222 Y128.05 E.02383
G1 X119.788 Y128.557 E.02383
G1 X120.146 Y129.196 E.02297
G1 E-3.5 F3600
;WIPE_START
G1 F7200
G1 X120.165 Y129.252 E-.02809
G1 X120.288 Y129.929 E-.32684
G1 X120.179 Y130.721 E-.37975
G1 X119.827 Y131.394 E-.36076
G1 X119.274 Y131.916 E-.36122
G1 X119.191 Y131.954 E-.04334
;WIPE_END
G1 X127.917 Y139.754 F9000
G1 E5 F2400
;TYPE:Perimeter
G1 X128.031 Y139.649 E.00486
G1 X128.616 Y139.266 E.02192
G1 X128.901 Y139.142 E.00975
G1 X129.578 Y138.97 E.0219
G1 X129.888 Y138.944 E.00975
G1 X130.584 Y139.002 E.0219
G1 X130.885 Y139.078 E.00973
G1 X131.525 Y139.359 E.02192
G1 X131.785 Y139.529 E.00974
G1 X132.299 Y140.002 E.0219
G1 X132.49 Y140.247 E.00974
G1 X132.823 Y140.862 E.02193
G1 X132.923 Y141.155 E.00971
G1 X133.038 Y141.845 E.02193
G1 X133.038 Y142.155 E.00972
G1 X132.923 Y142.845 E.02193
G1 X132.823 Y143.138 E.00971
G1 X132.49 Y143.753 E.02193
G1 X132.299 Y143.998 E.00974
G1 X131.785 Y144.471 E.0219
G1 X131.525 Y144.641 E.00974
G1 X130.885 Y144.922 E.02192
G1 X130.584 Y144.998 E.00973
G1 X129.888 Y145.056 E.0219
G1 X129.578 Y145.03 E.00975
G1 X128.901 Y144.858 E.0219
G1 X128.616 Y144.734 E.00975
G1 X128.031 Y144.351 E.02192
G1 X127.803 Y144.141 E.00972
G1 X127.374 Y143.59 E.0219
G1 X127.226 Y143.317 E.00974
G1 X126.999 Y142.656 E.02191
G1 X126.948 Y142.35 E.00973
G1 X126.948 Y141.65 E.02195
G1 X126.989 Y141.376 E.00869
G1 X127.226 Y140.683 E.02296
G1 X127.393 Y140.385 E.01071
G1 X127.803 Y139.859 E.02091
G1 X127.873 Y139.794 E.003
G1 X128.169 Y140.027 F9000
G1 F2400
G1 X128.237 Y139.964 E.00291
G1 X128.823 Y139.582 E.02193
G1 X128.993 Y139.507 E.00583
G1 X129.671 Y139.335 E.02193
G1 X129.856 Y139.32 E.00582
G1 X130.553 Y139.378 E.02193
G1 X130.734 Y139.424 E.00586
G1 X131.374 Y139.704 E.0219
G1 X131.53 Y139.806 E.00584
G1 X132.044 Y140.28 E.02192
G1 X132.316 Y140.717 E.01614
G1 X132.541 Y141.169 E.01583
G1 X132.666 Y141.907 E.02347
G1 X132.666 Y142.093 E.00583
G1 X132.551 Y142.783 E.02193
G1 X132.491 Y142.959 E.00583
G1 X132.158 Y143.573 E.0219
G1 X132.044 Y143.72 E.00583
G1 X131.53 Y144.194 E.02192
G1 X131.374 Y144.296 E.00584
G1 X130.734 Y144.576 E.0219
G1 X130.553 Y144.622 E.00586
G1 X129.856 Y144.68 E.02193
G1 X129.671 Y144.665 E.00582
G1 X128.993 Y144.493 E.02193
G1 X128.823 Y144.418 E.00583
G1 X128.237 Y144.036 E.02193
G1 X128.101 Y143.91 E.00581
G1 X127.671 Y143.358 E.02194
G1 X127.422 Y142.728 E.02124
G1 X127.325 Y142.35 E.01224
G1 X127.325 Y141.65 E.02195
G1 X127.349 Y141.486 E.0052
G1 X127.583 Y140.806 E.02255
G1 X127.691 Y140.617 E.00683
G1 X128.101 Y140.09 E.02094
G1 X128.125 Y140.068 E.00102
G1 X128.425 Y140.304 F9000
;TYPE:External perimeter
G1 F2400
G1 X129.029 Y139.898 E.02282
G1 X129.763 Y139.701 E.02383
G1 X130.522 Y139.754 E.02386
G1 X131.222 Y140.05 E.02383
G1 X131.788 Y140.557 E.02383
G1 X132.159 Y141.221 E.02385
G1 X132.294 Y141.969 E.02383
G1 X132.159 Y142.779 E.02575
G1 X131.827 Y143.394 E.02191
G1 X131.274 Y143.916 E.02384
G1 X130.582 Y144.231 E.02384
G1 X129.825 Y144.304 E.02385
G1 X129.086 Y144.127 E.02383
G1 X128.444 Y143.72 E.02383
G1 X127.969 Y143.126 E.02385
G1 X127.702 Y142.35 E.02573
G1 X127.71 Y141.596 E.02364
G1 X127.939 Y140.928 E.02214
G1 X128.381 Y140.344 E.02296
G1 E-3.5 F3600
;WIPE_START
G1 F7200
G1 X128.425 Y140.304 E-.02825
G1 X129.029 Y139.898 E-.34569
G1 X129.763 Y139.701 E-.36099
G1 X130.522 Y139.754 E-.3614
G1 X131.222 Y140.05 E-.361
G1 X131.289 Y140.11 E-.04267
;WIPE_END
G1 X139.3 Y131.453 F9000
G1 E5 F2400
;TYPE:Perimeter
G1 X139.226 Y131.317 E.00485
G1 X138.999 Y130.656 E.02191
G1 X138.948 Y130.347 E.00982
G1 X138.948 Y129.65 E.02185
G1 X139.008 Y129.317 E.01061
G1 X139.226 Y128.683 E.02102
G1 X139.374 Y128.41 E.00974
G1 X139.803 Y127.859 E.0219
G1 X140.031 Y127.649 E.00972
G1 X140.616 Y127.266 E.02192
G1 X140.901 Y127.142 E.00975
G1 X141.578 Y126.97 E.0219
G1 X141.888 Y126.944 E.00975
G1 X142.584 Y127.002 E.0219
G1 X142.925 Y127.096 E.01109
G1 X143.525 Y127.359 E.02054
G1 X143.785 Y127.529 E.00974
G1 X144.299 Y128.002 E.0219
G1 X144.49 Y128.247 E.00974
G1 X144.823 Y128.862 E.02193
G1 X144.923 Y129.155 E.00971
G1 X145.038 Y129.845 E.02193
G1 X145.038 Y130.155 E.00972
G1 X144.923 Y130.845 E.02193
G1 X144.823 Y131.138 E.00971
G1 X144.49 Y131.753 E.02193
G1 X144.299 Y131.998 E.00974
G1 X143.785 Y132.471 E.0219
G1 X143.525 Y132.641 E.00974
G1 X142.885 Y132.922 E.02192
G1 X142.584 Y132.998 E.00973
G1 X141.888 Y133.056 E.0219
G1 X141.571 Y133.028 E.00998
G1 X140.901 Y132.858 E.02167
G1 X140.616 Y132.734 E.00975
G1 X140.031 Y132.351 E.02192
G1 X139.803 Y132.141 E.00972
G1 X139.374 Y131.59 E.0219
G1 X139.328 Y131.506 E.003
G1 X139.637 Y131.27 F9000
G1 F2400
G1 X139.367 Y130.568 E.02358
G1 X139.325 Y130.347 E.00705
G1 X139.325 Y129.65 E.02185
G1 X139.583 Y128.806 E.02767
G1 X140.101 Y128.09 E.02771
G1 X140.237 Y127.964 E.00581
G1 X140.823 Y127.582 E.02193
G1 X141.144 Y127.469 E.01067
G1 X141.671 Y127.335 E.01705
G1 X141.856 Y127.32 E.00582
G1 X142.553 Y127.378 E.02193
G1 X142.774 Y127.441 E.00721
G1 X143.374 Y127.704 E.02054
G1 X143.53 Y127.806 E.00584
G1 X144.044 Y128.28 E.02192
G1 X144.158 Y128.427 E.00583
G1 X144.491 Y129.041 E.0219
G1 X144.551 Y129.217 E.00583
G1 X144.666 Y129.907 E.02193
G1 X144.666 Y130.093 E.00583
G1 X144.551 Y130.783 E.02193
G1 X144.491 Y130.959 E.00583
G1 X144.158 Y131.573 E.0219
G1 X144.044 Y131.72 E.00583
G1 X143.53 Y132.194 E.02192
G1 X143.374 Y132.296 E.00584
G1 X142.734 Y132.576 E.0219
G1 X142.553 Y132.622 E.00586
G1 X141.856 Y132.68 E.02193
G1 X141.663 Y132.663 E.00607
G1 X140.993 Y132.493 E.02167
G1 X140.823 Y132.418 E.00583
G1 X140.237 Y132.036 E.02193
G1 X140.101 Y131.91 E.00581
G1 X139.671 Y131.358 E.02194
G1 X139.659 Y131.326 E.00107
G1 X139.958 Y131.096 F9000
;TYPE:External perimeter
G1 F2400
G1 X139.724 Y130.445 E.02169
G1 X139.702 Y129.683 E.0239
G1 X139.939 Y128.928 E.02481
G1 X140.398 Y128.322 E.02384
G1 X141.029 Y127.898 E.02384
G1 X141.756 Y127.703 E.0236
G1 X142.522 Y127.754 E.02407
G1 X143.222 Y128.05 E.02383
G1 X143.788 Y128.557 E.02383
G1 X144.159 Y129.221 E.02385
G1 X144.294 Y129.969 E.02383
G1 X144.179 Y130.721 E.02385
G1 X143.788 Y131.443 E.02574
G1 X143.274 Y131.916 E.0219
G1 X142.622 Y132.214 E.02248
G1 X141.825 Y132.304 E.02515
G1 X141.029 Y132.102 E.02575
G1 X140.444 Y131.72 E.02191
G1 X139.986 Y131.148 E.02298
G1 E-3.5 F3600
;WIPE_START
G1 F7200
G1 X139.958 Y131.096 E-.02805
G1 X139.724 Y130.445 E-.32859
G1 X139.702 Y129.683 E-.3621
