; generated by PrusaSlicer 2.9.3 on 2025-10-20 at 01:30:22 UTC

; 

; external perimeters extrusion width = 0.42mm
; perimeters extrusion width = 0.44mm
; infill extrusion width = 0.44mm
; solid infill extrusion width = 0.44mm
; top infill extrusion width = 0.40mm
; first layer extrusion width = 0.42mm

M201 X500 Y500 Z100 E5000 ; sets maximum accelerations, mm/sec^2
M203 X500 Y500 Z10 E60 ; sets maximum feedrates, mm / sec
M204 S500 T1000 ; sets acceleration (S) and retract acceleration (R), mm/sec^2
M205 X8.00 Y8.00 Z0.40 E5.00 ; sets the jerk limits, mm/sec
M205 S0 T0 ; sets the minimum extruding and travel feed rate, mm/sec

; printing object RuedaDentada_v02.stl id:0 copy 0
; stop printing object RuedaDentada_v02.stl id:0 copy 0

;TYPE:Custom
G90 ; use absolute coordinates
M83 ; extruder relative mode
M104 S150 ; set temporary nozzle temp to prevent oozing during homing
M140 S60 ; set final bed temp
G4 S30 ; allow partial nozzle warmup
G28 ; home all axis
G1 Z50 F240
G1 X2.0 Y10 F3000
M104 S210 ; set final nozzle temp
M190 S60 ; wait for bed temp to stabilize
M109 S210 ; wait for nozzle temp to stabilize
G1 Z0.28 F240
G92 E0
G1 X2.0 Y140 E10 F1500 ; prime the nozzle
G1 X2.3 Y140 F5000
G92 E0
G1 X2.3 Y10 E10 F1200 ; prime the nozzle
G92 E0
G21 ; set units to millimeters
G90 ; use absolute coordinates
M83 ; use relative distances for extrusion
; Filament gcode
M107
;LAYER_CHANGE
;Z:0.2
;HEIGHT:0.2
G1 E-5 F3600
G1 Z.2 F9000
G1 X114.299 Y114.121
G1 E5 F2400
M204 S500
;TYPE:Skirt/Brim
;WIDTH:0.42
G1 X118.843 Y110.673 E.17885
G1 X119.68 Y110.216 E.0299
G1 X125.04 Y108.265 E.17885
G1 X125.975 Y108.077 E.0299
G1 X131.672 Y107.798 E.17884
G1 X132.621 Y107.894 E.02991
G1 X138.146 Y109.313 E.17885
G1 X139.066 Y109.712 E.03144
G1 X143.826 Y112.743 E.17694
G1 X144.392 Y113.202 E.02285
G1 X148.234 Y117.126 E.17219
G1 X148.65 Y117.652 E.02103
G1 X149.157 Y118.55 E.03233
G1 X151.244 Y123.695 E.17408
G1 X151.455 Y124.516 E.02658
G1 X152.13 Y130.18 E.17885
G1 X152.1 Y131.133 E.0299
G1 X151.071 Y136.743 E.17883
G1 X150.76 Y137.645 E.02992
G1 X148.118 Y142.7 E.17884
G1 X147.554 Y143.47 E.02993
G1 X143.535 Y147.517 E.17883
G1 X142.769 Y148.086 E.02992
G1 X137.733 Y150.764 E.17884
G1 X136.833 Y151.081 E.02992
G1 X131.23 Y152.149 E.17884
G1 X130.277 Y152.186 E.0299
G1 X124.609 Y151.55 E.17883
G1 X123.688 Y151.303 E.0299
G1 X118.46 Y149.02 E.17887
G1 X117.653 Y148.512 E.0299
G1 X113.335 Y144.784 E.17887
G1 X112.715 Y144.06 E.02989
G1 X109.692 Y139.223 E.17884
G1 X109.3 Y138.297 E.03153
G1 X107.94 Y132.784 E.17804
G1 X107.847 Y131.998 E.02482
G1 X107.881 Y126.998 E.15678
G1 X107.954 Y126.197 E.02522
G1 X108.103 Y125.534 E.02131
G1 X109.887 Y120.275 E.17412
G1 X110.314 Y119.443 E.02932
G1 X113.634 Y114.805 E.17884
G1 X114.257 Y114.164 E.02803
G1 E-3.5 F3600
;WIPE_START
G1 F7200
G1 X114.299 Y114.121 E-.02855
G1 X116.767 Y112.248 E-1.47145
;WIPE_END
; printing object RuedaDentada_v02.stl id:0 copy 0
G1 X124.659 Y123.647 F9000
G1 E5 F2400
;TYPE:Perimeter
;WIDTH:0.419999
G1 X125.742 Y122.872 E.04176
G1 X127.017 Y122.262 E.04432
G1 X128.379 Y121.882 E.04434
G1 X129.363 Y121.781 E.03101
G1 X129.878 Y121.744 E.01619
G1 X131.358 Y121.882 E.04661
G1 X132.565 Y122.205 E.03918
G1 X133.853 Y122.79 E.04435
G1 X135.086 Y123.64 E.04696
G1 X136.029 Y124.579 E.04173
G1 X136.852 Y125.729 E.04434
G1 X137.462 Y127.004 E.04432
G1 X137.842 Y128.366 E.04434
G1 X137.979 Y129.773 E.04432
G1 X137.87 Y131.183 E.04434
G1 X137.518 Y132.552 E.04432
G1 X137.055 Y133.579 E.03532
G1 X136.852 Y133.982 E.01415
G1 X136.308 Y134.759 E.02974
G1 X136.029 Y135.132 E.0146
G1 X135.145 Y136.016 E.0392
G1 X133.995 Y136.839 E.04434
G1 X133.026 Y137.306 E.03373
G1 X132.592 Y137.493 E.01482
G1 X131.361 Y137.828 E.04
G1 X129.95 Y137.966 E.04445
G1 X128.541 Y137.857 E.04431
G1 X127.831 Y137.682 E.02293
G1 X127.197 Y137.512 E.02058
G1 X125.887 Y136.922 E.04505
G1 X124.718 Y136.122 E.04441
G1 X123.708 Y135.132 E.04434
G1 X122.82 Y133.875 E.04825
G1 X122.218 Y132.552 E.04557
G1 X121.895 Y131.345 E.03918
G1 X121.77 Y130.078 E.03992
G1 X121.757 Y129.773 E.00957
G1 X121.866 Y128.528 E.03919
G1 X122.218 Y127.158 E.04435
G1 X122.687 Y126.119 E.03574
G1 X122.885 Y125.729 E.01371
G1 X123.602 Y124.705 E.03919
G1 X124.592 Y123.695 E.04434
G1 X124.61 Y123.682 E.0007
G1 X124.899 Y123.933 F9000
G1 F2400
G1 X125.958 Y123.181 E.04072
G1 X127.176 Y122.603 E.04227
G1 X128.476 Y122.246 E.04227
G1 X129.396 Y122.157 E.02898
G1 X129.889 Y122.122 E.0155
G1 X131.161 Y122.229 E.04002
G1 X132.56 Y122.603 E.0454
G1 X133.693 Y123.132 E.03921
G1 X134.855 Y123.939 E.04436
G1 X135.762 Y124.845 E.0402
G1 X136.543 Y125.945 E.0423
G1 X137.12 Y127.163 E.04226
G1 X137.478 Y128.463 E.04228
G1 X137.604 Y129.806 E.04229
G1 X137.495 Y131.15 E.04228
G1 X137.154 Y132.455 E.04229
G1 X136.543 Y133.766 E.04535
G1 X135.999 Y134.542 E.02971
G1 X135.762 Y134.865 E.01256
G1 X134.878 Y135.749 E.0392
G1 X133.779 Y136.53 E.04227
G1 X132.493 Y137.129 E.04448
G1 X131.262 Y137.464 E.04
G1 X129.918 Y137.591 E.04233
G1 X128.574 Y137.482 E.04228
G1 X127.929 Y137.318 E.02087
G1 X127.294 Y137.148 E.02061
G1 X126.045 Y136.58 E.04302
G1 X124.934 Y135.813 E.04233
G1 X123.974 Y134.865 E.0423
G1 X123.145 Y133.68 E.04534
G1 X122.616 Y132.547 E.03921
G1 X122.393 Y131.749 E.02598
G1 X122.259 Y131.247 E.01629
G1 X122.145 Y130.045 E.03786
G1 X122.133 Y129.806 E.0075
G1 X122.242 Y128.561 E.03919
G1 X122.616 Y127.163 E.04537
G1 X123.145 Y126.03 E.03921
G1 X123.974 Y124.845 E.04534
G1 X124.851 Y123.969 E.03887
G1 X125.138 Y124.218 F9000
;TYPE:External perimeter
G1 F2400
G1 X126.174 Y123.49 E.0397
G1 X127.336 Y122.945 E.04024
G1 X128.574 Y122.61 E.04021
G1 X129.429 Y122.533 E.02692
G1 X129.858 Y122.498 E.0135
G1 X131.129 Y122.604 E.03999
G1 X132.401 Y122.945 E.04129
G1 X133.534 Y123.473 E.03919
G1 X134.612 Y124.228 E.04127
G1 X135.496 Y125.112 E.0392
G1 X136.234 Y126.161 E.04021
G1 X136.79 Y127.354 E.04127
G1 X137.113 Y128.561 E.03918
G1 X137.228 Y129.841 E.0403
G1 X137.119 Y131.117 E.04015
G1 X136.79 Y132.357 E.04022
G1 X136.234 Y133.549 E.04124
G1 X135.69 Y134.326 E.02974
G1 X135.496 Y134.599 E.0105
G1 X134.612 Y135.483 E.0392
G1 X133.562 Y136.221 E.04024
G1 X132.395 Y136.766 E.04038
G1 X131.163 Y137.1 E.04002
G1 X129.885 Y137.215 E.04023
G1 X128.606 Y137.106 E.04025
G1 X128.026 Y136.954 E.0188
G1 X127.392 Y136.784 E.02058
G1 X126.203 Y136.238 E.04102
G1 X125.15 Y135.504 E.04025
G1 X124.241 Y134.599 E.04022
G1 X123.486 Y133.521 E.04127
G1 X122.958 Y132.388 E.03919
G1 X122.623 Y131.149 E.04024
G1 X122.521 Y130.012 E.03579
G1 X122.617 Y128.593 E.04459
G1 X122.958 Y127.323 E.04123
G1 X123.486 Y126.19 E.03919
G1 X124.241 Y125.112 E.04127
G1 X125.094 Y124.259 E.03782
G1 E-3.5 F3600
;WIPE_START
G1 F7200
G1 X125.138 Y124.218 E-.02857
G1 X126.174 Y123.49 E-.60145
G1 X127.336 Y122.945 E-.60964
G1 X127.865 Y122.802 E-.26034
;WIPE_END
G1 X119.74 Y117.294 F9000
G1 E5 F2400
;TYPE:Perimeter
G1 X119.87 Y117.225 E.00461
G1 X120.334 Y116.872 E.01828
G1 X120.536 Y116.663 E.00911
G1 X120.871 Y116.183 E.01835
G1 X120.999 Y115.919 E.0092
G1 X121.169 Y115.361 E.01829
G1 X121.21 Y115.071 E.00918
G1 X121.21 Y114.303 E.02408
G1 X121.268 Y114.187 E.00407
G1 X121.408 Y114.154 E.00451
G1 X122.083 Y114.582 E.02506
G1 X122.361 Y114.712 E.00962
G1 X122.922 Y114.871 E.01828
G1 X123.213 Y114.906 E.00919
G1 X123.795 Y114.884 E.01826
G1 X124.083 Y114.828 E.0092
G1 X124.631 Y114.629 E.01828
G1 X124.886 Y114.488 E.00914
G1 X125.348 Y114.129 E.01834
G1 X125.549 Y113.914 E.00923
G1 X125.876 Y113.432 E.01826
G1 X126.001 Y113.167 E.00919
G1 X126.228 Y112.433 E.02409
G1 X126.317 Y112.339 E.00406
G1 X126.461 Y112.35 E.00453
G1 X126.979 Y112.958 E.02504
G1 X127.206 Y113.164 E.00961
G1 X127.695 Y113.482 E.01829
G1 X127.963 Y113.601 E.00919
G1 X128.661 Y113.779 E.02259
G1 X129.216 Y113.765 E.01741
G1 X129.684 Y113.698 E.01482
G1 X130.233 Y113.49 E.01841
G1 X130.488 Y113.345 E.0092
G1 X130.943 Y112.981 E.01827
G1 X131.141 Y112.765 E.00919
G1 X131.574 Y112.131 E.02407
G1 X131.688 Y112.068 E.00408
G1 X131.822 Y112.12 E.00451
G1 X132.137 Y112.854 E.02504
G1 X132.293 Y113.118 E.00961
G1 X132.666 Y113.566 E.01828
G1 X132.887 Y113.76 E.00922
G1 X133.379 Y114.071 E.01825
G1 X133.649 Y114.188 E.00923
G1 X134.213 Y114.333 E.01826
G1 X134.5 Y114.361 E.00904
G1 X135.087 Y114.325 E.01844
G1 X135.374 Y114.262 E.00921
G1 X135.917 Y114.049 E.01829
G1 X136.17 Y113.9 E.00921
G1 X136.771 Y113.423 E.02406
G1 X136.898 Y113.396 E.00407
G1 X137.011 Y113.486 E.00453
G1 X137.094 Y114.28 E.02503
G1 X137.161 Y114.564 E.00915
G1 X137.378 Y115.095 E.01799
G1 X137.526 Y115.343 E.00906
G1 X137.894 Y115.784 E.01801
G1 X138.283 Y116.085 E.01542
G1 X138.819 Y116.389 E.01932
G1 X139.34 Y116.529 E.01692
G1 X139.7 Y116.579 E.0114
G1 X140.249 Y116.554 E.01723
G1 X140.532 Y116.504 E.00901
G1 X141.276 Y116.246 E.02469
G1 X141.395 Y116.255 E.00374
G1 X141.477 Y116.371 E.00445
G1 X141.36 Y117.181 E.02566
G1 X141.359 Y117.466 E.00894
G1 X141.44 Y118.008 E.01718
G1 X141.533 Y118.322 E.01027
G1 X141.793 Y118.844 E.01828
G1 X141.962 Y119.083 E.00918
G1 X142.559 Y119.65 E.02582
G1 X143.01 Y119.889 E.016
G1 X143.398 Y120.042 E.01308
G1 X143.929 Y120.134 E.0169
G1 X144.254 Y120.148 E.0102
G1 X145.061 Y120.045 E.02551
G1 X145.179 Y120.12 E.00438
G1 X145.198 Y120.262 E.00449
G1 X144.761 Y120.948 E.0255
G1 X144.634 Y121.232 E.00975
G1 X144.497 Y121.752 E.01686
G1 X144.453 Y122.112 E.01137
G1 X144.492 Y122.711 E.01882
G1 X144.559 Y123.005 E.00945
G1 X144.786 Y123.561 E.01883
G1 X144.943 Y123.819 E.00947
G1 X145.333 Y124.274 E.01879
G1 X145.564 Y124.469 E.00948
G1 X146.078 Y124.778 E.0188
G1 X146.339 Y124.885 E.00884
G1 X147.131 Y125.079 E.02557
G1 X147.226 Y125.154 E.0038
G1 X147.226 Y125.299 E.00455
G1 X146.63 Y125.883 E.02616
G1 X146.466 Y126.099 E.0085
G1 X146.183 Y126.609 E.01829
G1 X146.083 Y126.885 E.0092
G1 X145.97 Y127.457 E.01828
G1 X145.959 Y127.75 E.00919
G1 X146.028 Y128.329 E.01828
G1 X146.108 Y128.611 E.00919
G1 X146.352 Y129.141 E.01829
G1 X146.514 Y129.385 E.00918
G1 X146.909 Y129.814 E.01828
G1 X147.139 Y129.996 E.0092
G1 X147.801 Y130.384 E.02406
G1 X147.871 Y130.489 E.00396
G1 X147.829 Y130.631 E.00464
G1 X147.119 Y130.996 E.02503
G1 X146.866 Y131.17 E.00963
G1 X146.445 Y131.574 E.01829
G1 X146.268 Y131.807 E.00917
G1 X145.991 Y132.32 E.01828
G1 X145.894 Y132.597 E.0092
G1 X145.795 Y133.137 E.01721
G1 X145.781 Y133.464 E.01026
G1 X145.858 Y134.042 E.01828
G1 X145.941 Y134.323 E.00919
G1 X146.191 Y134.85 E.01829
G1 X146.357 Y135.092 E.0092
G1 X146.875 Y135.659 E.02408
G1 X146.91 Y135.783 E.00404
G1 X146.828 Y135.902 E.00453
G1 X146.042 Y136.041 E.02503
G1 X145.749 Y136.133 E.00963
G1 X145.228 Y136.394 E.01827
G1 X144.989 Y136.564 E.0092
G1 X144.573 Y136.973 E.01829
G1 X144.398 Y137.209 E.00921
G1 X144.16 Y137.666 E.01616
G1 X144.035 Y138.003 E.01127
G1 X143.936 Y138.578 E.01829
G1 X143.933 Y138.871 E.00919
G1 X144.016 Y139.448 E.01828
G1 X144.102 Y139.729 E.00921
G1 X144.43 Y140.423 E.02407
G1 X144.427 Y140.553 E.00408
G1 X144.314 Y140.642 E.00451
G1 X143.521 Y140.543 E.02506
G1 X143.214 Y140.543 E.00963
G1 X142.639 Y140.638 E.01827
G1 X142.361 Y140.731 E.00919
G1 X141.843 Y140.998 E.01827
G1 X141.608 Y141.169 E.00911
G1 X141.195 Y141.585 E.01838
G1 X141.023 Y141.823 E.00921
G1 X140.76 Y142.343 E.01827
G1 X140.669 Y142.622 E.0092
G1 X140.578 Y143.198 E.01828
G1 X140.578 Y143.491 E.00919
G1 X140.685 Y144.251 E.02406
G1 X140.644 Y144.375 E.00409
G1 X140.51 Y144.426 E.0045
G1 X139.782 Y144.097 E.02505
G1 X139.489 Y144.007 E.00961
G1 X138.911 Y143.928 E.01829
G1 X138.618 Y143.934 E.00919
G1 X138.044 Y144.036 E.01828
G1 X137.767 Y144.131 E.00918
G1 X137.252 Y144.405 E.01829
G1 X137.018 Y144.582 E.0092
G1 X136.612 Y145 E.01827
G1 X136.443 Y145.24 E.0092
G1 X136.186 Y145.763 E.01827
G1 X136.099 Y146.044 E.00922
G1 X135.977 Y146.801 E.02404
G1 X135.901 Y146.907 E.00409
G1 X135.757 Y146.917 E.00453
G1 X135.16 Y146.387 E.02503
G1 X134.906 Y146.214 E.00964
G1 X134.378 Y145.968 E.01826
G1 X134.096 Y145.886 E.00921
G1 X133.517 Y145.814 E.01829
G1 X133.224 Y145.824 E.00919
G1 X132.651 Y145.933 E.01829
G1 X132.375 Y146.032 E.00919
G1 X131.864 Y146.312 E.01827
G1 X131.631 Y146.491 E.00921
G1 X131.231 Y146.915 E.01828
G1 X131.065 Y147.157 E.0092
G1 X130.724 Y147.845 E.02408
G1 X130.621 Y147.923 E.00405
G1 X130.48 Y147.89 E.00454
G1 X130.066 Y147.207 E.02504
G1 X129.875 Y146.967 E.00962
G1 X129.443 Y146.575 E.01829
G1 X129.198 Y146.415 E.00917
G1 X128.667 Y146.175 E.01827
G1 X128.384 Y146.097 E.0092
G1 X127.804 Y146.032 E.0183
G1 X127.511 Y146.045 E.0092
G1 X126.94 Y146.161 E.01827
G1 X126.665 Y146.264 E.00921
G1 X126.157 Y146.55 E.01828
G1 X125.927 Y146.732 E.0092
G1 X125.398 Y147.288 E.02406
G1 X125.276 Y147.333 E.00408
G1 X125.152 Y147.26 E.00451
G1 X124.958 Y146.485 E.02505
G1 X124.846 Y146.199 E.00963
G1 X124.55 Y145.697 E.01827
G1 X124.363 Y145.471 E.0092
G1 X123.926 Y145.084 E.0183
G1 X123.681 Y144.927 E.00912
G1 X123.145 Y144.693 E.01834
G1 X122.861 Y144.619 E.0092
G1 X122.281 Y144.561 E.01828
G1 X121.988 Y144.578 E.0092
G1 X121.418 Y144.701 E.01828
G1 X121.145 Y144.807 E.00918
G1 X120.475 Y145.182 E.02407
G1 X120.345 Y145.188 E.00408
G1 X120.248 Y145.082 E.00451
G1 X120.292 Y144.284 E.02506
G1 X120.27 Y143.978 E.00962
G1 X120.135 Y143.411 E.01827
G1 X120.023 Y143.14 E.00919
G1 X119.721 Y142.641 E.01829
G1 X119.531 Y142.417 E.00921
G1 X119.09 Y142.036 E.01827
G1 X118.841 Y141.882 E.00918
G1 X118.303 Y141.655 E.01831
G1 X118.019 Y141.584 E.00918
G1 X117.438 Y141.534 E.01828
G1 X117.145 Y141.554 E.00921
G1 X116.394 Y141.714 E.02408
G1 X116.269 Y141.682 E.00405
G1 X116.208 Y141.551 E.00453
G1 X116.486 Y140.802 E.02505
G1 X116.555 Y140.503 E.00962
G1 X116.594 Y139.922 E.01826
G1 X116.567 Y139.629 E.00923
G1 X116.425 Y139.064 E.01827
G1 X116.311 Y138.794 E.00919
G1 X116.002 Y138.3 E.01827
G1 X115.809 Y138.078 E.00922
G1 X115.363 Y137.702 E.01829
G1 X115.112 Y137.551 E.00918
G1 X114.572 Y137.331 E.01828
G1 X114.287 Y137.263 E.00919
G1 X113.522 Y137.194 E.02408
G1 X113.412 Y137.126 E.00405
G1 X113.392 Y136.984 E.0045
G1 X113.88 Y136.351 E.02506
G1 X114.026 Y136.099 E.00913
G1 X114.236 Y135.565 E.01799
G1 X114.299 Y135.283 E.00906
G1 X114.337 Y134.71 E.01801
G1 X114.312 Y134.423 E.00903
G1 X114.175 Y133.865 E.01802
G1 X114.065 Y133.6 E.009
G1 X113.764 Y133.109 E.01806
G1 X113.577 Y132.889 E.00905
G1 X113.144 Y132.513 E.01798
G1 X112.899 Y132.359 E.00907
G1 X112.18 Y132.036 E.02471
G1 X112.118 Y131.922 E.00407
G1 X112.159 Y131.798 E.00409
G1 X112.834 Y131.558 E.02246
G1 X113.05 Y131.367 E.00904
G1 X113.363 Y130.889 E.01791
G1 X113.593 Y130.313 E.01945
G1 X113.657 Y129.932 E.01211
G1 X113.727 Y129.028 E.02843
G1 X113.627 Y128.532 E.01586
G1 X113.493 Y128.109 E.01391
G1 X113.117 Y127.466 E.02335
G1 X112.906 Y127.278 E.00886
G1 X112.203 Y127.05 E.02317
G1 X112.153 Y126.91 E.00466
G1 X112.227 Y126.789 E.00445
G1 X113.003 Y126.532 E.02563
G1 X113.254 Y126.405 E.00882
G1 X113.731 Y126.066 E.01835
G1 X113.941 Y125.86 E.00922
G1 X114.289 Y125.39 E.01834
G1 X114.425 Y125.129 E.00923
G1 X114.612 Y124.575 E.01833
G1 X114.661 Y124.286 E.00919
G1 X114.668 Y123.7 E.01837
G1 X114.625 Y123.408 E.00925
G1 X114.451 Y122.85 E.01833
G1 X114.32 Y122.586 E.00924
G1 X113.885 Y121.951 E.02413
G1 X113.867 Y121.822 E.00408
G1 X113.965 Y121.716 E.00453
G1 X114.765 Y121.688 E.0251
G1 X115.066 Y121.638 E.00957
G1 X115.618 Y121.452 E.01826
G1 X115.878 Y121.316 E.0092
G1 X116.347 Y120.97 E.01827
G1 X116.553 Y120.761 E.0092
G1 X116.892 Y120.287 E.01827
G1 X117.023 Y120.028 E.0091
G1 X117.201 Y119.469 E.01839
G1 X117.246 Y119.179 E.0092
G1 X117.243 Y118.596 E.01828
G1 X117.197 Y118.306 E.00921
G1 X116.969 Y117.573 E.02407
G1 X116.99 Y117.445 E.00407
G1 X117.114 Y117.372 E.00451
G1 X117.885 Y117.581 E.02505
G1 X118.189 Y117.623 E.00962
G1 X118.772 Y117.609 E.01828
G1 X119.061 Y117.556 E.00921
G1 X119.611 Y117.364 E.01827
G1 X119.687 Y117.323 E.00271
G1 X119.561 Y116.96 F9000
G1 F2400
G1 X119.775 Y116.823 E.00797
G1 X120.228 Y116.445 E.0185
G1 X120.638 Y115.809 E.02373
G1 X120.833 Y115.077 E.02375
G1 X120.837 Y114.178 E.02819
G1 X120.935 Y113.975 E.00707
