; generated by PrusaSlicer 2.9.3 on 2025-10-20 at 04:33:11 UTC

; 

; external perimeters extrusion width = 0.42mm
; perimeters extrusion width = 0.44mm
; infill extrusion width = 0.44mm
; solid infill extrusion width = 0.44mm
; top infill extrusion width = 0.40mm
; first layer extrusion width = 0.42mm

M201 X500 Y500 Z100 E5000 ; sets maximum accelerations, mm/sec^2
M203 X500 Y500 Z10 E60 ; sets maximum feedrates, mm / sec
M204 S500 T1000 ; sets acceleration (S) and retract acceleration (R), mm/sec^2
M205 X8.00 Y8.00 Z0.40 E5.00 ; sets the jerk limits, mm/sec
M205 S0 T0 ; sets the minimum extruding and travel feed rate, mm/sec

; printing object RuedaDentada_v04.stl id:0 copy 0
; stop printing object RuedaDentada_v04.stl id:0 copy 0

;TYPE:Custom
G90 ; use absolute coordinates
M83 ; extruder relative mode
M104 S150 ; set temporary nozzle temp to prevent oozing during homing
M140 S60 ; set final bed temp
G4 S30 ; allow partial nozzle warmup
G28 ; home all axis
G1 Z50 F240
G1 X2.0 Y10 F3000
M104 S210 ; set final nozzle temp
M190 S60 ; wait for bed temp to stabilize
M109 S210 ; wait for nozzle temp to stabilize
G1 Z0.28 F240
G92 E0
G1 X2.0 Y140 E10 F1500 ; prime the nozzle
G1 X2.3 Y140 F5000
G92 E0
G1 X2.3 Y10 E10 F1200 ; prime the nozzle
G92 E0
G21 ; set units to millimeters
G90 ; use absolute coordinates
M83 ; use relative distances for extrusion
; Filament gcode
M107
;LAYER_CHANGE
;Z:0.2
;HEIGHT:0.2
G1 E-5 F3600
G1 Z.2 F9000
G1 X113.157 Y112.475
G1 E5 F2400
M204 S500
;TYPE:Skirt/Brim
;WIDTH:0.42
G1 X114.849 Y110.995 E.07048
G1 X116.954 Y109.494 E.08106
G1 X119.208 Y108.225 E.0811
G1 X121.583 Y107.203 E.08107
G1 X124.054 Y106.439 E.0811
G1 X126.592 Y105.942 E.08109
G1 X129.169 Y105.718 E.0811
G1 X131.305 Y105.757 E.06698
G1 X132.093 Y105.796 E.02474
G1 X134.653 Y106.157 E.08106
G1 X137.161 Y106.788 E.08109
G1 X139.588 Y107.682 E.0811
G1 X141.609 Y108.665 E.07047
G1 X143.811 Y110.021 E.08108
G1 X145.856 Y111.604 E.08109
G1 X147.722 Y113.395 E.0811
G1 X149.588 Y115.647 E.0917
G1 X151.003 Y117.812 E.08109
G1 X152.179 Y120.115 E.08108
G1 X153.104 Y122.53 E.08108
G1 X153.767 Y125.03 E.0811
G1 X154.161 Y127.586 E.08109
G1 X154.28 Y130.17 E.08111
G1 X154.161 Y132.414 E.07046
G1 X153.767 Y134.97 E.08109
G1 X153.104 Y137.47 E.0811
G1 X152.179 Y139.885 E.08108
G1 X151.003 Y142.188 E.08108
G1 X149.588 Y144.353 E.08109
G1 X147.952 Y146.355 E.08106
G1 X146.112 Y148.172 E.08108
G1 X143.811 Y149.979 E.09173
G1 X141.609 Y151.335 E.08108
G1 X139.275 Y152.45 E.0811
G1 X136.836 Y153.31 E.08109
G1 X134.32 Y153.906 E.08107
G1 X131.754 Y154.232 E.0811
G1 X129.169 Y154.282 E.08107
G1 X126.929 Y154.103 E.07046
G1 X124.384 Y153.642 E.0811
G1 X121.903 Y152.912 E.08109
G1 X119.513 Y151.923 E.0811
G1 X117.242 Y150.686 E.08108
G1 X115.115 Y149.214 E.0811
G1 X113.157 Y147.525 E.08108
G1 X111.492 Y145.747 E.07638
G1 X109.646 Y143.289 E.09638
G1 X108.348 Y141.052 E.08109
G1 X107.296 Y138.689 E.0811
G1 X106.59 Y136.556 E.07045
G1 X106.026 Y134.032 E.08109
G1 X105.733 Y131.463 E.08107
G1 X105.715 Y128.876 E.08112
G1 X106.026 Y125.968 E.0917
G1 X106.59 Y123.444 E.08109
G1 X107.42 Y120.995 E.08108
G1 X108.505 Y118.647 E.0811
G1 X109.833 Y116.428 E.08108
G1 X111.39 Y114.363 E.08109
G1 X113.116 Y112.519 E.07919
G1 E-3.5 F3600
;WIPE_START
G1 F7200
G1 X113.157 Y112.475 E-.02857
G1 X114.849 Y110.995 E-1.06777
G1 X115.541 Y110.502 E-.40366
;WIPE_END
; printing object RuedaDentada_v04.stl id:0 copy 0
G1 X124.311 Y124.076 F9000
G1 E5 F2400
;TYPE:Perimeter
;WIDTH:0.419999
G1 X125.38 Y123.202 E.04329
G1 X125.521 Y123.109 E.0053
G1 X126.668 Y122.489 E.04088
G1 X128.062 Y122.018 E.04614
G1 X129.519 Y121.803 E.04618
G1 X129.689 Y121.795 E.00534
G1 X131.015 Y121.854 E.04162
G1 X131.274 Y121.898 E.00824
G1 X132.455 Y122.17 E.038
G1 X133.813 Y122.737 E.04614
G1 X133.962 Y122.817 E.0053
G1 X135.049 Y123.537 E.04088
G1 X135.185 Y123.646 E.00546
G1 X136.126 Y124.55 E.04091
G1 X136.513 Y125.059 E.02005
G1 X136.997 Y125.728 E.02589
G1 X137.494 Y126.73 E.03507
G1 X137.703 Y127.196 E.01601
G1 X138.051 Y128.466 E.04129
G1 X138.195 Y129.929 E.04609
G1 X138.068 Y131.46 E.04817
G1 X137.695 Y132.823 E.04431
G1 X137.069 Y134.15 E.046
G1 X136.519 Y134.933 E.03
G1 X136.12 Y135.456 E.02063
G1 X135.161 Y136.374 E.04162
G1 X134.843 Y136.601 E.01225
G1 X133.938 Y137.196 E.03396
G1 X133.152 Y137.547 E.02699
G1 X132.429 Y137.838 E.02444
G1 X131.157 Y138.126 E.04089
G1 X129.688 Y138.205 E.04613
G1 X128.252 Y138.026 E.04537
G1 X128.089 Y137.989 E.00524
G1 X126.849 Y137.588 E.04086
G1 X125.544 Y136.906 E.04617
G1 X124.382 Y136.002 E.04616
G1 X124.259 Y135.884 E.00534
G1 X123.386 Y134.884 E.04162
G1 X123.285 Y134.746 E.00536
G1 X122.616 Y133.623 E.04099
G1 X122.09 Y132.253 E.04601
G1 X121.884 Y131.196 E.03376
G1 X121.799 Y130.655 E.01717
G1 X121.801 Y129.335 E.04139
G1 X121.88 Y128.823 E.01624
G1 X122.084 Y127.758 E.034
G1 X122.63 Y126.351 E.04732
G1 X123.288 Y125.249 E.04024
G1 X124.241 Y124.134 E.04599
G1 X124.264 Y124.114 E.00096
G1 X124.568 Y124.346 F9000
G1 F2400
G1 X125.616 Y123.497 E.04229
G1 X126.847 Y122.821 E.04403
G1 X128.18 Y122.376 E.04406
G1 X129.57 Y122.176 E.04403
G1 X130.998 Y122.231 E.04481
G1 X132.37 Y122.537 E.04407
G1 X133.754 Y123.131 E.04722
G1 X134.924 Y123.918 E.04421
G1 X135.863 Y124.82 E.04082
G1 X136.691 Y125.949 E.0439
G1 X137.154 Y126.893 E.03297
G1 X137.342 Y127.307 E.01426
G1 X137.687 Y128.565 E.0409
G1 X137.82 Y129.962 E.044
G1 X137.686 Y131.448 E.04678
G1 X137.333 Y132.72 E.04139
G1 X136.73 Y133.986 E.04397
G1 X135.86 Y135.184 E.04642
G1 X134.9 Y136.101 E.04163
G1 X133.731 Y136.881 E.04406
G1 X133.004 Y137.2 E.02489
G1 X132.345 Y137.471 E.02234
G1 X131.074 Y137.759 E.04086
G1 X129.671 Y137.828 E.04404
G1 X128.303 Y137.652 E.04325
G1 X126.964 Y137.229 E.04403
G1 X125.722 Y136.574 E.04403
G1 X124.617 Y135.707 E.04404
G1 X123.669 Y134.636 E.04485
G1 X122.941 Y133.431 E.04414
G1 X122.443 Y132.121 E.04394
G1 X122.176 Y130.639 E.04722
G1 X122.179 Y129.335 E.04089
G1 X122.442 Y127.876 E.04648
G1 X122.954 Y126.544 E.04474
G1 X123.611 Y125.444 E.04017
G1 X124.522 Y124.384 E.04382
G1 X124.826 Y124.615 F9000
;TYPE:External perimeter
G1 F2400
G1 X125.851 Y123.791 E.04124
G1 X127.027 Y123.153 E.04195
G1 X128.297 Y122.735 E.04192
G1 X129.621 Y122.55 E.04192
G1 X130.981 Y122.608 E.04268
G1 X132.288 Y122.905 E.04202
G1 X133.545 Y123.446 E.04291
G1 X134.663 Y124.191 E.04212
G1 X135.6 Y125.09 E.04071
G1 X136.386 Y126.17 E.04188
G1 X136.814 Y127.056 E.03085
G1 X136.979 Y127.407 E.01216
G1 X137.324 Y128.667 E.04096
G1 X137.444 Y129.995 E.04181
G1 X137.319 Y131.361 E.04301
G1 X136.97 Y132.618 E.0409
G1 X136.391 Y133.822 E.04189
G1 X135.599 Y134.911 E.04222
G1 X134.639 Y135.829 E.04165
G1 X133.524 Y136.566 E.04191
G1 X132.856 Y136.853 E.0228
G1 X132.262 Y137.103 E.02021
G1 X130.991 Y137.391 E.04086
G1 X129.652 Y137.452 E.04203
G1 X128.353 Y137.278 E.04109
G1 X127.08 Y136.87 E.04191
G1 X125.898 Y136.24 E.042
G1 X124.852 Y135.412 E.04183
G1 X123.953 Y134.388 E.04272
G1 X123.266 Y133.24 E.04195
G1 X122.796 Y131.989 E.0419
G1 X122.553 Y130.639 E.04301
G1 X122.556 Y129.334 E.04092
G1 X122.8 Y127.995 E.04267
G1 X123.277 Y126.738 E.04215
G1 X123.934 Y125.639 E.04015
G1 X124.784 Y124.658 E.0407
G1 E-3.5 F3600
;WIPE_START
G1 F7200
G1 X124.826 Y124.615 E-.02855
G1 X125.851 Y123.791 E-.62469
G1 X127.027 Y123.153 E-.63551
G1 X127.449 Y123.014 E-.21125
;WIPE_END
G1 X116.505 Y115.196 F9000
G1 E5 F2400
;TYPE:Perimeter
G1 X117.606 Y114.233 E.04586
G1 X119.352 Y113.007 E.06689
G1 X121.219 Y111.973 E.06692
G1 X123.185 Y111.143 E.06691
G1 X125.228 Y110.527 E.06691
G1 X127.324 Y110.132 E.06688
G1 X129.451 Y109.961 E.06691
G1 X131.584 Y110.018 E.0669
G1 X133.699 Y110.301 E.06691
G1 X135.772 Y110.808 E.06691
G1 X137.779 Y111.532 E.0669
G1 X139.698 Y112.465 E.0669
G1 X141.507 Y113.597 E.06691
G1 X143.185 Y114.914 E.06688
G1 X144.714 Y116.403 E.06692
G1 X146.076 Y118.045 E.06689
G1 X147.256 Y119.823 E.06691
G1 X148.239 Y121.717 E.06691
G1 X149.016 Y123.704 E.06689
G1 X149.578 Y125.763 E.06692
G1 X149.917 Y127.869 E.06688
G1 X150.014 Y129.685 E.05702
G1 X150.014 Y130.315 E.01975
G1 X149.917 Y132.131 E.05702
G1 X149.578 Y134.237 E.06688
G1 X149.016 Y136.296 E.06692
G1 X148.239 Y138.283 E.06689
G1 X147.256 Y140.177 E.06691
G1 X146.076 Y141.955 E.06691
G1 X144.714 Y143.597 E.06689
G1 X143.185 Y145.086 E.06692
G1 X141.507 Y146.403 E.06688
G1 X139.698 Y147.535 E.06691
G1 X137.779 Y148.468 E.0669
G1 X135.772 Y149.192 E.0669
G1 X133.699 Y149.699 E.06691
G1 X131.584 Y149.982 E.06691
G1 X129.451 Y150.039 E.0669
G1 X127.324 Y149.868 E.06691
G1 X125.228 Y149.473 E.06688
G1 X123.185 Y148.857 E.06691
G1 X121.219 Y148.027 E.06691
G1 X119.352 Y146.993 E.06692
G1 X117.606 Y145.767 E.06689
G1 X116.001 Y144.362 E.06688
G1 X114.553 Y142.794 E.06692
G1 X113.281 Y141.081 E.0669
G1 X112.197 Y139.243 E.06691
G1 X111.316 Y137.3 E.06689
G1 X110.646 Y135.274 E.06691
G1 X110.195 Y133.189 E.06689
G1 X109.968 Y131.067 E.06691
G1 X109.968 Y128.933 E.06691
G1 X110.195 Y126.811 E.06691
G1 X110.646 Y124.726 E.06689
G1 X111.316 Y122.7 E.06691
G1 X112.197 Y120.757 E.06689
G1 X113.281 Y118.919 E.06691
G1 X114.553 Y117.206 E.0669
G1 X116.001 Y115.638 E.06692
G1 X116.46 Y115.236 E.01913
G1 X116.212 Y114.952 F9000
G1 F2400
G1 X117.373 Y113.936 E.04837
G1 X119.152 Y112.686 E.06817
G1 X121.054 Y111.633 E.06817
G1 X123.057 Y110.788 E.06816
G1 X125.138 Y110.16 E.06815
G1 X127.274 Y109.757 E.06815
G1 X129.441 Y109.584 E.06816
G1 X131.615 Y109.642 E.06819
G1 X133.769 Y109.93 E.06814
G1 X135.881 Y110.446 E.06817
G1 X137.926 Y111.184 E.06817
G1 X139.881 Y112.134 E.06815
G1 X141.724 Y113.288 E.06818
G1 X143.434 Y114.63 E.06816
G1 X144.992 Y116.147 E.06818
G1 X146.379 Y117.82 E.06814
G1 X147.581 Y119.632 E.06818
G1 X148.583 Y121.561 E.06816
G1 X149.375 Y123.585 E.06815
G1 X149.947 Y125.683 E.06818
G1 X150.293 Y127.829 E.06816
G1 X150.391 Y129.665 E.05765
G1 X150.391 Y130.335 E.02101
G1 X150.293 Y132.171 E.05765
G1 X149.947 Y134.317 E.06816
G1 X149.375 Y136.415 E.06818
G1 X148.583 Y138.439 E.06815
G1 X147.581 Y140.368 E.06816
G1 X146.379 Y142.18 E.06818
G1 X144.992 Y143.853 E.06814
G1 X143.434 Y145.37 E.06818
G1 X141.724 Y146.712 E.06816
G1 X139.881 Y147.866 E.06818
G1 X137.926 Y148.816 E.06815
G1 X135.881 Y149.554 E.06817
G1 X133.769 Y150.07 E.06817
G1 X131.615 Y150.358 E.06814
G1 X129.441 Y150.416 E.06819
G1 X127.274 Y150.243 E.06816
G1 X125.138 Y149.84 E.06815
G1 X123.057 Y149.212 E.06815
G1 X121.054 Y148.367 E.06816
G1 X119.152 Y147.314 E.06817
G1 X117.373 Y146.064 E.06817
G1 X115.737 Y144.632 E.06817
G1 X114.262 Y143.035 E.06816
G1 X112.966 Y141.29 E.06815
G1 X111.862 Y139.417 E.06817
G1 X110.964 Y137.437 E.06817
G1 X110.281 Y135.373 E.06817
G1 X109.822 Y133.249 E.06813
G1 X109.591 Y131.087 E.06817
G1 X109.591 Y128.913 E.06816
G1 X109.822 Y126.751 E.06817
G1 X110.281 Y124.627 E.06813
G1 X110.964 Y122.563 E.06817
G1 X111.862 Y120.583 E.06817
G1 X112.966 Y118.71 E.06817
G1 X114.262 Y116.965 E.06815
G1 X115.737 Y115.368 E.06816
G1 X116.167 Y114.992 E.01791
G1 X115.918 Y114.708 F9000
;TYPE:External perimeter
G1 F2400
G1 X117.14 Y113.639 E.05091
G1 X118.952 Y112.366 E.06943
G1 X120.889 Y111.293 E.06943
G1 X122.929 Y110.433 E.06941
G1 X125.048 Y109.793 E.0694
G1 X127.224 Y109.383 E.06943
G1 X129.431 Y109.206 E.06942
G1 X131.645 Y109.265 E.06944
G1 X133.839 Y109.559 E.06941
G1 X135.99 Y110.085 E.06943
G1 X138.073 Y110.836 E.06943
G1 X140.064 Y111.804 E.06941
G1 X141.941 Y112.979 E.06943
G1 X143.683 Y114.346 E.06943
G1 X145.269 Y115.89 E.0694
G1 X146.682 Y117.595 E.06943
G1 X147.906 Y119.44 E.06942
G1 X148.927 Y121.405 E.06943
G1 X149.733 Y123.467 E.06942
G1 X150.316 Y125.603 E.06942
G1 X150.668 Y127.789 E.06942
G1 X150.767 Y129.645 E.05828
G1 X150.767 Y130.355 E.02226
G1 X150.668 Y132.211 E.05828
G1 X150.316 Y134.397 E.06942
G1 X149.733 Y136.533 E.06942
G1 X148.927 Y138.595 E.06942
G1 X147.906 Y140.56 E.06943
G1 X146.682 Y142.405 E.06942
G1 X145.269 Y144.11 E.06943
G1 X143.683 Y145.654 E.0694
G1 X141.941 Y147.021 E.06943
G1 X140.064 Y148.196 E.06943
G1 X138.073 Y149.164 E.06941
G1 X135.99 Y149.915 E.06943
G1 X133.839 Y150.441 E.06943
G1 X131.645 Y150.735 E.06941
G1 X129.431 Y150.794 E.06944
G1 X127.224 Y150.617 E.06942
G1 X125.048 Y150.207 E.06943
G1 X122.929 Y149.567 E.0694
G1 X120.889 Y148.707 E.06941
G1 X118.952 Y147.634 E.06943
G1 X117.14 Y146.361 E.06943
G1 X115.474 Y144.903 E.06941
G1 X113.972 Y143.276 E.06943
G1 X112.651 Y141.499 E.06943
G1 X111.527 Y139.591 E.06943
G1 X110.612 Y137.575 E.06942
G1 X109.917 Y135.473 E.06942
G1 X109.449 Y133.309 E.06942
G1 X109.214 Y131.107 E.06943
G1 X109.214 Y128.893 E.06942
G1 X109.449 Y126.691 E.06943
G1 X109.917 Y124.527 E.06942
G1 X110.612 Y122.425 E.06942
G1 X111.527 Y120.409 E.06942
G1 X112.651 Y118.501 E.06943
G1 X113.972 Y116.724 E.06943
G1 X115.474 Y115.097 E.06943
G1 X115.873 Y114.747 E.01664
G1 E-3.5 F3600
;WIPE_START
G1 F7200
G1 X115.918 Y114.708 E-.02829
G1 X117.14 Y113.639 E-.77121
G1 X118.347 Y112.791 E-.7005
;WIPE_END
G1 X142.166 Y114.267 F9000
G1 E5 F2400
;TYPE:Solid infill
;WIDTH:0.422633
G1 X144.509 Y116.61 E.10462
G1 X145.843 Y118.219 E.06599
G1 X146.359 Y118.997 E.02948
G1 X140.956 Y113.594 E.24125
G1 X139.531 Y112.706 E.05301
G1 X147.231 Y120.407 E.34384
G1 X147.812 Y121.524 E.03975
G1 X138.486 Y112.198 E.41642
G1 X137.666 Y111.8 E.02878
G1 X137.485 Y111.734 E.00608
G1 X148.223 Y122.472 E.47947
G1 X148.568 Y123.354 E.0299
G1 X136.645 Y111.431 E.53238
G1 X135.805 Y111.128 E.02819
G1 X148.841 Y124.164 E.58207
G1 X149.042 Y124.902 E.02415
G1 X135.077 Y110.937 E.62356
G1 X134.366 Y110.763 E.02311
G1 X149.244 Y125.641 E.66432
G1 X149.294 Y125.824 E.00599
G1 X149.371 Y126.305 E.01538
G1 X133.655 Y110.59 E.70172
G1 X133.034 Y110.505 E.01979
G1 X149.474 Y126.945 E.73407
G1 X149.577 Y127.586 E.0205
G1 X132.414 Y110.422 E.76637
G1 X131.794 Y110.339 E.01975
G1 X149.643 Y128.189 E.797
G1 X149.674 Y128.756 E.01793
G1 X131.217 Y110.299 E.82413
G1 X130.665 Y110.284 E.01743
G1 X149.704 Y129.323 E.85012
G1 X149.734 Y129.89 E.01793
G1 X130.113 Y110.269 E.8761
G1 X129.562 Y110.255 E.0174
G1 X149.718 Y130.411 E.89999
G1 X149.691 Y130.921 E.01612
G1 X129.054 Y110.284 E.92147
G1 X128.557 Y110.324 E.01574
G1 X149.664 Y131.431 E.94246
G1 X149.637 Y131.941 E.01612
G1 X128.06 Y110.364 E.96344
G1 X127.563 Y110.404 E.01574
G1 X149.577 Y132.418 E.98295
G1 X149.502 Y132.88 E.01478
G1 X127.093 Y110.471 E1.00059
G1 X126.641 Y110.556 E.01452
G1 X149.428 Y133.343 E1.01747
G1 X149.353 Y133.805 E.01478
G1 X126.189 Y110.641 E1.0343
G1 X125.737 Y110.726 E.01452
G1 X149.271 Y134.26 E1.05082
G1 X149.156 Y134.682 E.01381
G1 X125.286 Y110.813 E1.06581
G1 X124.874 Y110.937 E.01358
G1 X149.041 Y135.104 E1.07909
G1 X148.926 Y135.526 E.01381
G1 X124.461 Y111.061 E1.0924
G1 X124.049 Y111.186 E.01359
G1 X148.81 Y135.948 E1.10563
G1 X148.681 Y136.355 E.01348
G1 X123.636 Y111.31 E1.11829
G1 X123.229 Y111.44 E.01349
G1 X148.53 Y136.742 E1.12975
G1 X148.379 Y137.128 E.01309
G1 X137.656 Y126.404 E.47882
G1 X137.946 Y127.008 E.02115
G1 X138.032 Y127.317 E.01013
G1 X148.229 Y137.514 E.45531
G1 X148.078 Y137.9 E.01309
G1 X138.24 Y128.062 E.43928
G1 X138.332 Y128.393 E.01085
G1 X138.381 Y128.74 E.01106
G1 X147.916 Y138.275 E.42575
G1 X147.733 Y138.629 E.01258
G1 X138.431 Y129.328 E.41532
G1 X138.482 Y129.915 E.0186
G1 X147.549 Y138.982 E.40485
G1 X147.365 Y139.335 E.01257
G1 X138.453 Y130.423 E.39793
G1 X138.41 Y130.917 E.01566
G1 X147.182 Y139.689 E.39168
G1 X146.997 Y140.041 E.01256
G1 X138.366 Y131.41 E.38539
G1 X138.267 Y131.849 E.01421
G1 X146.783 Y140.364 E.38023
G1 X146.569 Y140.687 E.01223
G1 X138.151 Y132.269 E.37587
G1 X138.034 Y132.689 E.01377
G1 X146.354 Y141.01 E.37152
G1 X146.14 Y141.332 E.01221
G1 X137.902 Y133.094 E.36784
G1 X137.727 Y133.456 E.0127
G1 X145.926 Y141.655 E.3661
G1 X145.843 Y141.781 E.00476
G1 X145.694 Y141.96 E.00735
G1 X137.551 Y133.817 E.3636
G1 X137.375 Y134.178 E.01268
G1 X145.451 Y142.254 E.3606
G1 X145.207 Y142.547 E.01204
G1 X137.175 Y134.515 E.35864
G1 X136.95 Y134.827 E.01215
G1 X144.964 Y142.841 E.35784
G1 X144.721 Y143.135 E.01204
G1 X136.726 Y135.14 E.35699
