; generated by PrusaSlicer 2.9.3 on 2025-10-20 at 00:26:36 UTC

; 

; external perimeters extrusion width = 0.42mm
; perimeters extrusion width = 0.44mm
; infill extrusion width = 0.44mm
; solid infill extrusion width = 0.44mm
; top infill extrusion width = 0.40mm
; first layer extrusion width = 0.42mm

M201 X500 Y500 Z100 E5000 ; sets maximum accelerations, mm/sec^2
M203 X500 Y500 Z10 E60 ; sets maximum feedrates, mm / sec
M204 S500 T1000 ; sets acceleration (S) and retract acceleration (R), mm/sec^2
M205 X8.00 Y8.00 Z0.40 E5.00 ; sets the jerk limits, mm/sec
M205 S0 T0 ; sets the minimum extruding and travel feed rate, mm/sec

; printing object RuedaDentada_v01.stl id:0 copy 0
; stop printing object RuedaDentada_v01.stl id:0 copy 0

;TYPE:Custom
G90 ; use absolute coordinates
M83 ; extruder relative mode
M104 S150 ; set temporary nozzle temp to prevent oozing during homing
M140 S60 ; set final bed temp
G4 S30 ; allow partial nozzle warmup
G28 ; home all axis
G1 Z50 F240
G1 X2.0 Y10 F3000
M104 S210 ; set final nozzle temp
M190 S60 ; wait for bed temp to stabilize
M109 S210 ; wait for nozzle temp to stabilize
G1 Z0.28 F240
G92 E0
G1 X2.0 Y140 E10 F1500 ; prime the nozzle
G1 X2.3 Y140 F5000
G92 E0
G1 X2.3 Y10 E10 F1200 ; prime the nozzle
G92 E0
G21 ; set units to millimeters
G90 ; use absolute coordinates
M83 ; use relative distances for extrusion
; Filament gcode
M107
;LAYER_CHANGE
;Z:0.2
;HEIGHT:0.2
G1 E-5 F3600
G1 Z.2 F9000
G1 X114.221 Y113.897
G1 E5 F2400
M204 S500
;TYPE:Skirt/Brim
;WIDTH:0.42
G1 X118.837 Y110.406 E.18146
G1 X119.675 Y109.951 E.0299
G1 X125.117 Y107.981 E.18147
G1 X126.052 Y107.794 E.0299
G1 X131.834 Y107.521 E.18149
G1 X132.782 Y107.619 E.02988
G1 X138.385 Y109.068 E.18146
G1 X139.262 Y109.442 E.02989
G1 X144.186 Y112.484 E.18147
G1 X144.914 Y113.1 E.0299
G1 X148.718 Y117.462 E.18147
G1 X149.231 Y118.266 E.0299
G1 X151.575 Y123.557 E.18145
G1 X151.827 Y124.477 E.02991
G1 X152.502 Y130.225 E.18146
G1 X152.471 Y131.178 E.0299
G1 X151.416 Y136.868 E.18145
G1 X151.104 Y137.77 E.02993
G1 X148.414 Y142.894 E.18145
G1 X147.849 Y143.662 E.02989
G1 X143.764 Y147.762 E.18147
G1 X142.997 Y148.329 E.02991
G1 X137.883 Y151.037 E.18144
G1 X136.982 Y151.352 E.02993
G1 X131.296 Y152.427 E.18144
G1 X130.343 Y152.462 E.0299
G1 X124.592 Y151.807 E.18148
G1 X123.679 Y151.561 E.02965
G1 X118.563 Y149.331 E.17498
G1 X118.017 Y149.031 E.01953
G1 X117.395 Y148.593 E.02385
G1 X113.186 Y144.928 E.17499
G1 X112.572 Y144.208 E.02967
G1 X109.514 Y139.295 E.18145
G1 X109.139 Y138.426 E.02968
G1 X107.709 Y133.032 E.17497
G1 X107.477 Y130.348 E.08447
G1 X107.538 Y128.254 E.06568
G1 X107.851 Y125.844 E.0762
G1 X109.746 Y120.121 E.18902
G1 X110.178 Y119.279 E.02967
G1 X113.555 Y114.579 E.18146
G1 X114.179 Y113.94 E.028
G1 E-3.5 F3600
;WIPE_START
G1 F7200
G1 X114.221 Y113.897 E-.02855
G1 X116.692 Y112.028 E-1.47145
;WIPE_END
; printing object RuedaDentada_v01.stl id:0 copy 0
G1 X126.55 Y126.904 F9000
G1 E5 F2400
;TYPE:Perimeter
;WIDTH:0.419999
G1 X126.843 Y126.618 E.01284
G1 X127.283 Y126.227 E.01846
G1 X127.729 Y125.962 E.01627
G1 X128.254 Y125.687 E.01858
G1 X129.326 Y125.394 E.03484
G1 X130.437 Y125.367 E.03484
G1 X131.499 Y125.6 E.03409
G1 X131.735 Y125.687 E.00789
G1 X132.521 Y126.1 E.02784
G1 X133.35 Y126.798 E.03398
G1 X134.019 Y127.708 E.03541
G1 X134.442 Y128.742 E.03503
G1 X134.59 Y129.739 E.0316
G1 X134.603 Y130.069 E.01035
G1 X134.496 Y130.948 E.02776
G1 X134.128 Y131.996 E.03483
G1 X133.589 Y132.825 E.031
G1 X133.305 Y133.152 E.01358
G1 X132.706 Y133.683 E.0251
G1 X131.897 Y134.139 E.02912
G1 X131.522 Y134.304 E.01285
G1 X130.663 Y134.516 E.02774
G1 X129.552 Y134.544 E.03485
G1 X128.67 Y134.354 E.02829
G1 X128.25 Y134.221 E.01381
G1 X127.47 Y133.812 E.02761
G1 X126.817 Y133.27 E.02661
G1 X126.47 Y132.926 E.01532
G1 X125.967 Y132.197 E.02777
G1 X125.579 Y131.252 E.03203
G1 X125.493 Y130.948 E.00991
G1 X125.384 Y129.93 E.0321
G1 X125.492 Y128.969 E.03032
G1 X125.662 Y128.44 E.01742
G1 X125.861 Y127.914 E.01763
G1 X126.176 Y127.411 E.01861
G1 X126.474 Y126.978 E.01648
G1 X126.508 Y126.946 E.00146
G1 X126.83 Y127.152 F9000
G1 F2400
G1 X127.533 Y126.51 E.02985
G1 X128.429 Y126.021 E.032
G1 X129.417 Y125.76 E.03204
G1 X130.437 Y125.744 E.03199
G1 X131.409 Y125.967 E.03127
G1 X132.344 Y126.432 E.03274
G1 X133.1 Y127.08 E.03122
G1 X133.71 Y127.924 E.03265
G1 X134.089 Y128.876 E.03213
G1 X134.216 Y129.784 E.02875
G1 X134.228 Y130.023 E.0075
G1 X134.122 Y130.902 E.02776
G1 X133.775 Y131.862 E.03201
G1 X133.278 Y132.611 E.02818
G1 X133.055 Y132.87 E.01072
G1 X132.456 Y133.401 E.0251
G1 X131.722 Y133.805 E.02627
G1 X131.432 Y133.938 E.01
G1 X130.573 Y134.15 E.02774
G1 X129.552 Y134.166 E.03202
G1 X128.76 Y133.988 E.02545
G1 X128.425 Y133.887 E.01097
G1 X127.646 Y133.478 E.02759
G1 X127.067 Y132.988 E.02378
G1 X126.78 Y132.712 E.01248
G1 X126.277 Y131.983 E.02777
G1 X125.932 Y131.119 E.02917
G1 X125.867 Y130.902 E.0071
G1 X125.76 Y129.95 E.03004
G1 X125.867 Y129.012 E.0296
G1 X126.214 Y128.048 E.03212
G1 X126.783 Y127.195 E.03215
G1 X126.786 Y127.192 E.00013
G1 X127.108 Y127.398 F9000
;TYPE:External perimeter
G1 F2400
G1 X127.783 Y126.792 E.02844
G1 X128.605 Y126.355 E.02919
G1 X129.507 Y126.127 E.02917
G1 X130.437 Y126.121 E.02916
G1 X131.318 Y126.333 E.02841
G1 X132.168 Y126.766 E.02991
G1 X132.85 Y127.363 E.02842
G1 X133.401 Y128.14 E.02987
G1 X133.736 Y129.01 E.02923
G1 X133.854 Y129.978 E.03058
G1 X133.747 Y130.857 E.02776
G1 X133.423 Y131.729 E.02917
G1 X132.968 Y132.397 E.02534
G1 X132.805 Y132.588 E.00787
G1 X132.206 Y133.119 E.0251
G1 X131.342 Y133.572 E.03059
G1 X130.482 Y133.784 E.02777
G1 X129.552 Y133.789 E.02916
G1 X128.6 Y133.554 E.03075
G1 X127.821 Y133.144 E.0276
G1 X127.091 Y132.498 E.03056
G1 X126.588 Y131.769 E.02777
G1 X126.284 Y130.985 E.02637
G1 X126.137 Y129.97 E.03216
G1 X126.242 Y129.055 E.02888
G1 X126.567 Y128.182 E.02921
G1 X127.07 Y127.443 E.02803
G1 E-3.5 F3600
;WIPE_START
G1 F7200
G1 X127.108 Y127.398 E-.02798
G1 X127.783 Y126.792 E-.43088
G1 X128.605 Y126.355 E-.4422
G1 X129.507 Y126.127 E-.44193
G1 X129.838 Y126.125 E-.15701
;WIPE_END
G1 X116.818 Y119.947 F9000
G1 E5 F2400
;TYPE:Perimeter
G1 X116.885 Y119.822 E.00445
G1 X117.073 Y119.256 E.0187
G1 X117.12 Y118.975 E.00893
G1 X117.13 Y118.379 E.01869
G1 X117.092 Y118.096 E.00895
G1 X116.883 Y117.349 E.02432
G1 X116.904 Y117.227 E.00388
G1 X117.028 Y117.152 E.00454
G1 X117.81 Y117.343 E.02524
G1 X118.107 Y117.378 E.00938
G1 X118.703 Y117.353 E.0187
G1 X118.982 Y117.299 E.00891
G1 X119.719 Y117.013 E.02479
G1 X120.159 Y116.686 E.01719
G1 X120.468 Y116.398 E.01324
G1 X120.815 Y115.913 E.0187
G1 X120.943 Y115.659 E.00892
G1 X121.129 Y115.092 E.01871
G1 X121.176 Y114.811 E.00893
G1 X121.197 Y114.036 E.02431
G1 X121.253 Y113.925 E.0039
G1 X121.394 Y113.89 E.00456
G1 X122.085 Y114.304 E.02526
G1 X122.358 Y114.425 E.00936
G1 X122.934 Y114.578 E.01869
G1 X123.217 Y114.608 E.00892
G1 X123.813 Y114.582 E.0187
G1 X124.092 Y114.527 E.00892
G1 X124.653 Y114.324 E.01871
G1 X124.903 Y114.188 E.00892
G1 X125.377 Y113.826 E.0187
G1 X125.575 Y113.622 E.00891
G1 X125.92 Y113.135 E.01871
G1 X126.048 Y112.881 E.00892
G1 X126.298 Y112.146 E.02434
G1 X126.384 Y112.057 E.00388
G1 X126.529 Y112.065 E.00455
G1 X127.067 Y112.665 E.02527
G1 X127.292 Y112.861 E.00936
G1 X127.797 Y113.178 E.01869
G1 X128.059 Y113.291 E.00895
G1 X128.635 Y113.442 E.01867
G1 X128.919 Y113.471 E.00895
G1 X129.514 Y113.443 E.01868
G1 X129.794 Y113.387 E.00895
G1 X130.353 Y113.182 E.01867
G1 X130.603 Y113.045 E.00894
G1 X131.076 Y112.683 E.01868
G1 X131.274 Y112.477 E.00896
G1 X131.73 Y111.85 E.02431
G1 X131.838 Y111.79 E.00387
G1 X131.974 Y111.84 E.00454
G1 X132.311 Y112.573 E.0253
G1 X132.468 Y112.827 E.00936
G1 X132.857 Y113.278 E.01867
G1 X133.073 Y113.464 E.00894
G1 X133.579 Y113.778 E.01867
G1 X133.841 Y113.891 E.00895
G1 X134.418 Y114.04 E.01868
G1 X134.702 Y114.069 E.00895
G1 X135.25 Y114.041 E.0172
G1 X135.576 Y113.982 E.01039
G1 X136.136 Y113.775 E.01872
G1 X136.385 Y113.637 E.00893
G1 X137.006 Y113.173 E.02431
G1 X137.127 Y113.148 E.00387
G1 X137.242 Y113.236 E.00454
G1 X137.347 Y114.035 E.02527
G1 X137.422 Y114.324 E.00936
G1 X137.66 Y114.871 E.0187
G1 X137.819 Y115.12 E.00926
G1 X138.339 Y115.687 E.02412
G1 X138.832 Y116.001 E.01833
G1 X139.189 Y116.171 E.0124
G1 X139.767 Y116.319 E.01871
G1 X140.05 Y116.347 E.00892
G1 X140.645 Y116.315 E.01868
G1 X140.924 Y116.257 E.00893
G1 X141.655 Y115.996 E.02434
G1 X141.778 Y116.008 E.00387
G1 X141.862 Y116.127 E.00457
G1 X141.726 Y116.921 E.02526
G1 X141.712 Y117.219 E.00935
G1 X141.778 Y117.812 E.01871
G1 X141.852 Y118.087 E.00893
G1 X142.092 Y118.633 E.0187
G1 X142.244 Y118.873 E.00891
G1 X142.636 Y119.323 E.01871
G1 X142.854 Y119.506 E.00892
G1 X143.322 Y119.794 E.01723
G1 X143.625 Y119.929 E.0104
G1 X144.203 Y120.074 E.01868
G1 X144.486 Y120.101 E.00891
G1 X145.261 Y120.069 E.02432
G1 X145.375 Y120.117 E.00388
G1 X145.421 Y120.255 E.00456
G1 X145.056 Y120.973 E.02525
G1 X144.954 Y121.254 E.00937
G1 X144.842 Y121.84 E.01871
G1 X144.833 Y122.135 E.00925
G1 X144.927 Y122.845 E.02246
G1 X145.149 Y123.386 E.01834
G1 X145.369 Y123.776 E.01404
G1 X145.762 Y124.224 E.01869
G1 X145.98 Y124.408 E.00894
G1 X146.489 Y124.718 E.01869
G1 X146.752 Y124.827 E.00893
G1 X147.502 Y125.025 E.02432
G1 X147.597 Y125.105 E.00389
G1 X147.599 Y125.25 E.00455
G1 X147.038 Y125.829 E.02528
G1 X146.858 Y126.067 E.00936
G1 X146.578 Y126.593 E.01868
G1 X146.483 Y126.862 E.00894
G1 X146.373 Y127.448 E.01869
G1 X146.363 Y127.732 E.00891
G1 X146.433 Y128.324 E.01869
G1 X146.508 Y128.599 E.00894
G1 X146.751 Y129.143 E.01868
G1 X146.906 Y129.383 E.00896
G1 X147.3 Y129.83 E.01868
G1 X147.519 Y130.012 E.00893
G1 X148.177 Y130.423 E.02433
G1 X148.244 Y130.527 E.00388
G1 X148.203 Y130.667 E.00457
G1 X147.496 Y131.053 E.02526
G1 X147.254 Y131.228 E.00936
G1 X146.831 Y131.647 E.01867
G1 X146.661 Y131.876 E.00894
G1 X146.382 Y132.403 E.0187
G1 X146.288 Y132.672 E.00893
G1 X146.195 Y133.176 E.01607
G1 X146.171 Y133.543 E.01153
G1 X146.242 Y134.135 E.01869
G1 X146.319 Y134.409 E.00892
G1 X146.564 Y134.953 E.01871
G1 X146.718 Y135.192 E.00891
G1 X147.225 Y135.779 E.02432
G1 X147.259 Y135.898 E.00388
G1 X147.179 Y136.019 E.00455
G1 X146.389 Y136.179 E.02527
G1 X146.106 Y136.274 E.00936
G1 X145.577 Y136.55 E.01871
G1 X145.347 Y136.718 E.00893
G1 X144.925 Y137.139 E.01869
G1 X144.756 Y137.369 E.00895
G1 X144.479 Y137.897 E.01869
G1 X144.386 Y138.166 E.00892
G1 X144.288 Y138.706 E.01721
G1 X144.272 Y139.037 E.01039
G1 X144.345 Y139.629 E.0187
G1 X144.422 Y139.903 E.00892
G1 X144.733 Y140.614 E.02433
G1 X144.729 Y140.737 E.00386
G1 X144.617 Y140.83 E.00456
G1 X143.815 Y140.749 E.02527
G1 X143.517 Y140.756 E.00935
G1 X142.93 Y140.863 E.01871
G1 X142.651 Y140.961 E.00927
G1 X141.947 Y141.364 E.02543
G1 X141.543 Y141.765 E.01785
G1 X141.315 Y142.054 E.01154
G1 X141.039 Y142.583 E.01871
G1 X140.947 Y142.853 E.00894
G1 X140.843 Y143.44 E.01869
G1 X140.835 Y143.724 E.00891
G1 X140.922 Y144.495 E.02433
G1 X140.882 Y144.612 E.00388
G1 X140.747 Y144.667 E.00457
G1 X140.005 Y144.353 E.02526
G1 X139.718 Y144.272 E.00935
G1 X139.126 Y144.2 E.0187
G1 X138.841 Y144.21 E.00894
G1 X138.255 Y144.318 E.01868
G1 X137.989 Y144.411 E.00884
G1 X137.459 Y144.691 E.01879
G1 X137.231 Y144.861 E.00892
G1 X136.811 Y145.285 E.01871
G1 X136.644 Y145.515 E.00891
G1 X136.37 Y146.044 E.01868
G1 X136.279 Y146.314 E.00893
G1 X136.134 Y147.076 E.02432
G1 X136.061 Y147.176 E.00388
G1 X135.916 Y147.189 E.00456
G1 X135.3 Y146.67 E.02526
G1 X135.05 Y146.507 E.00936
G1 X134.505 Y146.264 E.01871
G1 X134.231 Y146.188 E.00892
G1 X133.639 Y146.119 E.01869
G1 X133.354 Y146.129 E.00894
G1 X132.823 Y146.229 E.01694
G1 X132.499 Y146.334 E.01068
G1 X131.973 Y146.615 E.0187
G1 X131.745 Y146.785 E.00892
G1 X131.327 Y147.21 E.01869
G1 X131.16 Y147.441 E.00894
G1 X130.796 Y148.126 E.02432
G1 X130.697 Y148.2 E.00388
G1 X130.555 Y148.169 E.00456
G1 X130.12 Y147.491 E.02526
G1 X129.929 Y147.261 E.00937
G1 X129.481 Y146.868 E.01869
G1 X129.241 Y146.715 E.00892
G1 X128.696 Y146.474 E.01868
G1 X128.421 Y146.399 E.00894
G1 X127.829 Y146.331 E.01868
G1 X127.544 Y146.342 E.00894
G1 X126.959 Y146.455 E.01868
G1 X126.69 Y146.55 E.00894
G1 X126.165 Y146.833 E.0187
G1 X125.937 Y147.004 E.00894
G1 X125.387 Y147.55 E.0243
G1 X125.271 Y147.592 E.00387
G1 X125.144 Y147.521 E.00456
G1 X124.929 Y146.744 E.02528
G1 X124.815 Y146.468 E.00936
G1 X124.503 Y145.96 E.01869
G1 X124.319 Y145.743 E.00892
G1 X123.869 Y145.351 E.01871
G1 X123.629 Y145.198 E.00892
G1 X123.088 Y144.961 E.01852
G1 X122.808 Y144.885 E.0091
G1 X122.215 Y144.819 E.01871
G1 X121.931 Y144.831 E.00891
G1 X121.346 Y144.945 E.01869
G1 X121.086 Y145.037 E.00865
G1 X120.394 Y145.403 E.02454
G1 X120.251 Y145.411 E.00449
G1 X120.156 Y145.286 E.00492
G1 X120.192 Y144.472 E.02555
G1 X120.163 Y144.198 E.00864
G1 X120.016 Y143.62 E.0187
G1 X119.904 Y143.358 E.00893
G1 X119.591 Y142.851 E.01868
G1 X119.409 Y142.637 E.00881
G1 X118.955 Y142.244 E.01883
G1 X118.714 Y142.092 E.00893
G1 X118.211 Y141.873 E.0172
G1 X117.892 Y141.781 E.01041
G1 X117.3 Y141.717 E.01867
G1 X117.015 Y141.73 E.00895
G1 X116.252 Y141.87 E.02432
G1 X116.133 Y141.839 E.00386
G1 X116.068 Y141.708 E.00459
G1 X116.33 Y140.946 E.02526
G1 X116.391 Y140.654 E.00935
G1 X116.421 Y140.058 E.01871
G1 X116.389 Y139.765 E.00924
G1 X116.246 Y139.234 E.01724
G1 X116.118 Y138.916 E.01075
G1 X115.83 Y138.454 E.01707
G1 X115.63 Y138.214 E.0098
G1 X115.178 Y137.825 E.0187
G1 X114.937 Y137.674 E.00892
G1 X114.389 Y137.437 E.01872
G1 X114.114 Y137.365 E.00891
G1 X113.343 Y137.274 E.02434
G1 X113.238 Y137.208 E.00389
G1 X113.216 Y137.065 E.00454
G1 X113.691 Y136.414 E.02527
G1 X113.836 Y136.153 E.00936
G1 X114.04 Y135.593 E.01869
G1 X114.097 Y135.313 E.00896
G1 X114.124 Y134.718 E.01867
G1 X114.095 Y134.435 E.00892
G1 X113.943 Y133.858 E.01871
G1 X113.83 Y133.597 E.00892
G1 X113.514 Y133.091 E.0187
G1 X113.328 Y132.876 E.00891
G1 X112.875 Y132.488 E.0187
G1 X112.641 Y132.342 E.00865
G1 X111.918 Y132.024 E.02476
G1 X111.839 Y131.938 E.00366
G1 X111.73 Y130.395 E.0485
G1 X111.768 Y128.695 E.05332
G1 X111.998 Y126.812 E.05948
G1 X112.072 Y126.7 E.00421
G1 X112.836 Y126.424 E.02547
G1 X113.08 Y126.293 E.00868
G1 X113.522 Y125.963 E.0173
G1 X113.758 Y125.734 E.01031
G1 X114.107 Y125.251 E.01868
G1 X114.237 Y124.997 E.00895
G1 X114.426 Y124.432 E.01868
G1 X114.475 Y124.151 E.00894
G1 X114.486 Y123.602 E.01722
G1 X114.449 Y123.273 E.01038
G1 X114.282 Y122.701 E.01868
G1 X114.162 Y122.442 E.00895
G1 X113.742 Y121.79 E.02432
G1 X113.725 Y121.668 E.00386
G1 X113.821 Y121.559 E.00455
G1 X114.626 Y121.51 E.02529
G1 X114.919 Y121.455 E.00935
G1 X115.481 Y121.256 E.01869
G1 X115.741 Y121.115 E.00927
G1 X116.176 Y120.78 E.01721
G1 X116.422 Y120.541 E.01075
G1 X116.724 Y120.12 E.01625
G1 X116.789 Y120 E.00428
G1 X116.479 Y119.775 F9000
G1 F2400
G1 X116.527 Y119.703 E.00271
G1 X116.743 Y118.969 E.02399
G1 X116.73 Y118.203 E.02402
G1 X116.491 Y117.332 E.02832
G1 X116.528 Y117.115 E.0069
G1 X116.647 Y116.93 E.0069
G1 X116.829 Y116.806 E.00691
G1 X117.037 Y116.766 E.00664
G1 X118.092 Y117.001 E.03389
G1 X118.855 Y116.944 E.02399
G1 X119.567 Y116.661 E.02402
G1 X120.161 Y116.179 E.02398
G1 X120.585 Y115.541 E.02402
G1 X120.798 Y114.806 E.02399
G1 X120.828 Y113.903 E.02833
G1 X120.927 Y113.707 E.00688
G1 X121.095 Y113.565 E.0069
G1 X121.306 Y113.501 E.00691
G1 X121.517 Y113.524 E.00665
G1 X122.455 Y114.06 E.03387
G1 X123.201 Y114.232 E.024
G1 X123.796 Y114.205 E.01867
G1 X124.192 Y114.09 E.01293
G1 X124.675 Y113.888 E.01642
G1 X125.268 Y113.404 E.024
G1 X125.689 Y112.764 E.02402
G1 X125.984 Y111.91 E.02833
G1 X126.137 Y111.752 E.0069
G1 X126.34 Y111.667 E.0069
G1 X126.56 Y111.668 E.0069
G1 X126.755 Y111.752 E.00666
G1 X127.492 Y112.542 E.03388
G1 X128.154 Y112.926 E.024
G1 X128.731 Y113.077 E.0187
G1 X128.929 Y113.094 E.00623
G1 X129.664 Y113.033 E.02312
G1 X130.374 Y112.746 E.02401
G1 X130.965 Y112.26 E.02399
G1 X131.5 Y111.532 E.02833
G1 X131.693 Y111.426 E.0069
G1 X131.912 Y111.404 E.0069
G1 X132.122 Y111.47 E.0069
G1 X132.282 Y111.608 E.00662
