; generated by PrusaSlicer 2.9.3 on 2025-10-20 at 06:17:28 UTC

; 

; external perimeters extrusion width = 0.42mm
; perimeters extrusion width = 0.44mm
; infill extrusion width = 0.44mm
; solid infill extrusion width = 0.44mm
; top infill extrusion width = 0.40mm
; first layer extrusion width = 0.42mm

M201 X500 Y500 Z100 E5000 ; sets maximum accelerations, mm/sec^2
M203 X500 Y500 Z10 E60 ; sets maximum feedrates, mm / sec
M204 S500 T1000 ; sets acceleration (S) and retract acceleration (R), mm/sec^2
M205 X8.00 Y8.00 Z0.40 E5.00 ; sets the jerk limits, mm/sec
M205 S0 T0 ; sets the minimum extruding and travel feed rate, mm/sec

; printing object SoporteEjePlato_v01.stl id:0 copy 0
; stop printing object SoporteEjePlato_v01.stl id:0 copy 0

;TYPE:Custom
G90 ; use absolute coordinates
M83 ; extruder relative mode
M104 S150 ; set temporary nozzle temp to prevent oozing during homing
M140 S60 ; set final bed temp
G4 S30 ; allow partial nozzle warmup
G28 ; home all axis
G1 Z50 F240
G1 X2.0 Y10 F3000
M104 S210 ; set final nozzle temp
M190 S60 ; wait for bed temp to stabilize
M109 S210 ; wait for nozzle temp to stabilize
G1 Z0.28 F240
G92 E0
G1 X2.0 Y140 E10 F1500 ; prime the nozzle
G1 X2.3 Y140 F5000
G92 E0
G1 X2.3 Y10 E10 F1200 ; prime the nozzle
G92 E0
G21 ; set units to millimeters
G90 ; use absolute coordinates
M83 ; use relative distances for extrusion
; Filament gcode
M107
;LAYER_CHANGE
;Z:0.2
;HEIGHT:0.2
G1 E-5 F3600
G1 Z.2 F9000
G1 X116.773 Y115.588
G1 E5 F2400
M204 S500
;TYPE:Skirt/Brim
;WIDTH:0.42
G1 X118.352 Y114.285 E.06419
G1 X120.011 Y113.184 E.06243
G1 X122.214 Y112.054 E.07763
G1 X124.133 Y111.339 E.06421
G1 X126.116 Y110.828 E.06421
G1 X128.141 Y110.527 E.06419
G1 X130.187 Y110.439 E.06421
G1 X131.859 Y110.527 E.0525
G1 X133.884 Y110.828 E.06419
G1 X135.867 Y111.339 E.06421
G1 X137.786 Y112.054 E.06421
G1 X139.619 Y112.967 E.06421
G1 X141.347 Y114.065 E.06419
G1 X142.95 Y115.339 E.0642
G1 X144.412 Y116.773 E.06421
G1 X145.715 Y118.352 E.06419
G1 X146.847 Y120.058 E.06419
G1 X147.794 Y121.873 E.06419
G1 X148.484 Y123.595 E.05817
G1 X149.146 Y125.99 E.07791
G1 X149.473 Y128.141 E.06822
G1 X149.56 Y130.193 E.0644
G1 X149.425 Y132.307 E.06642
G1 X149.067 Y134.375 E.06581
G1 X148.546 Y136.222 E.06017
G1 X147.794 Y138.127 E.06422
G1 X147.033 Y139.619 E.05251
G1 X145.935 Y141.347 E.06419
G1 X144.661 Y142.95 E.0642
G1 X143.227 Y144.412 E.06421
G1 X141.648 Y145.715 E.06419
G1 X139.942 Y146.847 E.06419
G1 X137.786 Y147.946 E.07588
G1 X135.867 Y148.661 E.06421
G1 X133.884 Y149.172 E.06421
G1 X131.859 Y149.473 E.06419
G1 X129.813 Y149.561 E.06421
G1 X128.141 Y149.473 E.0525
G1 X126.116 Y149.172 E.06419
G1 X124.133 Y148.661 E.06421
G1 X122.214 Y147.946 E.06421
G1 X120.381 Y147.033 E.06421
G1 X118.653 Y145.935 E.06419
G1 X117.05 Y144.661 E.0642
G1 X115.588 Y143.227 E.06421
G1 X114.285 Y141.648 E.06419
G1 X113.153 Y139.942 E.06419
G1 X112.206 Y138.127 E.06419
G1 X111.454 Y136.222 E.06422
G1 X110.933 Y134.375 E.06017
G1 X110.575 Y132.307 E.06581
G1 X110.44 Y129.807 E.0785
G1 X110.573 Y127.706 E.06601
G1 X110.906 Y125.751 E.06218
G1 X111.454 Y123.778 E.0642
G1 X112.206 Y121.873 E.06422
G1 X112.967 Y120.381 E.05251
G1 X114.065 Y118.653 E.06419
G1 X115.339 Y117.05 E.0642
G1 X116.731 Y115.631 E.06233
G1 X117 Y115.896 F9000
G1 F2400
G1 X117.039 Y115.855 E.00177
G1 X118.859 Y114.382 E.07341
G1 X120.552 Y113.303 E.06295
G1 X122.35 Y112.407 E.06299
G1 X124.23 Y111.703 E.06294
G1 X126.175 Y111.2 E.06299
G1 X128.161 Y110.903 E.06296
G1 X130.167 Y110.816 E.06296
G1 X131.839 Y110.903 E.0525
G1 X133.825 Y111.2 E.06296
G1 X135.77 Y111.703 E.06299
G1 X137.65 Y112.407 E.06294
G1 X139.448 Y113.303 E.06299
G1 X141.141 Y114.382 E.06295
G1 X142.713 Y115.632 E.06297
G1 X144.145 Y117.039 E.06295
G1 X145.422 Y118.589 E.06297
G1 X146.531 Y120.263 E.06296
G1 X147.458 Y122.045 E.06298
G1 X148.133 Y123.732 E.05697
G1 X148.773 Y126.05 E.0754
G1 X149.097 Y128.161 E.06696
G1 X149.184 Y130.173 E.06314
G1 X149.053 Y132.246 E.06513
G1 X148.703 Y134.276 E.06459
G1 X148.194 Y136.087 E.05898
G1 X147.458 Y137.955 E.06295
G1 X146.531 Y139.737 E.06298
G1 X145.422 Y141.411 E.06296
G1 X144.368 Y142.713 E.05252
G1 X142.961 Y144.145 E.06295
G1 X141.141 Y145.618 E.07341
G1 X139.448 Y146.697 E.06295
G1 X137.65 Y147.593 E.06299
G1 X135.77 Y148.297 E.06294
G1 X133.825 Y148.8 E.06299
G1 X131.839 Y149.097 E.06296
G1 X129.833 Y149.184 E.06296
G1 X128.161 Y149.097 E.0525
G1 X126.175 Y148.8 E.06296
G1 X124.23 Y148.297 E.06299
G1 X122.35 Y147.593 E.06294
G1 X120.552 Y146.697 E.06299
G1 X118.859 Y145.618 E.06295
G1 X117.287 Y144.368 E.06297
G1 X115.855 Y142.961 E.06295
G1 X114.578 Y141.411 E.06297
G1 X113.469 Y139.737 E.06296
G1 X112.542 Y137.955 E.06298
G1 X111.806 Y136.087 E.06295
G1 X111.297 Y134.276 E.05898
G1 X110.947 Y132.246 E.06459
G1 X110.816 Y129.827 E.07596
G1 X110.945 Y127.766 E.06475
G1 X111.27 Y125.848 E.06099
G1 X111.806 Y123.913 E.06296
G1 X112.542 Y122.045 E.06295
G1 X113.303 Y120.552 E.05254
G1 X114.382 Y118.859 E.06295
G1 X115.632 Y117.287 E.06297
G1 X116.957 Y115.938 E.05929
G1 E-3.5 F3600
;WIPE_START
G1 F7200
G1 X117 Y115.896 E-.02855
G1 X117.039 Y115.855 E-.02688
G1 X118.859 Y114.382 E-1.11216
G1 X119.449 Y114.006 E-.33241
;WIPE_END
; printing object SoporteEjePlato_v01.stl id:0 copy 0
G1 X126.734 Y126.148 F9000
G1 E5 F2400
;TYPE:Perimeter
;WIDTH:0.419999
G1 X127.55 Y125.573 E.0313
G1 X128.54 Y125.155 E.03369
G1 X129.614 Y124.955 E.03425
G1 X130.41 Y124.975 E.02497
G1 X130.908 Y125.023 E.01569
G1 X131.768 Y125.259 E.02796
G1 X132.762 Y125.761 E.03492
G1 X133.403 Y126.278 E.02582
G1 X133.75 Y126.603 E.01491
G1 X134.277 Y127.297 E.02732
G1 X134.708 Y128.172 E.03058
G1 X134.858 Y128.627 E.01502
G1 X135.017 Y129.341 E.02294
G1 X135.041 Y130.321 E.03074
G1 X134.992 Y130.764 E.01397
G1 X134.83 Y131.508 E.02387
G1 X134.438 Y132.413 E.03092
G1 X134.288 Y132.686 E.00977
G1 X133.749 Y133.398 E.028
G1 X132.932 Y134.124 E.03427
G1 X131.977 Y134.657 E.03429
G1 X130.91 Y134.977 E.03493
G1 X130.707 Y135.01 E.00645
G1 X129.817 Y135.056 E.02794
G1 X128.747 Y134.901 E.0339
G1 X127.728 Y134.521 E.0341
G1 X126.811 Y133.928 E.03424
G1 X126.16 Y133.276 E.02889
G1 X125.864 Y132.9 E.015
G1 X125.456 Y132.226 E.0247
G1 X125.117 Y131.293 E.03112
G1 X125.023 Y130.846 E.01432
G1 X124.942 Y130.113 E.02312
G1 X125.024 Y129.15 E.0303
G1 X125.117 Y128.707 E.01419
G1 X125.37 Y127.959 E.02476
G1 X125.864 Y127.1 E.03107
G1 X126.16 Y126.724 E.015
G1 X126.656 Y126.203 E.02255
G1 X126.685 Y126.183 E.0011
G1 X126.974 Y126.432 F9000
G1 F2400
G1 X127.761 Y125.886 E.03003
G1 X128.68 Y125.506 E.03118
G1 X129.675 Y125.327 E.0317
G1 X130.39 Y125.351 E.02243
G1 X130.808 Y125.386 E.01315
G1 X131.668 Y125.623 E.02797
G1 X132.585 Y126.094 E.03232
G1 X133.158 Y126.565 E.02326
G1 X133.45 Y126.831 E.01238
G1 X133.977 Y127.525 E.02732
G1 X134.366 Y128.331 E.02806
G1 X134.49 Y128.709 E.01247
G1 X134.648 Y129.423 E.02293
G1 X134.664 Y130.321 E.02816
G1 X134.623 Y130.684 E.01145
G1 X134.461 Y131.428 E.02387
G1 X134.095 Y132.255 E.02836
G1 X133.825 Y132.673 E.0156
G1 X133.449 Y133.17 E.01954
G1 X132.687 Y133.837 E.03175
G1 X131.8 Y134.325 E.03174
G1 X130.809 Y134.614 E.03237
G1 X130.688 Y134.633 E.00384
G1 X129.798 Y134.68 E.02794
G1 X128.809 Y134.529 E.03137
G1 X127.868 Y134.171 E.03157
G1 X127.022 Y133.616 E.03172
G1 X126.433 Y133.016 E.02636
G1 X126.187 Y132.705 E.01243
G1 X125.779 Y132.031 E.0247
G1 X125.474 Y131.172 E.02858
G1 X125.398 Y130.804 E.01178
G1 X125.316 Y130.071 E.02313
G1 X125.399 Y129.191 E.02771
G1 X125.474 Y128.828 E.01162
G1 X125.728 Y128.08 E.02477
G1 X126.187 Y127.295 E.02851
G1 X126.433 Y126.984 E.01243
G1 X126.926 Y126.466 E.02242
G1 X127.214 Y126.715 F9000
;TYPE:External perimeter
G1 F2400
G1 X127.972 Y126.198 E.02877
G1 X128.819 Y125.856 E.02864
G1 X129.737 Y125.699 E.0292
G1 X130.708 Y125.75 E.03049
G1 X131.57 Y125.987 E.02803
G1 X132.408 Y126.427 E.02968
G1 X133.149 Y127.059 E.03054
G1 X133.677 Y127.754 E.02737
G1 X134.025 Y128.49 E.02553
G1 X134.122 Y128.791 E.00992
G1 X134.28 Y129.505 E.02293
G1 X134.286 Y130.322 E.02562
G1 X134.12 Y131.222 E.02869
G1 X134.017 Y131.523 E.00997
G1 X133.707 Y132.196 E.02323
G1 X133.148 Y132.942 E.02923
G1 X132.443 Y133.55 E.02919
G1 X131.622 Y133.992 E.02924
G1 X130.668 Y134.257 E.03104
G1 X129.778 Y134.303 E.02794
G1 X128.871 Y134.157 E.0288
G1 X128.007 Y133.821 E.02907
G1 X127.233 Y133.303 E.0292
G1 X126.706 Y132.756 E.02382
G1 X126.509 Y132.51 E.00988
G1 X126.102 Y131.836 E.02469
G1 X125.831 Y131.051 E.02604
G1 X125.703 Y130.134 E.02903
G1 X125.773 Y129.231 E.0284
G1 X125.831 Y128.949 E.00903
G1 X126.085 Y128.201 E.02477
G1 X126.509 Y127.49 E.02596
G1 X127.172 Y126.757 E.03099
G1 E-3.5 F3600
;WIPE_START
G1 F7200
G1 X127.214 Y126.715 E-.02821
G1 X127.972 Y126.198 E-.43582
G1 X128.819 Y125.856 E-.43388
G1 X129.737 Y125.699 E-.44238
G1 X130.073 Y125.717 E-.15971
;WIPE_END
G1 X129.407 Y139.398 F9000
G1 E5 F2400
;TYPE:Perimeter
G1 X130.092 Y139.321 E.02161
G1 X130.285 Y139.332 E.00606
G1 X130.905 Y139.473 E.01994
G1 X131.606 Y139.85 E.02496
G1 X132.169 Y140.419 E.0251
G1 X132.538 Y141.129 E.02509
G1 X132.682 Y141.916 E.02509
G1 X132.588 Y142.71 E.02507
G1 X132.264 Y143.441 E.02507
G1 X131.738 Y144.044 E.02509
G1 X131.306 Y144.323 E.01612
G1 X130.901 Y144.528 E.01423
G1 X130.285 Y144.668 E.01981
G1 X129.485 Y144.634 E.02511
G1 X128.732 Y144.365 E.02507
G1 X128.091 Y143.886 E.02509
G1 X127.977 Y143.763 E.00526
G1 X127.62 Y143.24 E.01985
G1 X127.364 Y142.496 E.02467
G1 X127.335 Y141.684 E.02548
G1 X127.547 Y140.912 E.0251
G1 X127.977 Y140.237 E.02509
G1 X128.586 Y139.719 E.02507
G1 X129.309 Y139.409 E.02467
G1 X129.347 Y139.404 E.0012
G1 X129.488 Y139.756 F9000
;TYPE:External perimeter
G1 F2400
G1 X130.12 Y139.697 E.0199
G1 X130.818 Y139.84 E.02234
G1 X131.418 Y140.177 E.02158
G1 X131.892 Y140.676 E.02158
G1 X132.198 Y141.292 E.02157
G1 X132.309 Y141.972 E.0216
G1 X132.215 Y142.654 E.02159
G1 X131.924 Y143.278 E.02159
G1 X131.462 Y143.788 E.02158
G1 X130.87 Y144.139 E.02158
G1 X130.201 Y144.301 E.02158
G1 X129.514 Y144.258 E.02158
G1 X128.87 Y144.014 E.02159
G1 X128.288 Y143.55 E.02334
G1 X127.932 Y143.027 E.01984
G1 X127.725 Y142.385 E.02115
G1 X127.712 Y141.684 E.02198
G1 X127.907 Y141.023 E.02161
G1 X128.288 Y140.45 E.02158
G1 X128.821 Y140.014 E.02159
G1 X129.43 Y139.767 E.02061
G1 E-3.5 F3600
;WIPE_START
G1 F7200
G1 X129.488 Y139.756 E-.02804
G1 X130.12 Y139.697 E-.30151
G1 X130.818 Y139.84 E-.33844
G1 X131.418 Y140.177 E-.32688
G1 X131.892 Y140.676 E-.32691
G1 X132.059 Y141.012 E-.17822
;WIPE_END
G1 X120.216 Y131.511 F9000
G1 E5 F2400
;TYPE:Perimeter
G1 X120.169 Y131.581 E.00264
G1 X119.738 Y132.044 E.01983
G1 X119.058 Y132.466 E.02509
G1 X118.285 Y132.668 E.02505
G1 X117.485 Y132.634 E.02511
G1 X116.732 Y132.365 E.02507
G1 X116.091 Y131.886 E.02509
G1 X115.677 Y131.324 E.02189
G1 X115.547 Y131.088 E.00845
;WIDTH:0.457048
G1 X115.467 Y130.892 E.00729
;WIDTH:0.494097
G1 X115.387 Y130.696 E.00794
;WIDTH:0.531145
G1 X115.307 Y130.499 E.00863
;WIDTH:0.546237
G1 X115.272 Y130.316 E.0078
G1 X115.272 Y129.684 E.02645
;WIDTH:0.558931
G1 X115.294 Y129.496 E.00812
G1 X115.378 Y129.302 E.00907
;WIDTH:0.512621
G1 X115.463 Y129.107 E.00831
;WIDTH:0.46631
G1 X115.547 Y128.912 E.00747
;WIDTH:0.419999
G1 X115.977 Y128.237 E.02509
G1 X116.541 Y127.756 E.02324
G1 X116.732 Y127.635 E.00709
G1 X117.321 Y127.404 E.01984
G1 X118.116 Y127.319 E.02507
G1 X118.901 Y127.472 E.02508
G1 X119.606 Y127.85 E.02508
G1 X120.169 Y128.419 E.0251
G1 X120.538 Y129.129 E.02509
G1 X120.682 Y129.916 E.02509
G1 X120.588 Y130.71 E.02507
G1 X120.264 Y131.441 E.02507
G1 X120.25 Y131.461 E.00077
G1 X119.904 Y131.299 F9000
;TYPE:External perimeter
G1 F2400
G1 X119.892 Y131.324 E.00087
G1 X119.462 Y131.788 E.01984
G1 X118.87 Y132.139 E.02158
G1 X118.201 Y132.301 E.02158
G1 X117.514 Y132.258 E.02158
G1 X116.87 Y132.014 E.02159
G1 X116.326 Y131.591 E.02161
G1 X115.907 Y130.977 E.02331
G1 X115.721 Y130.372 E.01985
G1 X115.712 Y129.684 E.02157
G1 X115.907 Y129.023 E.02161
G1 X116.288 Y128.45 E.02158
G1 X116.776 Y128.05 E.01978
G1 X117.459 Y127.755 E.02333
G1 X118.145 Y127.695 E.02159
G1 X118.818 Y127.84 E.02159
G1 X119.418 Y128.177 E.02158
G1 X119.892 Y128.676 E.02158
G1 X120.198 Y129.292 E.02157
G1 X120.309 Y129.972 E.0216
G1 X120.215 Y130.654 E.02159
G1 X119.93 Y131.245 E.02057
G1 E-3.5 F3600
;WIPE_START
G1 F7200
G1 X119.904 Y131.299 E-.02847
G1 X119.892 Y131.324 E-.01317
G1 X119.462 Y131.788 E-.30049
G1 X118.87 Y132.139 E-.32691
G1 X118.201 Y132.301 E-.32696
G1 X117.514 Y132.258 E-.32696
G1 X117.165 Y132.126 E-.17704
;WIPE_END
G1 X128.663 Y120.314 F9000
G1 E5 F2400
;TYPE:Perimeter
G1 X128.091 Y119.886 E.0224
G1 X127.62 Y119.24 E.02507
G1 X127.441 Y118.743 E.01656
G1 X127.335 Y118.316 E.01379
G1 X127.335 Y117.684 E.01982
G1 X127.547 Y116.912 E.0251
G1 X127.977 Y116.237 E.02509
G1 X128.586 Y115.719 E.02507
;WIDTH:0.467499
G1 X128.945 Y115.54 E.01416
;WIDTH:0.514998
G1 X129.304 Y115.36 E.01576
;WIDTH:0.556737
G1 X129.48 Y115.298 E.00797
G1 X130.019 Y115.261 E.02308
;WIDTH:0.566081
G1 X130.508 Y115.308 E.02137
G1 X130.692 Y115.383 E.00864
;WIDTH:0.517387
G1 X130.875 Y115.459 E.00782
;WIDTH:0.468693
G1 X131.058 Y115.534 E.007
;WIDTH:0.419999
G1 X131.606 Y115.85 E.01983
G1 X132.169 Y116.419 E.0251
G1 X132.538 Y117.129 E.02509
G1 X132.682 Y117.916 E.02509
G1 X132.588 Y118.71 E.02507
G1 X132.333 Y119.296 E.02004
G1 X132.169 Y119.581 E.01031
G1 X131.738 Y120.044 E.01983
G1 X131.058 Y120.466 E.02509
G1 X130.285 Y120.668 E.02505
G1 X129.656 Y120.646 E.01973
G1 X129.309 Y120.591 E.01102
G1 X128.732 Y120.365 E.01943
G1 X128.712 Y120.35 E.00078
G1 X128.847 Y119.996 F9000
;TYPE:External perimeter
G1 F2400
G1 X128.326 Y119.591 E.02069
G1 X127.932 Y119.027 E.02157
G1 X127.721 Y118.372 E.02158
G1 X127.712 Y117.684 E.02157
G1 X127.907 Y117.023 E.02161
G1 X128.288 Y116.45 E.02158
G1 X128.821 Y116.014 E.02159
G1 X129.459 Y115.755 E.02159
G1 X130.052 Y115.702 E.01867
G1 X130.408 Y115.747 E.01125
G1 X130.87 Y115.861 E.01492
G1 X131.418 Y116.177 E.01983
G1 X131.892 Y116.676 E.02158
G1 X132.198 Y117.292 E.02157
G1 X132.309 Y117.972 E.0216
G1 X132.215 Y118.654 E.02159
G1 X131.892 Y119.324 E.02332
G1 X131.462 Y119.788 E.01984
G1 X130.87 Y120.139 E.02158
G1 X130.201 Y120.301 E.02158
G1 X129.447 Y120.24 E.02372
G1 X128.899 Y120.025 E.01846
G1 E-3.5 F3600
;WIPE_START
G1 F7200
G1 X128.847 Y119.996 E-.02828
G1 X128.326 Y119.591 E-.31345
G1 X127.932 Y119.027 E-.3268
G1 X127.721 Y118.372 E-.32687
G1 X127.712 Y117.684 E-.32683
G1 X127.818 Y117.325 E-.17777
;WIPE_END
G1 X140.042 Y128.182 F9000
G1 E5 F2400
;TYPE:Perimeter
G1 X140.586 Y127.719 E.0224
G1 X141.321 Y127.404 E.02507
G1 X141.864 Y127.338 E.01715
G1 X142.285 Y127.332 E.0132
G1 X142.901 Y127.472 E.01981
G1 X143.486 Y127.781 E.02074
G1 X143.738 Y127.956 E.00962
G1 X144.169 Y128.419 E.01983
G1 X144.538 Y129.129 E.02509
;WIDTH:0.458818
G1 X144.57 Y129.166 E.00169
;WIDTH:0.497636
G1 X144.601 Y129.204 E.00185
;WIDTH:0.536455
G1 X144.633 Y129.241 E.00201
;WIDTH:0.575273
G1 X144.665 Y129.278 E.00217
G1 X144.744 Y129.906 E.02802
;WIDTH:0.574533
G1 X144.664 Y130.722 E.03624
;WIDTH:0.579335
G1 X144.657 Y130.771 E.00221
G1 X144.627 Y130.796 E.00174
;WIDTH:0.539501
G1 X144.598 Y130.821 E.00158
;WIDTH:0.499667
G1 X144.568 Y130.846 E.00148
;WIDTH:0.459833
G1 X144.538 Y130.871 E.00135
;WIDTH:0.419999
G1 X144.264 Y131.441 E.01983
G1 X143.738 Y132.044 E.02509
G1 X143.058 Y132.466 E.02509
G1 X142.285 Y132.668 E.02505
G1 X141.485 Y132.634 E.02511
G1 X140.732 Y132.365 E.02507
G1 X140.091 Y131.886 E.02509
G1 X139.62 Y131.24 E.02507
G1 X139.36 Y130.483 E.0251
G1 X139.342 Y129.594 E.02788
G1 X139.547 Y128.912 E.02233
G1 X139.977 Y128.237 E.02509
G1 X139.996 Y128.221 E.00078
G1 X140.31 Y128.432 F9000
;TYPE:External perimeter
G1 F2400
G1 X140.821 Y128.014 E.0207
G1 X141.459 Y127.755 E.02159
G1 X142.145 Y127.695 E.02159
G1 X142.818 Y127.84 E.02159
G1 X143.462 Y128.212 E.02332
G1 X143.892 Y128.676 E.01984
G1 X144.198 Y129.292 E.02157
G1 X144.309 Y129.972 E.0216
G1 X144.215 Y130.654 E.02159
G1 X143.949 Y131.225 E.01975
G1 X143.462 Y131.788 E.02334
