; generated by PrusaSlicer 2.9.3 on 2025-10-19 at 21:43:06 UTC

; 

; external perimeters extrusion width = 0.42mm
; perimeters extrusion width = 0.44mm
; infill extrusion width = 0.44mm
; solid infill extrusion width = 0.44mm
; top infill extrusion width = 0.40mm
; first layer extrusion width = 0.42mm

M201 X500 Y500 Z100 E5000 ; sets maximum accelerations, mm/sec^2
M203 X500 Y500 Z10 E60 ; sets maximum feedrates, mm / sec
M204 S500 T1000 ; sets acceleration (S) and retract acceleration (R), mm/sec^2
M205 X8.00 Y8.00 Z0.40 E5.00 ; sets the jerk limits, mm/sec
M205 S0 T0 ; sets the minimum extruding and travel feed rate, mm/sec

; printing object TestSujetaPerfil_v06.stl id:0 copy 0
; stop printing object TestSujetaPerfil_v06.stl id:0 copy 0

;TYPE:Custom
G90 ; use absolute coordinates
M83 ; extruder relative mode
M104 S150 ; set temporary nozzle temp to prevent oozing during homing
M140 S60 ; set final bed temp
G4 S30 ; allow partial nozzle warmup
G28 ; home all axis
G1 Z50 F240
G1 X2.0 Y10 F3000
M104 S210 ; set final nozzle temp
M190 S60 ; wait for bed temp to stabilize
M109 S210 ; wait for nozzle temp to stabilize
G1 Z0.28 F240
G92 E0
G1 X2.0 Y140 E10 F1500 ; prime the nozzle
G1 X2.3 Y140 F5000
G92 E0
G1 X2.3 Y10 E10 F1200 ; prime the nozzle
G92 E0
G21 ; set units to millimeters
G90 ; use absolute coordinates
M83 ; use relative distances for extrusion
; Filament gcode
M107
;LAYER_CHANGE
;Z:0.2
;HEIGHT:0.2
G1 E-5 F3600
G1 Z.2 F9000
G1 X114.382 Y113.402
G1 E5 F2400
M204 S500
;TYPE:Skirt/Brim
;WIDTH:0.42
G1 X116.093 Y112.904 E.05587
G1 X143.907 Y112.904 E.87209
G1 X145.442 Y113.298 E.04969
G1 X146.598 Y114.382 E.04969
G1 X147.096 Y116.093 E.05587
G1 X147.096 Y143.907 E.87209
G1 X146.702 Y145.442 E.04969
G1 X145.618 Y146.598 E.04969
G1 X143.907 Y147.096 E.05587
G1 X116.093 Y147.096 E.87209
G1 X114.558 Y146.702 E.04969
G1 X113.402 Y145.618 E.04969
G1 X112.904 Y143.907 E.05587
G1 X112.904 Y116.093 E.87209
G1 X113.298 Y114.558 E.04969
G1 X114.341 Y113.446 E.0478
G1 E-3.5 F3600
;WIPE_START
G1 F7200
G1 X114.382 Y113.402 E-.02857
G1 X116.093 Y112.904 E-.84645
G1 X117.409 Y112.904 E-.62498
;WIPE_END
; printing object TestSujetaPerfil_v06.stl id:0 copy 0
G1 X118.843 Y118.856 F9000
G1 E5 F2400
;TYPE:Perimeter
;WIDTH:0.419999
G1 X118.848 Y118.848 E.0003
G1 X119.14 Y118.649 E.01108
G1 X119.514 Y118.572 E.01197
G1 X140.486 Y118.572 E.65756
G1 X140.86 Y118.649 E.01197
G1 X141.152 Y118.848 E.01108
G1 X141.351 Y119.14 E.01108
G1 X141.428 Y119.514 E.01197
G1 X141.428 Y140.486 E.65756
G1 X141.351 Y140.86 E.01197
G1 X141.152 Y141.152 E.01108
G1 X140.86 Y141.351 E.01108
G1 X140.486 Y141.428 E.01197
G1 X119.514 Y141.428 E.65756
G1 X119.14 Y141.351 E.01197
G1 X118.848 Y141.152 E.01108
G1 X118.649 Y140.86 E.01108
G1 X118.572 Y140.486 E.01197
G1 X118.572 Y119.514 E.65756
G1 X118.649 Y119.14 E.01197
G1 X118.809 Y118.905 E.00891
G1 X119.128 Y119.108 F9000
G1 F2400
G1 X119.417 Y118.957 E.01022
G1 X119.514 Y118.949 E.00305
G1 X140.486 Y118.949 E.65756
G1 X140.71 Y118.995 E.00717
G1 X140.885 Y119.115 E.00665
G1 X141.005 Y119.29 E.00665
G1 X141.051 Y119.514 E.00717
G1 X141.051 Y140.486 E.65756
G1 X141.005 Y140.71 E.00717
G1 X140.885 Y140.885 E.00665
G1 X140.583 Y141.043 E.01069
G1 X140.486 Y141.051 E.00305
G1 X119.514 Y141.051 E.65756
G1 X119.29 Y141.005 E.00717
G1 X119.115 Y140.885 E.00665
G1 X118.957 Y140.583 E.01069
G1 X118.949 Y140.486 E.00305
G1 X118.949 Y119.514 E.65756
G1 X118.995 Y119.29 E.00717
G1 X119.089 Y119.152 E.00524
G1 X119.399 Y119.374 F9000
;TYPE:External perimeter
G1 F2400
G1 X119.514 Y119.326 E.00391
G1 X140.486 Y119.326 E.65756
G1 X140.619 Y119.381 E.00451
G1 X140.674 Y119.514 E.00451
G1 X140.674 Y140.486 E.65756
G1 X140.619 Y140.619 E.00451
G1 X140.486 Y140.674 E.00451
G1 X119.514 Y140.674 E.65756
G1 X119.381 Y140.619 E.00451
G1 X119.326 Y140.486 E.00451
G1 X119.326 Y119.514 E.65756
G1 X119.366 Y119.419 E.00323
G1 E-3.5 F3600
;WIPE_START
G1 F7200
G1 X119.399 Y119.374 E-.02651
G1 X119.514 Y119.326 E-.05919
G1 X122.491 Y119.326 E-1.4143
;WIPE_END
G1 X117.353 Y117.353 F9000
G1 E5 F2400
;TYPE:Perimeter
G1 X142.647 Y117.353 E.79307
G1 X142.647 Y118.229 E.02747
G1 X142.647 Y142.647 E.76561
G1 X117.353 Y142.647 E.79307
G1 X117.353 Y117.413 E.79119
G1 X116.976 Y116.976 F9000
G1 F2400
G1 X143.024 Y116.976 E.81672
G1 X143.024 Y118.229 E.03929
G1 X143.024 Y143.024 E.77743
G1 X116.976 Y143.024 E.81672
G1 X116.976 Y117.036 E.81483
G1 X116.599 Y116.599 F9000
;TYPE:External perimeter
G1 F2400
G1 X143.401 Y116.599 E.84036
G1 X143.401 Y118.229 E.05111
G1 X143.401 Y143.401 E.78925
G1 X116.599 Y143.401 E.84036
G1 X116.599 Y116.659 E.83848
G1 E-3.5 F3600
;WIPE_START
G1 F7200
G1 X116.599 Y116.599 E-.0285
G1 X119.697 Y116.599 E-1.4715
;WIPE_END
G1 X141.763 Y117.474 F9000
G1 E5 F2400
;TYPE:Solid infill
;WIDTH:0.420393
G1 X142.356 Y118.067 E.02632
G1 X142.356 Y118.601 E.01676
G1 X141.399 Y117.644 E.04248
G1 X140.865 Y117.644 E.01676
G1 X142.356 Y119.135 E.06618
G1 X142.356 Y119.669 E.01676
G1 X140.331 Y117.644 E.08989
G1 X139.797 Y117.644 E.01676
G1 X140.435 Y118.281 E.0283
G1 X139.901 Y118.281 E.01676
G1 X139.264 Y117.644 E.02828
G1 X138.73 Y117.644 E.01676
G1 X139.368 Y118.281 E.0283
G1 X138.834 Y118.281 E.01676
G1 X138.196 Y117.644 E.0283
G1 X137.662 Y117.644 E.01676
G1 X138.3 Y118.281 E.0283
G1 X137.766 Y118.281 E.01676
G1 X137.128 Y117.644 E.0283
G1 X136.594 Y117.644 E.01676
G1 X137.232 Y118.281 E.0283
G1 X136.698 Y118.281 E.01676
G1 X136.061 Y117.644 E.02828
G1 X135.527 Y117.644 E.01676
G1 X136.165 Y118.281 E.0283
G1 X135.631 Y118.281 E.01676
G1 X134.993 Y117.644 E.0283
G1 X134.459 Y117.644 E.01676
G1 X135.097 Y118.281 E.0283
G1 X134.563 Y118.281 E.01676
G1 X133.925 Y117.644 E.0283
G1 X133.391 Y117.644 E.01676
G1 X134.029 Y118.281 E.0283
G1 X133.495 Y118.281 E.01676
G1 X132.858 Y117.644 E.02828
G1 X132.324 Y117.644 E.01676
G1 X132.962 Y118.281 E.0283
G1 X132.428 Y118.281 E.01676
G1 X131.79 Y117.644 E.0283
G1 X131.256 Y117.644 E.01676
G1 X131.894 Y118.281 E.0283
G1 X131.36 Y118.281 E.01676
G1 X130.722 Y117.644 E.0283
G1 X130.188 Y117.644 E.01676
G1 X130.826 Y118.281 E.0283
G1 X130.292 Y118.281 E.01676
G1 X129.655 Y117.644 E.02828
G1 X129.121 Y117.644 E.01676
G1 X129.759 Y118.281 E.0283
G1 X129.225 Y118.281 E.01676
G1 X128.587 Y117.644 E.0283
G1 X128.053 Y117.644 E.01676
G1 X128.691 Y118.281 E.0283
G1 X128.157 Y118.281 E.01676
G1 X127.519 Y117.644 E.0283
G1 X126.986 Y117.644 E.01673
G1 X127.623 Y118.281 E.02828
G1 X127.09 Y118.281 E.01673
G1 X126.452 Y117.644 E.0283
G1 X125.918 Y117.644 E.01676
G1 X126.556 Y118.281 E.0283
G1 X126.022 Y118.281 E.01676
G1 X125.384 Y117.644 E.0283
G1 X124.85 Y117.644 E.01676
G1 X125.488 Y118.281 E.0283
G1 X124.954 Y118.281 E.01676
G1 X124.316 Y117.644 E.0283
G1 X123.783 Y117.644 E.01673
G1 X124.42 Y118.281 E.02828
G1 X123.887 Y118.281 E.01673
G1 X123.249 Y117.644 E.0283
G1 X122.715 Y117.644 E.01676
G1 X123.353 Y118.281 E.0283
G1 X122.819 Y118.281 E.01676
G1 X122.181 Y117.644 E.0283
G1 X121.647 Y117.644 E.01676
G1 X122.285 Y118.281 E.0283
G1 X121.751 Y118.281 E.01676
G1 X121.113 Y117.644 E.0283
G1 X120.58 Y117.644 E.01673
G1 X121.217 Y118.281 E.02828
G1 X120.684 Y118.281 E.01673
G1 X120.046 Y117.644 E.0283
G1 X119.512 Y117.644 E.01676
G1 X120.15 Y118.281 E.0283
G1 X119.616 Y118.281 E.01676
G1 X118.978 Y117.644 E.0283
G1 X118.444 Y117.644 E.01676
G1 X119.146 Y118.346 E.03116
G1 X119.021 Y118.383 E.00409
G1 X118.8 Y118.533 E.00838
G1 X117.91 Y117.644 E.03948
G1 X117.644 Y117.644 E.00835
G1 X117.644 Y117.911 E.00838
G1 X118.533 Y118.8 E.03946
G1 X118.381 Y119.025 E.00852
G1 X118.354 Y119.155 E.00417
G1 X117.644 Y118.444 E.03154
G1 X117.644 Y118.978 E.01676
G1 X118.281 Y119.616 E.0283
G1 X118.281 Y120.15 E.01676
G1 X117.644 Y119.512 E.0283
G1 X117.644 Y120.046 E.01676
G1 X118.281 Y120.684 E.0283
G1 X118.281 Y121.218 E.01676
G1 X117.644 Y120.58 E.0283
G1 X117.644 Y121.114 E.01676
G1 X118.281 Y121.751 E.02828
G1 X118.281 Y122.285 E.01676
G1 X117.644 Y121.647 E.0283
G1 X117.644 Y122.181 E.01676
G1 X118.281 Y122.819 E.0283
G1 X118.281 Y123.353 E.01676
G1 X117.644 Y122.715 E.0283
G1 X117.644 Y123.249 E.01676
G1 X118.281 Y123.887 E.0283
G1 X118.281 Y124.42 E.01673
G1 X117.644 Y123.783 E.02828
G1 X117.644 Y124.316 E.01673
G1 X118.281 Y124.954 E.0283
G1 X118.281 Y125.488 E.01676
G1 X117.644 Y124.85 E.0283
G1 X117.644 Y125.384 E.01676
G1 X118.281 Y126.022 E.0283
G1 X118.281 Y126.556 E.01676
G1 X117.644 Y125.918 E.0283
G1 X117.644 Y126.452 E.01676
G1 X118.281 Y127.09 E.0283
G1 X118.281 Y127.623 E.01673
G1 X117.644 Y126.986 E.02828
G1 X117.644 Y127.519 E.01673
G1 X118.281 Y128.157 E.0283
G1 X118.281 Y128.691 E.01676
G1 X117.644 Y128.053 E.0283
G1 X117.644 Y128.587 E.01676
G1 X118.281 Y129.225 E.0283
G1 X118.281 Y129.759 E.01676
G1 X117.644 Y129.121 E.0283
G1 X117.644 Y129.655 E.01676
G1 X118.281 Y130.293 E.0283
G1 X118.281 Y130.826 E.01673
G1 X117.644 Y130.189 E.02828
G1 X117.644 Y130.722 E.01673
G1 X118.281 Y131.36 E.0283
G1 X118.281 Y131.894 E.01676
G1 X117.644 Y131.256 E.0283
G1 X117.644 Y131.79 E.01676
G1 X118.281 Y132.428 E.0283
G1 X118.281 Y132.962 E.01676
G1 X117.644 Y132.324 E.0283
G1 X117.644 Y132.858 E.01676
G1 X118.281 Y133.496 E.0283
G1 X118.281 Y134.029 E.01673
G1 X117.644 Y133.392 E.02828
G1 X117.644 Y133.925 E.01673
G1 X118.281 Y134.563 E.0283
G1 X118.281 Y135.097 E.01676
G1 X117.644 Y134.459 E.0283
G1 X117.644 Y134.993 E.01676
G1 X118.281 Y135.631 E.0283
G1 X118.281 Y136.165 E.01676
G1 X117.644 Y135.527 E.0283
G1 X117.644 Y136.061 E.01676
G1 X118.281 Y136.699 E.0283
G1 X118.281 Y137.232 E.01673
G1 X117.644 Y136.595 E.02828
G1 X117.644 Y137.128 E.01673
G1 X118.281 Y137.766 E.0283
G1 X118.281 Y138.3 E.01676
G1 X117.644 Y137.662 E.0283
G1 X117.644 Y138.196 E.01676
G1 X118.281 Y138.834 E.0283
G1 X118.281 Y139.368 E.01676
G1 X117.644 Y138.73 E.0283
G1 X117.644 Y139.264 E.01676
G1 X118.281 Y139.901 E.02828
G1 X118.281 Y140.435 E.01676
G1 X117.474 Y139.628 E.03582
G1 E-3.5 F3600
;WIPE_START
G1 F7200
G1 X118.281 Y140.435 E-.5421
G1 X118.281 Y139.901 E-.25365
G1 X117.644 Y139.264 E-.42791
G1 X117.644 Y138.73 E-.25365
G1 X117.678 Y138.764 E-.02269
;WIPE_END
G1 X142.526 Y120.372 F9000
G1 E5 F2400
G1 X141.719 Y119.565 E.03582
G1 X141.719 Y120.099 E.01676
G1 X142.356 Y120.736 E.02828
G1 X142.356 Y121.27 E.01676
G1 X141.719 Y120.632 E.0283
G1 X141.719 Y121.166 E.01676
G1 X142.356 Y121.804 E.0283
G1 X142.356 Y122.338 E.01676
G1 X141.719 Y121.7 E.0283
G1 X141.719 Y122.234 E.01676
G1 X142.356 Y122.872 E.0283
G1 X142.356 Y123.406 E.01676
G1 X141.719 Y122.768 E.0283
G1 X141.719 Y123.302 E.01676
G1 X142.356 Y123.939 E.02828
G1 X142.356 Y124.473 E.01676
G1 X141.719 Y123.835 E.0283
G1 X141.719 Y124.369 E.01676
G1 X142.356 Y125.007 E.0283
G1 X142.356 Y125.541 E.01676
G1 X141.719 Y124.903 E.0283
G1 X141.719 Y125.437 E.01676
G1 X142.356 Y126.075 E.0283
G1 X142.356 Y126.609 E.01676
G1 X141.719 Y125.971 E.0283
G1 X141.719 Y126.505 E.01676
G1 X142.356 Y127.142 E.02828
G1 X142.356 Y127.676 E.01676
G1 X141.719 Y127.038 E.0283
G1 X141.719 Y127.572 E.01676
G1 X142.356 Y128.21 E.0283
G1 X142.356 Y128.744 E.01676
G1 X141.719 Y128.106 E.0283
G1 X141.719 Y128.64 E.01676
G1 X142.356 Y129.278 E.0283
G1 X142.356 Y129.812 E.01676
G1 X141.719 Y129.174 E.0283
G1 X141.719 Y129.708 E.01676
G1 X142.356 Y130.345 E.02828
G1 X142.356 Y130.879 E.01676
G1 X141.719 Y130.241 E.0283
G1 X141.719 Y130.775 E.01676
G1 X142.356 Y131.413 E.0283
G1 X142.356 Y131.947 E.01676
G1 X141.719 Y131.309 E.0283
G1 X141.719 Y131.843 E.01676
G1 X142.356 Y132.481 E.0283
G1 X142.356 Y133.014 E.01673
G1 X141.719 Y132.377 E.02828
G1 X141.719 Y132.91 E.01673
G1 X142.356 Y133.548 E.0283
G1 X142.356 Y134.082 E.01676
G1 X141.719 Y133.444 E.0283
G1 X141.719 Y133.978 E.01676
G1 X142.356 Y134.616 E.0283
G1 X142.356 Y135.15 E.01676
G1 X141.719 Y134.512 E.0283
G1 X141.719 Y135.046 E.01676
G1 X142.356 Y135.684 E.0283
G1 X142.356 Y136.217 E.01673
G1 X141.719 Y135.58 E.02828
G1 X141.719 Y136.113 E.01673
G1 X142.356 Y136.751 E.0283
G1 X142.356 Y137.285 E.01676
G1 X141.719 Y136.647 E.0283
G1 X141.719 Y137.181 E.01676
G1 X142.356 Y137.819 E.0283
G1 X142.356 Y138.353 E.01676
G1 X141.719 Y137.715 E.0283
G1 X141.719 Y138.249 E.01676
G1 X142.356 Y138.887 E.0283
G1 X142.356 Y139.42 E.01673
G1 X141.719 Y138.783 E.02828
G1 X141.719 Y139.316 E.01673
G1 X142.356 Y139.954 E.0283
G1 X142.356 Y140.488 E.01676
G1 X141.719 Y139.85 E.0283
G1 X141.719 Y140.384 E.01676
G1 X142.356 Y141.022 E.0283
G1 X142.356 Y141.556 E.01676
G1 X141.654 Y140.854 E.03116
G1 X141.617 Y140.979 E.00409
G1 X141.467 Y141.2 E.00838
G1 X142.356 Y142.09 E.03948
G1 X142.356 Y142.356 E.00835
G1 X142.089 Y142.356 E.00838
G1 X141.2 Y141.467 E.03946
G1 X140.979 Y141.617 E.00838
G1 X140.854 Y141.654 E.00409
G1 X141.556 Y142.356 E.03116
G1 X141.022 Y142.356 E.01676
G1 X140.384 Y141.719 E.0283
G1 X139.85 Y141.719 E.01676
G1 X140.488 Y142.356 E.0283
G1 X139.954 Y142.356 E.01676
G1 X139.316 Y141.719 E.0283
G1 X138.782 Y141.719 E.01676
G1 X139.42 Y142.356 E.0283
G1 X138.886 Y142.356 E.01676
G1 X138.249 Y141.719 E.02828
G1 X137.715 Y141.719 E.01676
G1 X138.353 Y142.356 E.0283
G1 X137.819 Y142.356 E.01676
G1 X137.181 Y141.719 E.0283
G1 X136.647 Y141.719 E.01676
G1 X137.285 Y142.356 E.0283
G1 X136.751 Y142.356 E.01676
G1 X136.113 Y141.719 E.0283
G1 X135.58 Y141.719 E.01673
G1 X136.217 Y142.356 E.02828
G1 X135.684 Y142.356 E.01673
G1 X135.046 Y141.719 E.0283
G1 X134.512 Y141.719 E.01676
G1 X135.15 Y142.356 E.0283
G1 X134.616 Y142.356 E.01676
G1 X133.978 Y141.719 E.0283
G1 X133.444 Y141.719 E.01676
G1 X134.082 Y142.356 E.0283
G1 X133.548 Y142.356 E.01676
G1 X132.91 Y141.719 E.0283
G1 X132.377 Y141.719 E.01673
G1 X133.014 Y142.356 E.02828
G1 X132.481 Y142.356 E.01673
G1 X131.843 Y141.719 E.0283
G1 X131.309 Y141.719 E.01676
G1 X131.947 Y142.356 E.0283
G1 X131.413 Y142.356 E.01676
G1 X130.775 Y141.719 E.0283
G1 X130.241 Y141.719 E.01676
G1 X130.879 Y142.356 E.0283
G1 X130.345 Y142.356 E.01676
G1 X129.707 Y141.719 E.0283
G1 X129.174 Y141.719 E.01673
G1 X129.811 Y142.356 E.02828
G1 X129.278 Y142.356 E.01673
G1 X128.64 Y141.719 E.0283
G1 X128.106 Y141.719 E.01676
G1 X128.744 Y142.356 E.0283
G1 X128.21 Y142.356 E.01676
G1 X127.572 Y141.719 E.0283
G1 X127.038 Y141.719 E.01676
G1 X127.676 Y142.356 E.0283
G1 X127.142 Y142.356 E.01676
G1 X126.504 Y141.719 E.0283
G1 X125.971 Y141.719 E.01673
G1 X126.608 Y142.356 E.02828
G1 X126.075 Y142.356 E.01673
G1 X125.437 Y141.719 E.0283
G1 X124.903 Y141.719 E.01676
G1 X125.541 Y142.356 E.0283
G1 X125.007 Y142.356 E.01676
G1 X124.369 Y141.719 E.0283
G1 X123.835 Y141.719 E.01676
G1 X124.473 Y142.356 E.0283
G1 X123.939 Y142.356 E.01676
G1 X123.301 Y141.719 E.0283
G1 X122.768 Y141.719 E.01673
G1 X123.405 Y142.356 E.02828
G1 X122.872 Y142.356 E.01673
G1 X122.234 Y141.719 E.0283
G1 X121.7 Y141.719 E.01676
G1 X122.338 Y142.356 E.0283
G1 X121.804 Y142.356 E.01676
G1 X121.166 Y141.719 E.0283
G1 X120.632 Y141.719 E.01676
G1 X121.27 Y142.356 E.0283
G1 X120.736 Y142.356 E.01676
G1 X120.099 Y141.719 E.02828
G1 X119.565 Y141.719 E.01676
G1 X120.203 Y142.356 E.0283
G1 X119.669 Y142.356 E.01676
G1 X117.644 Y140.331 E.08989
G1 X117.644 Y140.865 E.01676
G1 X119.135 Y142.356 E.06618
G1 X118.601 Y142.356 E.01676
G1 X117.644 Y141.399 E.04248
G1 X117.644 Y141.933 E.01676
G1 X118.237 Y142.526 E.02632
M106 S255
;LAYER_CHANGE
;Z:0.4
;HEIGHT:0.2
;BEFORE_LAYER_CHANGE
G92 E0
;0.4


G1 E-3.5 F3600
;WIPE_START
G1 F7200
G1 X117.644 Y141.933 E-.39835
G1 X117.644 Y141.399 E-.25365
G1 X118.601 Y142.356 E-.64287
G1 X119.033 Y142.356 E-.20513
;WIPE_END
G1 Z.4 F9000
;AFTER_LAYER_CHANGE
;0.4
M104 S205 ; set temperature
; stop printing object TestSujetaPerfil_v06.stl id:0 copy 0
G1 X118.237 Y147.096
G1 E5 F2400
;TYPE:Skirt/Brim
;WIDTH:0.42
G1 F3672
G1 X116.093 Y147.096 E.06722
G1 X114.558 Y146.702 E.04969
G1 X113.402 Y145.618 E.04969
G1 X112.904 Y143.907 E.05587
G1 X112.904 Y116.093 E.87209
G1 X113.298 Y114.558 E.04969
G1 X114.382 Y113.402 E.04969
G1 X116.093 Y112.904 E.05587
G1 X143.907 Y112.904 E.87209
G1 X145.442 Y113.298 E.04969
G1 X146.598 Y114.382 E.04969
G1 X147.096 Y116.093 E.05587
G1 X147.096 Y143.907 E.87209
