; generated by PrusaSlicer 2.9.3 on 2025-10-19 at 21:01:01 UTC

; 

; external perimeters extrusion width = 0.42mm
; perimeters extrusion width = 0.44mm
; infill extrusion width = 0.44mm
; solid infill extrusion width = 0.44mm
; top infill extrusion width = 0.40mm
; first layer extrusion width = 0.42mm

M201 X500 Y500 Z100 E5000 ; sets maximum accelerations, mm/sec^2
M203 X500 Y500 Z10 E60 ; sets maximum feedrates, mm / sec
M204 S500 T1000 ; sets acceleration (S) and retract acceleration (R), mm/sec^2
M205 X8.00 Y8.00 Z0.40 E5.00 ; sets the jerk limits, mm/sec
M205 S0 T0 ; sets the minimum extruding and travel feed rate, mm/sec

; printing object TestSujetaPerfil_v05.stl id:0 copy 0
; stop printing object TestSujetaPerfil_v05.stl id:0 copy 0

;TYPE:Custom
G90 ; use absolute coordinates
M83 ; extruder relative mode
M104 S150 ; set temporary nozzle temp to prevent oozing during homing
M140 S60 ; set final bed temp
G4 S30 ; allow partial nozzle warmup
G28 ; home all axis
G1 Z50 F240
G1 X2.0 Y10 F3000
M104 S210 ; set final nozzle temp
M190 S60 ; wait for bed temp to stabilize
M109 S210 ; wait for nozzle temp to stabilize
G1 Z0.28 F240
G92 E0
G1 X2.0 Y140 E10 F1500 ; prime the nozzle
G1 X2.3 Y140 F5000
G92 E0
G1 X2.3 Y10 E10 F1200 ; prime the nozzle
G92 E0
G21 ; set units to millimeters
G90 ; use absolute coordinates
M83 ; use relative distances for extrusion
; Filament gcode
M107
;LAYER_CHANGE
;Z:0.2
;HEIGHT:0.2
G1 E-5 F3600
G1 Z.2 F9000
G1 X114.382 Y113.402
G1 E5 F2400
M204 S500
;TYPE:Skirt/Brim
;WIDTH:0.42
G1 X116.093 Y112.904 E.05587
G1 X143.907 Y112.904 E.87209
G1 X145.442 Y113.298 E.04969
G1 X146.598 Y114.382 E.04969
G1 X147.096 Y116.093 E.05587
G1 X147.096 Y143.907 E.87209
G1 X146.702 Y145.442 E.04969
G1 X145.618 Y146.598 E.04969
G1 X143.907 Y147.096 E.05587
G1 X116.093 Y147.096 E.87209
G1 X114.558 Y146.702 E.04969
G1 X113.402 Y145.618 E.04969
G1 X112.904 Y143.907 E.05587
G1 X112.904 Y116.093 E.87209
G1 X113.298 Y114.558 E.04969
G1 X114.341 Y113.446 E.0478
G1 E-3.5 F3600
;WIPE_START
G1 F7200
G1 X114.382 Y113.402 E-.02857
G1 X116.093 Y112.904 E-.84645
G1 X117.409 Y112.904 E-.62498
;WIPE_END
; printing object TestSujetaPerfil_v05.stl id:0 copy 0
G1 X118.768 Y118.781 F9000
G1 E5 F2400
;TYPE:Perimeter
;WIDTH:0.419999
G1 X118.773 Y118.773 E.0003
G1 X119.065 Y118.574 E.01108
G1 X119.439 Y118.497 E.01197
G1 X140.561 Y118.497 E.66226
G1 X140.935 Y118.574 E.01197
G1 X141.227 Y118.773 E.01108
G1 X141.426 Y119.065 E.01108
G1 X141.503 Y119.439 E.01197
G1 X141.503 Y140.561 E.66226
G1 X141.426 Y140.935 E.01197
G1 X141.227 Y141.227 E.01108
G1 X140.935 Y141.426 E.01108
G1 X140.561 Y141.503 E.01197
G1 X119.439 Y141.503 E.66226
G1 X119.065 Y141.426 E.01197
G1 X118.773 Y141.227 E.01108
G1 X118.574 Y140.935 E.01108
G1 X118.497 Y140.561 E.01197
G1 X118.497 Y119.439 E.66226
G1 X118.574 Y119.065 E.01197
G1 X118.734 Y118.83 E.00891
G1 X119.053 Y119.033 F9000
G1 F2400
G1 X119.342 Y118.882 E.01022
G1 X119.439 Y118.874 E.00305
G1 X140.561 Y118.874 E.66226
G1 X140.785 Y118.92 E.00717
G1 X140.96 Y119.04 E.00665
G1 X141.08 Y119.215 E.00665
G1 X141.126 Y119.439 E.00717
G1 X141.126 Y140.561 E.66226
G1 X141.08 Y140.785 E.00717
G1 X140.96 Y140.96 E.00665
G1 X140.658 Y141.118 E.01069
G1 X140.561 Y141.126 E.00305
G1 X119.439 Y141.126 E.66226
G1 X119.215 Y141.08 E.00717
G1 X119.04 Y140.96 E.00665
G1 X118.882 Y140.658 E.01069
G1 X118.874 Y140.561 E.00305
G1 X118.874 Y119.439 E.66226
G1 X118.92 Y119.215 E.00717
G1 X119.014 Y119.077 E.00524
G1 X119.324 Y119.299 F9000
;TYPE:External perimeter
G1 F2400
G1 X119.439 Y119.251 E.00391
G1 X140.561 Y119.251 E.66226
G1 X140.694 Y119.306 E.00451
G1 X140.749 Y119.439 E.00451
G1 X140.749 Y140.561 E.66226
G1 X140.694 Y140.694 E.00451
G1 X140.561 Y140.749 E.00451
G1 X119.439 Y140.749 E.66226
G1 X119.306 Y140.694 E.00451
G1 X119.251 Y140.561 E.00451
G1 X119.251 Y119.439 E.66226
G1 X119.291 Y119.344 E.00323
G1 E-3.5 F3600
;WIPE_START
G1 F7200
G1 X119.324 Y119.299 E-.02651
G1 X119.439 Y119.251 E-.05919
G1 X122.416 Y119.251 E-1.4143
;WIPE_END
G1 X117.353 Y117.353 F9000
G1 E5 F2400
;TYPE:Perimeter
G1 X142.647 Y117.353 E.79307
G1 X142.647 Y118.185 E.02609
G1 X142.647 Y142.647 E.76699
G1 X117.353 Y142.647 E.79307
G1 X117.353 Y117.413 E.79119
G1 X116.976 Y116.976 F9000
G1 F2400
G1 X143.024 Y116.976 E.81672
G1 X143.024 Y118.185 E.03791
G1 X143.024 Y143.024 E.77881
G1 X116.976 Y143.024 E.81672
G1 X116.976 Y117.036 E.81483
G1 X116.599 Y116.599 F9000
;TYPE:External perimeter
G1 F2400
G1 X143.401 Y116.599 E.84036
G1 X143.401 Y118.185 E.04973
G1 X143.401 Y143.401 E.79063
G1 X116.599 Y143.401 E.84036
G1 X116.599 Y116.659 E.83848
G1 E-3.5 F3600
;WIPE_START
G1 F7200
G1 X116.599 Y116.599 E-.0285
G1 X119.697 Y116.599 E-1.4715
;WIPE_END
G1 X142.526 Y118.237 F9000
G1 E5 F2400
;TYPE:Solid infill
;WIDTH:0.420393
G1 X141.933 Y117.644 E.02632
G1 X141.399 Y117.644 E.01676
G1 X142.356 Y118.601 E.04248
G1 X142.356 Y119.135 E.01676
G1 X140.865 Y117.644 E.06618
G1 X140.331 Y117.644 E.01676
G1 X142.526 Y119.838 E.09741
G1 X141.624 Y119.47 F9000
G1 F2400
G1 X142.356 Y120.203 E.03251
G1 X142.356 Y120.736 E.01673
G1 X141.794 Y120.174 E.02495
G1 X141.794 Y120.707 E.01673
G1 X142.356 Y121.27 E.02497
G1 X142.356 Y121.804 E.01676
G1 X141.794 Y121.241 E.02497
G1 X141.794 Y121.775 E.01676
G1 X142.356 Y122.338 E.02497
G1 X142.356 Y122.872 E.01676
G1 X141.794 Y122.309 E.02497
G1 X141.794 Y122.843 E.01676
G1 X142.356 Y123.406 E.02497
G1 X142.356 Y123.939 E.01673
G1 X141.794 Y123.377 E.02495
G1 X141.794 Y123.91 E.01673
G1 X142.356 Y124.473 E.02497
G1 X142.356 Y125.007 E.01676
G1 X141.794 Y124.444 E.02497
G1 X141.794 Y124.978 E.01676
G1 X142.356 Y125.541 E.02497
G1 X142.356 Y126.075 E.01676
G1 X141.794 Y125.512 E.02497
G1 X141.794 Y126.046 E.01676
G1 X142.356 Y126.609 E.02497
G1 X142.356 Y127.142 E.01673
G1 X141.794 Y126.58 E.02495
G1 X141.794 Y127.113 E.01673
G1 X142.356 Y127.676 E.02497
G1 X142.356 Y128.21 E.01676
G1 X141.794 Y127.647 E.02497
G1 X141.794 Y128.181 E.01676
G1 X142.356 Y128.744 E.02497
G1 X142.356 Y129.278 E.01676
G1 X141.794 Y128.715 E.02497
G1 X141.794 Y129.249 E.01676
G1 X142.356 Y129.812 E.02497
G1 X142.356 Y130.345 E.01673
G1 X141.794 Y129.783 E.02495
G1 X141.794 Y130.316 E.01673
G1 X142.356 Y130.879 E.02497
G1 X142.356 Y131.413 E.01676
G1 X141.794 Y130.85 E.02497
G1 X141.794 Y131.384 E.01676
G1 X142.356 Y131.947 E.02497
G1 X142.356 Y132.481 E.01676
G1 X141.794 Y131.918 E.02497
G1 X141.794 Y132.452 E.01676
G1 X142.356 Y133.014 E.02495
G1 X142.356 Y133.548 E.01676
G1 X141.794 Y132.985 E.02497
G1 X141.794 Y133.519 E.01676
G1 X142.356 Y134.082 E.02497
G1 X142.356 Y134.616 E.01676
G1 X141.794 Y134.053 E.02497
G1 X141.794 Y134.587 E.01676
G1 X142.356 Y135.15 E.02497
G1 X142.356 Y135.684 E.01676
G1 X141.794 Y135.121 E.02497
G1 X141.794 Y135.655 E.01676
G1 X142.356 Y136.217 E.02495
G1 X142.356 Y136.751 E.01676
G1 X141.794 Y136.188 E.02497
G1 X141.794 Y136.722 E.01676
G1 X142.356 Y137.285 E.02497
G1 X142.356 Y137.819 E.01676
G1 X141.794 Y137.256 E.02497
G1 X141.794 Y137.79 E.01676
G1 X142.356 Y138.353 E.02497
G1 X142.356 Y138.887 E.01676
G1 X141.794 Y138.324 E.02497
G1 X141.794 Y138.858 E.01676
G1 X142.356 Y139.42 E.02495
G1 X142.356 Y139.954 E.01676
G1 X141.794 Y139.391 E.02497
G1 X141.794 Y139.925 E.01676
G1 X142.356 Y140.488 E.02497
G1 X142.356 Y141.022 E.01676
G1 X141.794 Y140.459 E.02497
G1 X141.775 Y140.775 E.00994
G1 X141.729 Y140.929 E.00504
G1 X142.356 Y141.556 E.02783
G1 X142.356 Y142.09 E.01676
G1 X141.542 Y141.275 E.03615
G1 X141.434 Y141.434 E.00603
G1 X141.275 Y141.542 E.00603
G1 X142.089 Y142.356 E.03613
G1 X141.556 Y142.356 E.01673
G1 X140.929 Y141.729 E.02783
G1 X140.775 Y141.775 E.00504
G1 X140.459 Y141.794 E.00994
G1 X141.022 Y142.356 E.02497
G1 X140.488 Y142.356 E.01676
G1 X139.925 Y141.794 E.02497
G1 X139.391 Y141.794 E.01676
G1 X139.954 Y142.356 E.02497
G1 X139.42 Y142.356 E.01676
G1 X138.857 Y141.794 E.02497
G1 X138.324 Y141.794 E.01673
G1 X138.886 Y142.356 E.02495
G1 X138.353 Y142.356 E.01673
G1 X137.79 Y141.794 E.02497
G1 X137.256 Y141.794 E.01676
G1 X137.819 Y142.356 E.02497
G1 X137.285 Y142.356 E.01676
G1 X136.722 Y141.794 E.02497
G1 X136.188 Y141.794 E.01676
G1 X136.751 Y142.356 E.02497
G1 X136.217 Y142.356 E.01676
G1 X135.655 Y141.794 E.02495
G1 X135.121 Y141.794 E.01676
G1 X135.684 Y142.356 E.02497
G1 X135.15 Y142.356 E.01676
G1 X134.587 Y141.794 E.02497
G1 X134.053 Y141.794 E.01676
G1 X134.616 Y142.356 E.02497
G1 X134.082 Y142.356 E.01676
G1 X133.519 Y141.794 E.02497
G1 X132.985 Y141.794 E.01676
G1 X133.548 Y142.356 E.02497
G1 X133.014 Y142.356 E.01676
G1 X132.452 Y141.794 E.02495
G1 X131.918 Y141.794 E.01676
G1 X132.481 Y142.356 E.02497
G1 X131.947 Y142.356 E.01676
G1 X131.384 Y141.794 E.02497
G1 X130.85 Y141.794 E.01676
G1 X131.413 Y142.356 E.02497
G1 X130.879 Y142.356 E.01676
G1 X130.316 Y141.794 E.02497
G1 X129.782 Y141.794 E.01676
G1 X130.345 Y142.356 E.02497
G1 X129.811 Y142.356 E.01676
G1 X129.249 Y141.794 E.02495
G1 X128.715 Y141.794 E.01676
G1 X129.278 Y142.356 E.02497
G1 X128.744 Y142.356 E.01676
G1 X128.181 Y141.794 E.02497
G1 X127.647 Y141.794 E.01676
G1 X128.21 Y142.356 E.02497
G1 X127.676 Y142.356 E.01676
G1 X127.113 Y141.794 E.02497
G1 X126.579 Y141.794 E.01676
G1 X127.142 Y142.356 E.02497
G1 X126.608 Y142.356 E.01676
G1 X126.046 Y141.794 E.02495
G1 X125.512 Y141.794 E.01676
G1 X126.075 Y142.356 E.02497
G1 X125.541 Y142.356 E.01676
G1 X124.978 Y141.794 E.02497
G1 X124.444 Y141.794 E.01676
G1 X125.007 Y142.356 E.02497
G1 X124.473 Y142.356 E.01676
G1 X123.91 Y141.794 E.02497
G1 X123.376 Y141.794 E.01676
G1 X123.939 Y142.356 E.02497
G1 X123.405 Y142.356 E.01676
G1 X122.843 Y141.794 E.02495
G1 X122.309 Y141.794 E.01676
G1 X122.872 Y142.356 E.02497
G1 X122.338 Y142.356 E.01676
G1 X121.775 Y141.794 E.02497
G1 X121.241 Y141.794 E.01676
G1 X121.804 Y142.356 E.02497
G1 X121.27 Y142.356 E.01676
G1 X120.707 Y141.794 E.02497
G1 X120.174 Y141.794 E.01673
G1 X120.736 Y142.356 E.02495
G1 X120.203 Y142.356 E.01673
G1 X119.47 Y141.624 E.03251
G1 E-3.5 F3600
;WIPE_START
G1 F7200
G1 X120.203 Y142.356 E-.49206
G1 X120.736 Y142.356 E-.25318
G1 X120.174 Y141.794 E-.37752
G1 X120.707 Y141.794 E-.25318
G1 X120.892 Y141.979 E-.12406
;WIPE_END
G1 X140.53 Y118.376 F9000
G1 E5 F2400
G1 X139.797 Y117.644 E.03251
G1 X139.264 Y117.644 E.01673
G1 X139.826 Y118.206 E.02495
G1 X139.293 Y118.206 E.01673
G1 X138.73 Y117.644 E.02497
G1 X138.196 Y117.644 E.01676
G1 X138.759 Y118.206 E.02497
G1 X138.225 Y118.206 E.01676
G1 X137.662 Y117.644 E.02497
G1 X137.128 Y117.644 E.01676
G1 X137.691 Y118.206 E.02497
G1 X137.157 Y118.206 E.01676
G1 X136.594 Y117.644 E.02497
G1 X136.061 Y117.644 E.01673
G1 X136.623 Y118.206 E.02495
G1 X136.09 Y118.206 E.01673
G1 X135.527 Y117.644 E.02497
G1 X134.993 Y117.644 E.01676
G1 X135.556 Y118.206 E.02497
G1 X135.022 Y118.206 E.01676
G1 X134.459 Y117.644 E.02497
G1 X133.925 Y117.644 E.01676
G1 X134.488 Y118.206 E.02497
G1 X133.954 Y118.206 E.01676
G1 X133.391 Y117.644 E.02497
G1 X132.858 Y117.644 E.01673
G1 X133.42 Y118.206 E.02495
G1 X132.887 Y118.206 E.01673
G1 X132.324 Y117.644 E.02497
G1 X131.79 Y117.644 E.01676
G1 X132.353 Y118.206 E.02497
G1 X131.819 Y118.206 E.01676
G1 X131.256 Y117.644 E.02497
G1 X130.722 Y117.644 E.01676
G1 X131.285 Y118.206 E.02497
G1 X130.751 Y118.206 E.01676
G1 X130.188 Y117.644 E.02497
G1 X129.655 Y117.644 E.01673
G1 X130.217 Y118.206 E.02495
G1 X129.684 Y118.206 E.01673
G1 X129.121 Y117.644 E.02497
G1 X128.587 Y117.644 E.01676
G1 X129.15 Y118.206 E.02497
G1 X128.616 Y118.206 E.01676
G1 X128.053 Y117.644 E.02497
G1 X127.519 Y117.644 E.01676
G1 X128.082 Y118.206 E.02497
G1 X127.548 Y118.206 E.01676
G1 X126.986 Y117.644 E.02495
G1 X126.452 Y117.644 E.01676
G1 X127.015 Y118.206 E.02497
G1 X126.481 Y118.206 E.01676
G1 X125.918 Y117.644 E.02497
G1 X125.384 Y117.644 E.01676
G1 X125.947 Y118.206 E.02497
G1 X125.413 Y118.206 E.01676
G1 X124.85 Y117.644 E.02497
G1 X124.316 Y117.644 E.01676
G1 X124.879 Y118.206 E.02497
G1 X124.345 Y118.206 E.01676
G1 X123.783 Y117.644 E.02495
G1 X123.249 Y117.644 E.01676
G1 X123.812 Y118.206 E.02497
G1 X123.278 Y118.206 E.01676
G1 X122.715 Y117.644 E.02497
G1 X122.181 Y117.644 E.01676
G1 X122.744 Y118.206 E.02497
G1 X122.21 Y118.206 E.01676
G1 X121.647 Y117.644 E.02497
G1 X121.113 Y117.644 E.01676
G1 X121.676 Y118.206 E.02497
G1 X121.142 Y118.206 E.01676
G1 X120.58 Y117.644 E.02495
G1 X120.046 Y117.644 E.01676
G1 X120.609 Y118.206 E.02497
G1 X120.075 Y118.206 E.01676
G1 X119.512 Y117.644 E.02497
G1 X118.978 Y117.644 E.01676
G1 X119.541 Y118.206 E.02497
G1 X119.225 Y118.225 E.00994
G1 X119.071 Y118.271 E.00504
G1 X118.444 Y117.644 E.02783
G1 X117.91 Y117.644 E.01676
G1 X118.725 Y118.458 E.03615
G1 X118.566 Y118.566 E.00603
G1 X118.458 Y118.725 E.00603
G1 X117.644 Y117.911 E.03613
G1 X117.644 Y118.444 E.01673
G1 X118.279 Y119.08 E.02821
G1 X118.206 Y119.429 E.01119
G1 X118.206 Y119.541 E.00352
G1 X117.644 Y118.978 E.02497
G1 X117.644 Y119.512 E.01676
G1 X118.206 Y120.075 E.02497
G1 X118.206 Y120.609 E.01676
G1 X117.644 Y120.046 E.02497
G1 X117.644 Y120.58 E.01676
G1 X118.206 Y121.143 E.02497
G1 X118.206 Y121.676 E.01673
G1 X117.644 Y121.114 E.02495
G1 X117.644 Y121.647 E.01673
G1 X118.206 Y122.21 E.02497
G1 X118.206 Y122.744 E.01676
G1 X117.644 Y122.181 E.02497
G1 X117.644 Y122.715 E.01676
G1 X118.206 Y123.278 E.02497
G1 X118.206 Y123.812 E.01676
G1 X117.644 Y123.249 E.02497
G1 X117.644 Y123.783 E.01676
G1 X118.206 Y124.345 E.02495
G1 X118.206 Y124.879 E.01676
G1 X117.644 Y124.316 E.02497
G1 X117.644 Y124.85 E.01676
G1 X118.206 Y125.413 E.02497
G1 X118.206 Y125.947 E.01676
G1 X117.644 Y125.384 E.02497
G1 X117.644 Y125.918 E.01676
G1 X118.206 Y126.481 E.02497
G1 X118.206 Y127.015 E.01676
G1 X117.644 Y126.452 E.02497
G1 X117.644 Y126.986 E.01676
G1 X118.206 Y127.548 E.02495
G1 X118.206 Y128.082 E.01676
G1 X117.644 Y127.519 E.02497
G1 X117.644 Y128.053 E.01676
G1 X118.206 Y128.616 E.02497
G1 X118.206 Y129.15 E.01676
G1 X117.644 Y128.587 E.02497
G1 X117.644 Y129.121 E.01676
G1 X118.206 Y129.684 E.02497
G1 X118.206 Y130.218 E.01676
G1 X117.644 Y129.655 E.02497
G1 X117.644 Y130.189 E.01676
G1 X118.206 Y130.751 E.02495
G1 X118.206 Y131.285 E.01676
G1 X117.644 Y130.722 E.02497
G1 X117.644 Y131.256 E.01676
G1 X118.206 Y131.819 E.02497
G1 X118.206 Y132.353 E.01676
G1 X117.644 Y131.79 E.02497
G1 X117.644 Y132.324 E.01676
G1 X118.206 Y132.887 E.02497
G1 X118.206 Y133.421 E.01676
G1 X117.644 Y132.858 E.02497
G1 X117.644 Y133.392 E.01676
G1 X118.206 Y133.954 E.02495
G1 X118.206 Y134.488 E.01676
G1 X117.644 Y133.925 E.02497
G1 X117.644 Y134.459 E.01676
G1 X118.206 Y135.022 E.02497
G1 X118.206 Y135.556 E.01676
G1 X117.644 Y134.993 E.02497
G1 X117.644 Y135.527 E.01676
G1 X118.206 Y136.09 E.02497
G1 X118.206 Y136.624 E.01676
G1 X117.644 Y136.061 E.02497
G1 X117.644 Y136.595 E.01676
G1 X118.206 Y137.157 E.02495
G1 X118.206 Y137.691 E.01676
G1 X117.644 Y137.128 E.02497
G1 X117.644 Y137.662 E.01676
G1 X118.206 Y138.225 E.02497
G1 X118.206 Y138.759 E.01676
G1 X117.644 Y138.196 E.02497
G1 X117.644 Y138.73 E.01676
G1 X118.206 Y139.293 E.02497
G1 X118.206 Y139.826 E.01673
G1 X117.644 Y139.264 E.02495
G1 X117.644 Y139.797 E.01673
G1 X118.376 Y140.53 E.03251
G1 X117.474 Y140.162 F9000
G1 F2400
G1 X119.669 Y142.356 E.09741
G1 X119.135 Y142.356 E.01676
G1 X117.644 Y140.865 E.06618
G1 X117.644 Y141.399 E.01676
G1 X118.601 Y142.356 E.04248
G1 X118.067 Y142.356 E.01676
G1 X117.474 Y141.763 E.02632
M106 S255
;LAYER_CHANGE
;Z:0.4
;HEIGHT:0.2
;BEFORE_LAYER_CHANGE
G92 E0
;0.4


G1 E-3.5 F3600
;WIPE_START
G1 F7200
G1 X118.067 Y142.356 E-.39835
G1 X118.601 Y142.356 E-.25365
G1 X117.644 Y141.399 E-.64287
G1 X117.644 Y140.967 E-.20513
;WIPE_END
G1 Z.4 F9000
;AFTER_LAYER_CHANGE
;0.4
M104 S205 ; set temperature
; stop printing object TestSujetaPerfil_v05.stl id:0 copy 0
G1 X112.904 Y141.763
G1 E5 F2400
;TYPE:Skirt/Brim
;WIDTH:0.42
G1 F3806
G1 X112.904 Y116.093 E.80486
G1 X113.298 Y114.558 E.04969
G1 X114.382 Y113.402 E.04969
G1 X116.093 Y112.904 E.05587
G1 X143.907 Y112.904 E.87209
G1 X145.442 Y113.298 E.04969
G1 X146.598 Y114.382 E.04969
G1 X147.096 Y116.093 E.05587
