; generated by PrusaSlicer 2.9.3 on 2025-10-19 at 17:41:05 UTC

; 

; external perimeters extrusion width = 0.42mm
; perimeters extrusion width = 0.44mm
; infill extrusion width = 0.44mm
; solid infill extrusion width = 0.44mm
; top infill extrusion width = 0.40mm
; first layer extrusion width = 0.42mm

M201 X500 Y500 Z100 E5000 ; sets maximum accelerations, mm/sec^2
M203 X500 Y500 Z10 E60 ; sets maximum feedrates, mm / sec
M204 S500 T1000 ; sets acceleration (S) and retract acceleration (R), mm/sec^2
M205 X8.00 Y8.00 Z0.40 E5.00 ; sets the jerk limits, mm/sec
M205 S0 T0 ; sets the minimum extruding and travel feed rate, mm/sec

; printing object TestSujetaPerfil.stl id:0 copy 0
; stop printing object TestSujetaPerfil.stl id:0 copy 0

;TYPE:Custom
G90 ; use absolute coordinates
M83 ; extruder relative mode
M104 S150 ; set temporary nozzle temp to prevent oozing during homing
M140 S60 ; set final bed temp
G4 S30 ; allow partial nozzle warmup
G28 ; home all axis
G1 Z50 F240
G1 X2.0 Y10 F3000
M104 S210 ; set final nozzle temp
M190 S60 ; wait for bed temp to stabilize
M109 S210 ; wait for nozzle temp to stabilize
G1 Z0.28 F240
G92 E0
G1 X2.0 Y140 E10 F1500 ; prime the nozzle
G1 X2.3 Y140 F5000
G92 E0
G1 X2.3 Y10 E10 F1200 ; prime the nozzle
G92 E0
G21 ; set units to millimeters
G90 ; use absolute coordinates
M83 ; use relative distances for extrusion
; Filament gcode
M107
;LAYER_CHANGE
;Z:0.2
;HEIGHT:0.2
G1 E-5 F3600
G1 Z.2 F9000
G1 X114.382 Y113.402
G1 E5 F2400
M204 S500
;TYPE:Skirt/Brim
;WIDTH:0.42
G1 X116.093 Y112.904 E.05587
G1 X143.907 Y112.904 E.87209
G1 X145.442 Y113.298 E.04969
G1 X146.598 Y114.382 E.04969
G1 X147.096 Y116.093 E.05587
G1 X147.096 Y143.907 E.87209
G1 X146.702 Y145.442 E.04969
G1 X145.618 Y146.598 E.04969
G1 X143.907 Y147.096 E.05587
G1 X116.093 Y147.096 E.87209
G1 X114.558 Y146.702 E.04969
G1 X113.402 Y145.618 E.04969
G1 X112.904 Y143.907 E.05587
G1 X112.904 Y116.093 E.87209
G1 X113.298 Y114.558 E.04969
G1 X114.341 Y113.446 E.0478
G1 E-3.5 F3600
;WIPE_START
G1 F7200
G1 X114.382 Y113.402 E-.02857
G1 X116.093 Y112.904 E-.84645
G1 X117.409 Y112.904 E-.62498
;WIPE_END
; printing object TestSujetaPerfil.stl id:0 copy 0
G1 X118.941 Y118.44 F9000
G1 E5 F2400
;TYPE:Perimeter
;WIDTH:0.419999
G1 X119.115 Y118.275 E.00752
G1 X119.427 Y118.161 E.01042
G1 X119.589 Y118.147 E.0051
G1 X140.411 Y118.147 E.65286
G1 X140.885 Y118.275 E.01539
G1 X141.199 Y118.573 E.01357
G1 X141.353 Y119.089 E.01688
G1 X141.353 Y140.911 E.68421
G1 X141.339 Y141.073 E.0051
G1 X141.199 Y141.427 E.01194
G1 X140.885 Y141.725 E.01357
G1 X140.573 Y141.839 E.01042
G1 X140.411 Y141.853 E.0051
G1 X119.589 Y141.853 E.65286
G1 X119.115 Y141.725 E.01539
G1 X118.801 Y141.427 E.01357
G1 X118.661 Y141.073 E.01194
G1 X118.647 Y140.911 E.0051
G1 X118.647 Y119.089 E.68421
G1 X118.801 Y118.573 E.01688
G1 X118.898 Y118.481 E.00419
G1 X119.201 Y118.699 F9000
G1 F2400
G1 X119.305 Y118.601 E.00448
G1 X119.589 Y118.524 E.00923
G1 X140.411 Y118.524 E.65286
G1 X140.695 Y118.601 E.00923
G1 X140.884 Y118.78 E.00816
G1 X140.976 Y119.089 E.01011
G1 X140.976 Y140.911 E.68421
G1 X140.884 Y141.22 E.01011
G1 X140.695 Y141.399 E.00816
G1 X140.411 Y141.476 E.00923
G1 X119.589 Y141.476 E.65286
G1 X119.305 Y141.399 E.00923
G1 X119.116 Y141.22 E.00816
G1 X119.024 Y140.911 E.01011
G1 X119.024 Y119.089 E.68421
G1 X119.116 Y118.78 E.01011
G1 X119.157 Y118.741 E.00177
G1 X119.466 Y118.977 F9000
;TYPE:External perimeter
G1 F2400
G1 X119.494 Y118.927 E.0018
G1 X119.589 Y118.901 E.00309
G1 X140.411 Y118.901 E.65286
G1 X140.568 Y118.986 E.0056
G1 X140.599 Y119.089 E.00337
G1 X140.599 Y140.911 E.68421
G1 X140.568 Y141.014 E.00337
G1 X140.443 Y141.096 E.00469
G1 X140.411 Y141.099 E.00101
G1 X119.589 Y141.099 E.65286
G1 X119.432 Y141.014 E.0056
G1 X119.401 Y140.911 E.00337
G1 X119.401 Y119.089 E.68421
G1 X119.436 Y119.029 E.00218
G1 E-3.5 F3600
;WIPE_START
G1 F7200
G1 X119.466 Y118.977 E-.02852
G1 X119.494 Y118.927 E-.02722
G1 X119.589 Y118.901 E-.04678
G1 X122.531 Y118.901 E-1.39748
;WIPE_END
G1 X117.353 Y117.353 F9000
G1 E5 F2400
;TYPE:Perimeter
G1 X142.647 Y117.353 E.79307
G1 X142.647 Y118.141 E.02471
G1 X142.647 Y142.647 E.76837
G1 X117.353 Y142.647 E.79307
G1 X117.353 Y117.413 E.79119
G1 X116.976 Y116.976 F9000
G1 F2400
G1 X143.024 Y116.976 E.81672
G1 X143.024 Y118.141 E.03653
G1 X143.024 Y143.024 E.78019
G1 X116.976 Y143.024 E.81672
G1 X116.976 Y117.036 E.81483
G1 X116.599 Y116.599 F9000
;TYPE:External perimeter
G1 F2400
G1 X143.401 Y116.599 E.84036
G1 X143.401 Y118.141 E.04835
G1 X143.401 Y143.401 E.79201
G1 X116.599 Y143.401 E.84036
G1 X116.599 Y116.659 E.83848
G1 E-3.5 F3600
;WIPE_START
G1 F7200
G1 X116.599 Y116.599 E-.0285
G1 X119.697 Y116.599 E-1.4715
;WIPE_END
G1 X141.763 Y117.474 F9000
G1 E5 F2400
;TYPE:Solid infill
;WIDTH:0.420393
G1 X142.356 Y118.067 E.02632
G1 X142.356 Y118.601 E.01676
G1 X141.399 Y117.644 E.04248
G1 X140.865 Y117.644 E.01676
G1 X142.356 Y119.135 E.06618
G1 X142.356 Y119.669 E.01676
G1 X141.593 Y118.906 E.03387
G1 X141.447 Y118.415 E.01608
G1 X141.032 Y118.021 E.01796
G1 X140.588 Y117.901 E.01444
G1 X140.162 Y117.474 E.01893
G1 X140.18 Y118.026 F9000
G1 F2400
G1 X139.797 Y117.644 E.01698
G1 X139.264 Y117.644 E.01673
G1 X139.476 Y117.856 E.00941
G1 X138.943 Y117.856 E.01673
G1 X138.73 Y117.644 E.00943
G1 X138.196 Y117.644 E.01676
G1 X138.409 Y117.856 E.00943
G1 X137.875 Y117.856 E.01676
G1 X137.662 Y117.644 E.00943
G1 X137.128 Y117.644 E.01676
G1 X137.341 Y117.856 E.00943
G1 X136.807 Y117.856 E.01676
G1 X136.594 Y117.644 E.00943
G1 X136.061 Y117.644 E.01673
G1 X136.273 Y117.856 E.00941
G1 X135.74 Y117.856 E.01673
G1 X135.527 Y117.644 E.00943
G1 X134.993 Y117.644 E.01676
G1 X135.206 Y117.856 E.00943
G1 X134.672 Y117.856 E.01676
G1 X134.459 Y117.644 E.00943
G1 X133.925 Y117.644 E.01676
G1 X134.138 Y117.856 E.00943
G1 X133.604 Y117.856 E.01676
G1 X133.391 Y117.644 E.00943
G1 X132.858 Y117.644 E.01673
G1 X133.07 Y117.856 E.00941
G1 X132.537 Y117.856 E.01673
G1 X132.324 Y117.644 E.00943
G1 X131.79 Y117.644 E.01676
G1 X132.003 Y117.856 E.00943
G1 X131.469 Y117.856 E.01676
G1 X131.256 Y117.644 E.00943
G1 X130.722 Y117.644 E.01676
G1 X130.935 Y117.856 E.00943
G1 X130.401 Y117.856 E.01676
G1 X130.188 Y117.644 E.00943
G1 X129.655 Y117.644 E.01673
G1 X129.867 Y117.856 E.00941
G1 X129.334 Y117.856 E.01673
G1 X129.121 Y117.644 E.00943
G1 X128.587 Y117.644 E.01676
G1 X128.8 Y117.856 E.00943
G1 X128.266 Y117.856 E.01676
G1 X128.053 Y117.644 E.00943
G1 X127.519 Y117.644 E.01676
G1 X127.732 Y117.856 E.00943
G1 X127.198 Y117.856 E.01676
G1 X126.986 Y117.644 E.00941
G1 X126.452 Y117.644 E.01676
G1 X126.665 Y117.856 E.00943
G1 X126.131 Y117.856 E.01676
G1 X125.918 Y117.644 E.00943
G1 X125.384 Y117.644 E.01676
G1 X125.597 Y117.856 E.00943
G1 X125.063 Y117.856 E.01676
G1 X124.85 Y117.644 E.00943
G1 X124.316 Y117.644 E.01676
G1 X124.529 Y117.856 E.00943
G1 X123.995 Y117.856 E.01676
G1 X123.783 Y117.644 E.00941
G1 X123.249 Y117.644 E.01676
G1 X123.462 Y117.856 E.00943
G1 X122.928 Y117.856 E.01676
G1 X122.715 Y117.644 E.00943
G1 X122.181 Y117.644 E.01676
G1 X122.394 Y117.856 E.00943
G1 X121.86 Y117.856 E.01676
G1 X121.647 Y117.644 E.00943
G1 X121.113 Y117.644 E.01676
G1 X121.326 Y117.856 E.00943
G1 X120.792 Y117.856 E.01676
G1 X120.58 Y117.644 E.00941
G1 X120.046 Y117.644 E.01676
G1 X120.259 Y117.856 E.00943
G1 X119.725 Y117.856 E.01676
G1 X119.512 Y117.644 E.00943
G1 X118.978 Y117.644 E.01676
G1 X119.253 Y117.918 E.01218
G1 X118.965 Y118.024 E.00963
G1 X118.893 Y118.092 E.00311
G1 X118.444 Y117.644 E.01991
G1 X117.91 Y117.644 E.01676
G1 X118.619 Y118.352 E.03145
G1 X118.553 Y118.415 E.00286
G1 X118.46 Y118.727 E.01022
G1 X117.644 Y117.911 E.03622
G1 X117.644 Y118.444 E.01673
G1 X118.356 Y119.157 E.03163
G1 X118.356 Y119.691 E.01676
G1 X117.644 Y118.978 E.03163
G1 X117.644 Y119.512 E.01676
G1 X118.356 Y120.225 E.03163
G1 X118.356 Y120.759 E.01676
G1 X117.644 Y120.046 E.03163
G1 X117.644 Y120.58 E.01676
G1 X118.356 Y121.293 E.03163
G1 X118.356 Y121.826 E.01673
G1 X117.644 Y121.114 E.0316
G1 X117.644 Y121.647 E.01673
G1 X118.356 Y122.36 E.03163
G1 X118.356 Y122.894 E.01676
G1 X117.644 Y122.181 E.03163
G1 X117.644 Y122.715 E.01676
G1 X118.356 Y123.428 E.03163
G1 X118.356 Y123.962 E.01676
G1 X117.644 Y123.249 E.03163
G1 X117.644 Y123.783 E.01676
G1 X118.356 Y124.495 E.0316
G1 X118.356 Y125.029 E.01676
G1 X117.644 Y124.316 E.03163
G1 X117.644 Y124.85 E.01676
G1 X118.356 Y125.563 E.03163
G1 X118.356 Y126.097 E.01676
G1 X117.644 Y125.384 E.03163
G1 X117.644 Y125.918 E.01676
G1 X118.356 Y126.631 E.03163
G1 X118.356 Y127.165 E.01676
G1 X117.644 Y126.452 E.03163
G1 X117.644 Y126.986 E.01676
G1 X118.356 Y127.698 E.0316
G1 X118.356 Y128.232 E.01676
G1 X117.644 Y127.519 E.03163
G1 X117.644 Y128.053 E.01676
G1 X118.356 Y128.766 E.03163
G1 X118.356 Y129.3 E.01676
G1 X117.644 Y128.587 E.03163
G1 X117.644 Y129.121 E.01676
G1 X118.356 Y129.834 E.03163
G1 X118.356 Y130.368 E.01676
G1 X117.644 Y129.655 E.03163
G1 X117.644 Y130.189 E.01676
G1 X118.356 Y130.901 E.0316
G1 X118.356 Y131.435 E.01676
G1 X117.644 Y130.722 E.03163
G1 X117.644 Y131.256 E.01676
G1 X118.356 Y131.969 E.03163
G1 X118.356 Y132.503 E.01676
G1 X117.644 Y131.79 E.03163
G1 X117.644 Y132.324 E.01676
G1 X118.356 Y133.037 E.03163
G1 X118.356 Y133.571 E.01676
G1 X117.644 Y132.858 E.03163
G1 X117.644 Y133.392 E.01676
G1 X118.356 Y134.104 E.0316
G1 X118.356 Y134.638 E.01676
G1 X117.644 Y133.925 E.03163
G1 X117.644 Y134.459 E.01676
G1 X118.356 Y135.172 E.03163
G1 X118.356 Y135.706 E.01676
G1 X117.644 Y134.993 E.03163
G1 X117.644 Y135.527 E.01676
G1 X118.356 Y136.24 E.03163
G1 X118.356 Y136.774 E.01676
G1 X117.644 Y136.061 E.03163
G1 X117.644 Y136.595 E.01676
G1 X118.356 Y137.307 E.0316
G1 X118.356 Y137.841 E.01676
G1 X117.644 Y137.128 E.03163
G1 X117.644 Y137.662 E.01676
G1 X118.356 Y138.375 E.03163
G1 X118.356 Y138.909 E.01676
G1 X117.644 Y138.196 E.03163
G1 X117.644 Y138.73 E.01676
G1 X118.356 Y139.443 E.03163
G1 X118.356 Y139.976 E.01673
G1 X117.644 Y139.264 E.0316
G1 X117.644 Y139.797 E.01673
G1 X118.526 Y140.68 E.03917
G1 E-3.5 F3600
;WIPE_START
G1 F7200
G1 X117.644 Y139.797 E-.59282
G1 X117.644 Y139.264 E-.25317
G1 X118.356 Y139.976 E-.47829
G1 X118.356 Y139.606 E-.17572
;WIPE_END
G1 X141.474 Y119.32 F9000
G1 E5 F2400
G1 X142.356 Y120.203 E.03917
G1 X142.356 Y120.736 E.01673
G1 X141.644 Y120.024 E.0316
G1 X141.644 Y120.557 E.01673
G1 X142.356 Y121.27 E.03163
G1 X142.356 Y121.804 E.01676
G1 X141.644 Y121.091 E.03163
G1 X141.644 Y121.625 E.01676
G1 X142.356 Y122.338 E.03163
G1 X142.356 Y122.872 E.01676
G1 X141.644 Y122.159 E.03163
G1 X141.644 Y122.693 E.01676
G1 X142.356 Y123.406 E.03163
G1 X142.356 Y123.939 E.01673
G1 X141.644 Y123.227 E.0316
G1 X141.644 Y123.76 E.01673
G1 X142.356 Y124.473 E.03163
G1 X142.356 Y125.007 E.01676
G1 X141.644 Y124.294 E.03163
G1 X141.644 Y124.828 E.01676
G1 X142.356 Y125.541 E.03163
G1 X142.356 Y126.075 E.01676
G1 X141.644 Y125.362 E.03163
G1 X141.644 Y125.896 E.01676
G1 X142.356 Y126.609 E.03163
G1 X142.356 Y127.142 E.01673
G1 X141.644 Y126.43 E.0316
G1 X141.644 Y126.963 E.01673
G1 X142.356 Y127.676 E.03163
G1 X142.356 Y128.21 E.01676
G1 X141.644 Y127.497 E.03163
G1 X141.644 Y128.031 E.01676
G1 X142.356 Y128.744 E.03163
G1 X142.356 Y129.278 E.01676
G1 X141.644 Y128.565 E.03163
G1 X141.644 Y129.099 E.01676
G1 X142.356 Y129.812 E.03163
G1 X142.356 Y130.345 E.01673
G1 X141.644 Y129.633 E.0316
G1 X141.644 Y130.166 E.01673
G1 X142.356 Y130.879 E.03163
G1 X142.356 Y131.413 E.01676
G1 X141.644 Y130.7 E.03163
G1 X141.644 Y131.234 E.01676
G1 X142.356 Y131.947 E.03163
G1 X142.356 Y132.481 E.01676
G1 X141.644 Y131.768 E.03163
G1 X141.644 Y132.302 E.01676
G1 X142.356 Y133.014 E.0316
G1 X142.356 Y133.548 E.01676
G1 X141.644 Y132.836 E.0316
G1 X141.644 Y133.369 E.01673
G1 X142.356 Y134.082 E.03163
G1 X142.356 Y134.616 E.01676
G1 X141.644 Y133.903 E.03163
G1 X141.644 Y134.437 E.01676
G1 X142.356 Y135.15 E.03163
G1 X142.356 Y135.684 E.01676
G1 X141.644 Y134.971 E.03163
G1 X141.644 Y135.505 E.01676
G1 X142.356 Y136.217 E.0316
G1 X142.356 Y136.751 E.01676
G1 X141.644 Y136.038 E.03163
G1 X141.644 Y136.572 E.01676
G1 X142.356 Y137.285 E.03163
G1 X142.356 Y137.819 E.01676
G1 X141.644 Y137.106 E.03163
G1 X141.644 Y137.64 E.01676
G1 X142.356 Y138.353 E.03163
G1 X142.356 Y138.887 E.01676
G1 X141.644 Y138.174 E.03163
G1 X141.644 Y138.708 E.01676
G1 X142.356 Y139.42 E.0316
G1 X142.356 Y139.954 E.01676
G1 X141.644 Y139.241 E.03163
G1 X141.644 Y139.775 E.01676
G1 X142.356 Y140.488 E.03163
G1 X142.356 Y141.022 E.01676
G1 X141.644 Y140.309 E.03163
G1 X141.644 Y140.843 E.01676
G1 X142.356 Y141.556 E.03163
G1 X142.356 Y142.09 E.01676
G1 X141.56 Y141.293 E.03535
G1 X141.443 Y141.589 E.00999
G1 X141.381 Y141.648 E.00269
G1 X142.089 Y142.356 E.03143
G1 X141.556 Y142.356 E.01673
G1 X141.107 Y141.908 E.01991
G1 X141.035 Y141.976 E.00311
G1 X140.747 Y142.082 E.00963
G1 X141.022 Y142.356 E.01218
G1 X140.488 Y142.356 E.01676
G1 X140.275 Y142.144 E.00943
G1 X139.741 Y142.144 E.01676
G1 X139.954 Y142.356 E.00943
G1 X139.42 Y142.356 E.01676
G1 X139.207 Y142.144 E.00943
G1 X138.674 Y142.144 E.01673
G1 X138.886 Y142.356 E.00941
G1 X138.353 Y142.356 E.01673
G1 X138.14 Y142.144 E.00943
G1 X137.606 Y142.144 E.01676
G1 X137.819 Y142.356 E.00943
G1 X137.285 Y142.356 E.01676
G1 X137.072 Y142.144 E.00943
G1 X136.538 Y142.144 E.01676
G1 X136.751 Y142.356 E.00943
G1 X136.217 Y142.356 E.01676
G1 X136.005 Y142.144 E.00941
G1 X135.471 Y142.144 E.01676
G1 X135.684 Y142.356 E.00943
G1 X135.15 Y142.356 E.01676
G1 X134.937 Y142.144 E.00943
G1 X134.403 Y142.144 E.01676
G1 X134.616 Y142.356 E.00943
G1 X134.082 Y142.356 E.01676
G1 X133.869 Y142.144 E.00943
G1 X133.335 Y142.144 E.01676
G1 X133.548 Y142.356 E.00943
G1 X133.014 Y142.356 E.01676
G1 X132.802 Y142.144 E.00941
G1 X132.268 Y142.144 E.01676
G1 X132.481 Y142.356 E.00943
G1 X131.947 Y142.356 E.01676
G1 X131.734 Y142.144 E.00943
G1 X131.2 Y142.144 E.01676
G1 X131.413 Y142.356 E.00943
G1 X130.879 Y142.356 E.01676
G1 X130.666 Y142.144 E.00943
G1 X130.132 Y142.144 E.01676
G1 X130.345 Y142.356 E.00943
G1 X129.811 Y142.356 E.01676
G1 X129.599 Y142.144 E.00941
G1 X129.065 Y142.144 E.01676
G1 X129.278 Y142.356 E.00943
G1 X128.744 Y142.356 E.01676
G1 X128.531 Y142.144 E.00943
G1 X127.997 Y142.144 E.01676
G1 X128.21 Y142.356 E.00943
G1 X127.676 Y142.356 E.01676
G1 X127.463 Y142.144 E.00943
G1 X126.929 Y142.144 E.01676
G1 X127.142 Y142.356 E.00943
G1 X126.608 Y142.356 E.01676
G1 X126.396 Y142.144 E.00941
G1 X125.862 Y142.144 E.01676
G1 X126.075 Y142.356 E.00943
G1 X125.541 Y142.356 E.01676
G1 X125.328 Y142.144 E.00943
G1 X124.794 Y142.144 E.01676
G1 X125.007 Y142.356 E.00943
G1 X124.473 Y142.356 E.01676
G1 X124.26 Y142.144 E.00943
G1 X123.726 Y142.144 E.01676
G1 X123.939 Y142.356 E.00943
G1 X123.405 Y142.356 E.01676
G1 X123.193 Y142.144 E.00941
G1 X122.659 Y142.144 E.01676
G1 X122.872 Y142.356 E.00943
G1 X122.338 Y142.356 E.01676
G1 X122.125 Y142.144 E.00943
G1 X121.591 Y142.144 E.01676
G1 X121.804 Y142.356 E.00943
G1 X121.27 Y142.356 E.01676
G1 X121.057 Y142.144 E.00943
G1 X120.524 Y142.144 E.01673
G1 X120.736 Y142.356 E.00941
G1 X120.203 Y142.356 E.01673
G1 X119.82 Y141.974 E.01698
G1 X119.838 Y142.526 F9000
G1 F2400
G1 X119.411 Y142.099 E.01895
G1 X118.968 Y141.979 E.01441
G1 X118.557 Y141.589 E.01778
G1 X118.375 Y141.13 E.0155
G1 X118.369 Y141.056 E.00233
G1 X117.644 Y140.331 E.03218
G1 X117.644 Y140.865 E.01676
G1 X119.135 Y142.356 E.06618
G1 X118.601 Y142.356 E.01676
G1 X117.644 Y141.399 E.04248
G1 X117.644 Y141.933 E.01676
G1 X118.237 Y142.526 E.02632
M106 S255
;LAYER_CHANGE
;Z:0.4
;HEIGHT:0.2
;BEFORE_LAYER_CHANGE
G92 E0
;0.4


G1 E-3.5 F3600
;WIPE_START
G1 F7200
G1 X117.644 Y141.933 E-.39835
G1 X117.644 Y141.399 E-.25365
G1 X118.601 Y142.356 E-.64287
G1 X119.033 Y142.356 E-.20513
;WIPE_END
G1 Z.4 F9000
;AFTER_LAYER_CHANGE
;0.4
M104 S205 ; set temperature
; stop printing object TestSujetaPerfil.stl id:0 copy 0
G1 X118.237 Y147.096
G1 E5 F2400
;TYPE:Skirt/Brim
;WIDTH:0.42
G1 F3534
G1 X116.093 Y147.096 E.06722
G1 X114.558 Y146.702 E.04969
G1 X113.402 Y145.618 E.04969
