; generated by PrusaSlicer 2.9.3 on 2025-10-19 at 22:24:59 UTC

; 

; external perimeters extrusion width = 0.42mm
; perimeters extrusion width = 0.44mm
; infill extrusion width = 0.44mm
; solid infill extrusion width = 0.44mm
; top infill extrusion width = 0.40mm
; first layer extrusion width = 0.42mm

M201 X500 Y500 Z100 E5000 ; sets maximum accelerations, mm/sec^2
M203 X500 Y500 Z10 E60 ; sets maximum feedrates, mm / sec
M204 S500 T1000 ; sets acceleration (S) and retract acceleration (R), mm/sec^2
M205 X8.00 Y8.00 Z0.40 E5.00 ; sets the jerk limits, mm/sec
M205 S0 T0 ; sets the minimum extruding and travel feed rate, mm/sec

; printing object TestSujetaPerfil_v07.stl id:0 copy 0
; stop printing object TestSujetaPerfil_v07.stl id:0 copy 0

;TYPE:Custom
G90 ; use absolute coordinates
M83 ; extruder relative mode
M104 S150 ; set temporary nozzle temp to prevent oozing during homing
M140 S60 ; set final bed temp
G4 S30 ; allow partial nozzle warmup
G28 ; home all axis
G1 Z50 F240
G1 X2.0 Y10 F3000
M104 S210 ; set final nozzle temp
M190 S60 ; wait for bed temp to stabilize
M109 S210 ; wait for nozzle temp to stabilize
G1 Z0.28 F240
G92 E0
G1 X2.0 Y140 E10 F1500 ; prime the nozzle
G1 X2.3 Y140 F5000
G92 E0
G1 X2.3 Y10 E10 F1200 ; prime the nozzle
G92 E0
G21 ; set units to millimeters
G90 ; use absolute coordinates
M83 ; use relative distances for extrusion
; Filament gcode
M107
;LAYER_CHANGE
;Z:0.2
;HEIGHT:0.2
G1 E-5 F3600
G1 Z.2 F9000
G1 X114.382 Y113.402
G1 E5 F2400
M204 S500
;TYPE:Skirt/Brim
;WIDTH:0.42
G1 X116.093 Y112.904 E.05587
G1 X143.907 Y112.904 E.87209
G1 X145.442 Y113.298 E.04969
G1 X146.598 Y114.382 E.04969
G1 X147.096 Y116.093 E.05587
G1 X147.096 Y143.907 E.87209
G1 X146.702 Y145.442 E.04969
G1 X145.618 Y146.598 E.04969
G1 X143.907 Y147.096 E.05587
G1 X116.093 Y147.096 E.87209
G1 X114.558 Y146.702 E.04969
G1 X113.402 Y145.618 E.04969
G1 X112.904 Y143.907 E.05587
G1 X112.904 Y116.093 E.87209
G1 X113.298 Y114.558 E.04969
G1 X114.341 Y113.446 E.0478
G1 E-3.5 F3600
;WIPE_START
G1 F7200
G1 X114.382 Y113.402 E-.02857
G1 X116.093 Y112.904 E-.84645
G1 X117.409 Y112.904 E-.62498
;WIPE_END
; printing object TestSujetaPerfil_v07.stl id:0 copy 0
G1 X118.793 Y118.806 F9000
G1 E5 F2400
;TYPE:Perimeter
;WIDTH:0.419999
G1 X118.798 Y118.798 E.0003
G1 X119.09 Y118.599 E.01108
G1 X119.464 Y118.522 E.01197
G1 X140.536 Y118.522 E.6607
G1 X140.91 Y118.599 E.01197
G1 X141.202 Y118.798 E.01108
G1 X141.401 Y119.09 E.01108
G1 X141.478 Y119.464 E.01197
G1 X141.478 Y140.536 E.6607
G1 X141.401 Y140.91 E.01197
G1 X141.202 Y141.202 E.01108
G1 X140.91 Y141.401 E.01108
G1 X140.536 Y141.478 E.01197
G1 X119.464 Y141.478 E.6607
G1 X119.09 Y141.401 E.01197
G1 X118.798 Y141.202 E.01108
G1 X118.599 Y140.91 E.01108
G1 X118.522 Y140.536 E.01197
G1 X118.522 Y119.464 E.6607
G1 X118.599 Y119.09 E.01197
G1 X118.759 Y118.855 E.00891
G1 X119.078 Y119.058 F9000
G1 F2400
G1 X119.367 Y118.907 E.01022
G1 X119.464 Y118.899 E.00305
G1 X140.536 Y118.899 E.6607
G1 X140.76 Y118.945 E.00717
G1 X140.935 Y119.065 E.00665
G1 X141.055 Y119.24 E.00665
G1 X141.101 Y119.464 E.00717
G1 X141.101 Y140.536 E.6607
G1 X141.055 Y140.76 E.00717
G1 X140.935 Y140.935 E.00665
G1 X140.633 Y141.093 E.01069
G1 X140.536 Y141.101 E.00305
G1 X119.464 Y141.101 E.6607
G1 X119.24 Y141.055 E.00717
G1 X119.065 Y140.935 E.00665
G1 X118.907 Y140.633 E.01069
G1 X118.899 Y140.536 E.00305
G1 X118.899 Y119.464 E.6607
G1 X118.945 Y119.24 E.00717
G1 X119.039 Y119.102 E.00524
G1 X119.349 Y119.324 F9000
;TYPE:External perimeter
G1 F2400
G1 X119.464 Y119.276 E.00391
G1 X140.536 Y119.276 E.6607
G1 X140.669 Y119.331 E.00451
G1 X140.724 Y119.464 E.00451
G1 X140.724 Y140.536 E.6607
G1 X140.669 Y140.669 E.00451
G1 X140.536 Y140.724 E.00451
G1 X119.464 Y140.724 E.6607
G1 X119.331 Y140.669 E.00451
G1 X119.276 Y140.536 E.00451
G1 X119.276 Y119.464 E.6607
G1 X119.316 Y119.369 E.00323
G1 E-3.5 F3600
;WIPE_START
G1 F7200
G1 X119.349 Y119.324 E-.02651
G1 X119.464 Y119.276 E-.05919
G1 X122.441 Y119.276 E-1.4143
;WIPE_END
G1 X117.353 Y117.353 F9000
G1 E5 F2400
;TYPE:Perimeter
G1 X142.647 Y117.353 E.79307
G1 X142.647 Y118.199 E.02653
G1 X142.647 Y142.647 E.76655
G1 X117.353 Y142.647 E.79307
G1 X117.353 Y117.413 E.79119
G1 X116.976 Y116.976 F9000
G1 F2400
G1 X143.024 Y116.976 E.81672
G1 X143.024 Y118.199 E.03835
G1 X143.024 Y143.024 E.77837
G1 X116.976 Y143.024 E.81672
G1 X116.976 Y117.036 E.81483
G1 X116.599 Y116.599 F9000
;TYPE:External perimeter
G1 F2400
G1 X143.401 Y116.599 E.84036
G1 X143.401 Y118.199 E.05017
G1 X143.401 Y143.401 E.79019
G1 X116.599 Y143.401 E.84036
G1 X116.599 Y116.659 E.83848
G1 E-3.5 F3600
;WIPE_START
G1 F7200
G1 X116.599 Y116.599 E-.0285
G1 X119.697 Y116.599 E-1.4715
;WIPE_END
G1 X142.526 Y118.237 F9000
G1 E5 F2400
;TYPE:Solid infill
;WIDTH:0.420393
G1 X141.933 Y117.644 E.02632
G1 X141.399 Y117.644 E.01676
G1 X142.356 Y118.601 E.04248
G1 X142.356 Y119.135 E.01676
G1 X140.865 Y117.644 E.06618
G1 X140.331 Y117.644 E.01676
G1 X142.526 Y119.838 E.09741
G1 X141.592 Y119.438 F9000
G1 F2400
G1 X142.356 Y120.203 E.03393
G1 X142.356 Y120.736 E.01673
G1 X141.769 Y120.149 E.02606
G1 X141.769 Y120.682 E.01673
G1 X142.356 Y121.27 E.02608
G1 X142.356 Y121.804 E.01676
G1 X141.769 Y121.216 E.02608
G1 X141.769 Y121.75 E.01676
G1 X142.356 Y122.338 E.02608
G1 X142.356 Y122.872 E.01676
G1 X141.769 Y122.284 E.02608
G1 X141.769 Y122.818 E.01676
G1 X142.356 Y123.406 E.02608
G1 X142.356 Y123.939 E.01673
G1 X141.769 Y123.352 E.02606
G1 X141.769 Y123.885 E.01673
G1 X142.356 Y124.473 E.02608
G1 X142.356 Y125.007 E.01676
G1 X141.769 Y124.419 E.02608
G1 X141.769 Y124.953 E.01676
G1 X142.356 Y125.541 E.02608
G1 X142.356 Y126.075 E.01676
G1 X141.769 Y125.487 E.02608
G1 X141.769 Y126.021 E.01676
G1 X142.356 Y126.609 E.02608
G1 X142.356 Y127.142 E.01673
G1 X141.769 Y126.555 E.02606
G1 X141.769 Y127.088 E.01673
G1 X142.356 Y127.676 E.02608
G1 X142.356 Y128.21 E.01676
G1 X141.769 Y127.622 E.02608
G1 X141.769 Y128.156 E.01676
G1 X142.356 Y128.744 E.02608
G1 X142.356 Y129.278 E.01676
G1 X141.769 Y128.69 E.02608
G1 X141.769 Y129.224 E.01676
G1 X142.356 Y129.812 E.02608
G1 X142.356 Y130.345 E.01673
G1 X141.769 Y129.758 E.02606
G1 X141.769 Y130.291 E.01673
G1 X142.356 Y130.879 E.02608
G1 X142.356 Y131.413 E.01676
G1 X141.769 Y130.825 E.02608
G1 X141.769 Y131.359 E.01676
G1 X142.356 Y131.947 E.02608
G1 X142.356 Y132.481 E.01676
G1 X141.769 Y131.893 E.02608
G1 X141.769 Y132.427 E.01676
G1 X142.356 Y133.014 E.02606
G1 X142.356 Y133.548 E.01676
G1 X141.769 Y132.96 E.02608
G1 X141.769 Y133.494 E.01676
G1 X142.356 Y134.082 E.02608
G1 X142.356 Y134.616 E.01676
G1 X141.769 Y134.028 E.02608
G1 X141.769 Y134.562 E.01676
G1 X142.356 Y135.15 E.02608
G1 X142.356 Y135.684 E.01676
G1 X141.769 Y135.096 E.02608
G1 X141.769 Y135.63 E.01676
G1 X142.356 Y136.217 E.02606
G1 X142.356 Y136.751 E.01676
G1 X141.769 Y136.163 E.02608
G1 X141.769 Y136.697 E.01676
G1 X142.356 Y137.285 E.02608
G1 X142.356 Y137.819 E.01676
G1 X141.769 Y137.231 E.02608
G1 X141.769 Y137.765 E.01676
G1 X142.356 Y138.353 E.02608
G1 X142.356 Y138.887 E.01676
G1 X141.769 Y138.299 E.02608
G1 X141.769 Y138.833 E.01676
G1 X142.356 Y139.42 E.02606
G1 X142.356 Y139.954 E.01676
G1 X141.769 Y139.366 E.02608
G1 X141.769 Y139.9 E.01676
G1 X142.356 Y140.488 E.02608
G1 X142.356 Y141.022 E.01676
G1 X141.769 Y140.434 E.02608
G1 X141.75 Y140.75 E.00994
G1 X141.704 Y140.904 E.00504
G1 X142.356 Y141.556 E.02894
G1 X142.356 Y142.09 E.01676
G1 X141.517 Y141.25 E.03726
G1 X141.409 Y141.409 E.00603
G1 X141.25 Y141.517 E.00603
G1 X142.089 Y142.356 E.03724
G1 X141.556 Y142.356 E.01673
G1 X140.904 Y141.704 E.02894
G1 X140.75 Y141.75 E.00504
G1 X140.434 Y141.769 E.00994
G1 X141.022 Y142.356 E.02608
G1 X140.488 Y142.356 E.01676
G1 X139.9 Y141.769 E.02608
G1 X139.366 Y141.769 E.01676
G1 X139.954 Y142.356 E.02608
G1 X139.42 Y142.356 E.01676
G1 X138.832 Y141.769 E.02608
G1 X138.299 Y141.769 E.01673
G1 X138.886 Y142.356 E.02606
G1 X138.353 Y142.356 E.01673
G1 X137.765 Y141.769 E.02608
G1 X137.231 Y141.769 E.01676
G1 X137.819 Y142.356 E.02608
G1 X137.285 Y142.356 E.01676
G1 X136.697 Y141.769 E.02608
G1 X136.163 Y141.769 E.01676
G1 X136.751 Y142.356 E.02608
G1 X136.217 Y142.356 E.01676
G1 X135.63 Y141.769 E.02606
G1 X135.096 Y141.769 E.01676
G1 X135.684 Y142.356 E.02608
G1 X135.15 Y142.356 E.01676
G1 X134.562 Y141.769 E.02608
G1 X134.028 Y141.769 E.01676
G1 X134.616 Y142.356 E.02608
G1 X134.082 Y142.356 E.01676
G1 X133.494 Y141.769 E.02608
G1 X132.96 Y141.769 E.01676
G1 X133.548 Y142.356 E.02608
G1 X133.014 Y142.356 E.01676
G1 X132.427 Y141.769 E.02606
G1 X131.893 Y141.769 E.01676
G1 X132.481 Y142.356 E.02608
G1 X131.947 Y142.356 E.01676
G1 X131.359 Y141.769 E.02608
G1 X130.825 Y141.769 E.01676
G1 X131.413 Y142.356 E.02608
G1 X130.879 Y142.356 E.01676
G1 X130.291 Y141.769 E.02608
G1 X129.757 Y141.769 E.01676
G1 X130.345 Y142.356 E.02608
G1 X129.811 Y142.356 E.01676
G1 X129.224 Y141.769 E.02606
G1 X128.69 Y141.769 E.01676
G1 X129.278 Y142.356 E.02608
G1 X128.744 Y142.356 E.01676
G1 X128.156 Y141.769 E.02608
G1 X127.622 Y141.769 E.01676
G1 X128.21 Y142.356 E.02608
G1 X127.676 Y142.356 E.01676
G1 X127.088 Y141.769 E.02608
G1 X126.554 Y141.769 E.01676
G1 X127.142 Y142.356 E.02608
G1 X126.608 Y142.356 E.01676
G1 X126.021 Y141.769 E.02606
G1 X125.487 Y141.769 E.01676
G1 X126.075 Y142.356 E.02608
G1 X125.541 Y142.356 E.01676
G1 X124.953 Y141.769 E.02608
G1 X124.419 Y141.769 E.01676
G1 X125.007 Y142.356 E.02608
G1 X124.473 Y142.356 E.01676
G1 X123.885 Y141.769 E.02608
G1 X123.351 Y141.769 E.01676
G1 X123.939 Y142.356 E.02608
G1 X123.405 Y142.356 E.01676
G1 X122.818 Y141.769 E.02606
G1 X122.284 Y141.769 E.01676
G1 X122.872 Y142.356 E.02608
G1 X122.338 Y142.356 E.01676
G1 X121.75 Y141.769 E.02608
G1 X121.216 Y141.769 E.01676
G1 X121.804 Y142.356 E.02608
G1 X121.27 Y142.356 E.01676
G1 X120.682 Y141.769 E.02608
G1 X120.149 Y141.769 E.01673
G1 X120.736 Y142.356 E.02606
G1 X120.203 Y142.356 E.01673
G1 X119.438 Y141.592 E.03393
G1 E-3.5 F3600
;WIPE_START
G1 F7200
G1 X120.203 Y142.356 E-.51355
G1 X120.736 Y142.356 E-.25318
G1 X120.149 Y141.769 E-.39432
G1 X120.682 Y141.769 E-.25318
G1 X120.81 Y141.897 E-.08577
;WIPE_END
G1 X140.562 Y118.408 F9000
G1 E5 F2400
G1 X139.797 Y117.644 E.03393
G1 X139.264 Y117.644 E.01673
G1 X139.851 Y118.231 E.02606
G1 X139.318 Y118.231 E.01673
G1 X138.73 Y117.644 E.02608
G1 X138.196 Y117.644 E.01676
G1 X138.784 Y118.231 E.02608
G1 X138.25 Y118.231 E.01676
G1 X137.662 Y117.644 E.02608
G1 X137.128 Y117.644 E.01676
G1 X137.716 Y118.231 E.02608
G1 X137.182 Y118.231 E.01676
G1 X136.594 Y117.644 E.02608
G1 X136.061 Y117.644 E.01673
G1 X136.648 Y118.231 E.02606
G1 X136.115 Y118.231 E.01673
G1 X135.527 Y117.644 E.02608
G1 X134.993 Y117.644 E.01676
G1 X135.581 Y118.231 E.02608
G1 X135.047 Y118.231 E.01676
G1 X134.459 Y117.644 E.02608
G1 X133.925 Y117.644 E.01676
G1 X134.513 Y118.231 E.02608
G1 X133.979 Y118.231 E.01676
G1 X133.391 Y117.644 E.02608
G1 X132.858 Y117.644 E.01673
G1 X133.445 Y118.231 E.02606
G1 X132.912 Y118.231 E.01673
G1 X132.324 Y117.644 E.02608
G1 X131.79 Y117.644 E.01676
G1 X132.378 Y118.231 E.02608
G1 X131.844 Y118.231 E.01676
G1 X131.256 Y117.644 E.02608
G1 X130.722 Y117.644 E.01676
G1 X131.31 Y118.231 E.02608
G1 X130.776 Y118.231 E.01676
G1 X130.188 Y117.644 E.02608
G1 X129.655 Y117.644 E.01673
G1 X130.242 Y118.231 E.02606
G1 X129.709 Y118.231 E.01673
G1 X129.121 Y117.644 E.02608
G1 X128.587 Y117.644 E.01676
G1 X129.175 Y118.231 E.02608
G1 X128.641 Y118.231 E.01676
G1 X128.053 Y117.644 E.02608
G1 X127.519 Y117.644 E.01676
G1 X128.107 Y118.231 E.02608
G1 X127.573 Y118.231 E.01676
G1 X126.986 Y117.644 E.02606
G1 X126.452 Y117.644 E.01676
G1 X127.04 Y118.231 E.02608
G1 X126.506 Y118.231 E.01676
G1 X125.918 Y117.644 E.02608
G1 X125.384 Y117.644 E.01676
G1 X125.972 Y118.231 E.02608
G1 X125.438 Y118.231 E.01676
G1 X124.85 Y117.644 E.02608
G1 X124.316 Y117.644 E.01676
G1 X124.904 Y118.231 E.02608
G1 X124.37 Y118.231 E.01676
G1 X123.783 Y117.644 E.02606
G1 X123.249 Y117.644 E.01676
G1 X123.837 Y118.231 E.02608
G1 X123.303 Y118.231 E.01676
G1 X122.715 Y117.644 E.02608
G1 X122.181 Y117.644 E.01676
G1 X122.769 Y118.231 E.02608
G1 X122.235 Y118.231 E.01676
G1 X121.647 Y117.644 E.02608
G1 X121.113 Y117.644 E.01676
G1 X121.701 Y118.231 E.02608
G1 X121.167 Y118.231 E.01676
G1 X120.58 Y117.644 E.02606
G1 X120.046 Y117.644 E.01676
G1 X120.634 Y118.231 E.02608
G1 X120.1 Y118.231 E.01676
G1 X119.512 Y117.644 E.02608
G1 X118.978 Y117.644 E.01676
G1 X119.566 Y118.231 E.02608
G1 X119.25 Y118.25 E.00994
G1 X119.096 Y118.296 E.00504
G1 X118.444 Y117.644 E.02894
G1 X117.91 Y117.644 E.01676
G1 X118.75 Y118.483 E.03726
G1 X118.591 Y118.591 E.00603
G1 X118.483 Y118.75 E.00603
G1 X117.644 Y117.911 E.03724
G1 X117.644 Y118.444 E.01673
G1 X118.304 Y119.105 E.02932
G1 X118.231 Y119.454 E.01119
G1 X118.231 Y119.566 E.00352
G1 X117.644 Y118.978 E.02608
G1 X117.644 Y119.512 E.01676
G1 X118.231 Y120.1 E.02608
G1 X118.231 Y120.634 E.01676
G1 X117.644 Y120.046 E.02608
G1 X117.644 Y120.58 E.01676
G1 X118.231 Y121.168 E.02608
G1 X118.231 Y121.701 E.01673
G1 X117.644 Y121.114 E.02606
G1 X117.644 Y121.647 E.01673
G1 X118.231 Y122.235 E.02608
G1 X118.231 Y122.769 E.01676
G1 X117.644 Y122.181 E.02608
G1 X117.644 Y122.715 E.01676
G1 X118.231 Y123.303 E.02608
G1 X118.231 Y123.837 E.01676
G1 X117.644 Y123.249 E.02608
G1 X117.644 Y123.783 E.01676
G1 X118.231 Y124.37 E.02606
G1 X118.231 Y124.904 E.01676
G1 X117.644 Y124.316 E.02608
G1 X117.644 Y124.85 E.01676
G1 X118.231 Y125.438 E.02608
G1 X118.231 Y125.972 E.01676
G1 X117.644 Y125.384 E.02608
G1 X117.644 Y125.918 E.01676
G1 X118.231 Y126.506 E.02608
G1 X118.231 Y127.04 E.01676
G1 X117.644 Y126.452 E.02608
G1 X117.644 Y126.986 E.01676
G1 X118.231 Y127.573 E.02606
G1 X118.231 Y128.107 E.01676
G1 X117.644 Y127.519 E.02608
G1 X117.644 Y128.053 E.01676
G1 X118.231 Y128.641 E.02608
G1 X118.231 Y129.175 E.01676
G1 X117.644 Y128.587 E.02608
G1 X117.644 Y129.121 E.01676
G1 X118.231 Y129.709 E.02608
G1 X118.231 Y130.243 E.01676
G1 X117.644 Y129.655 E.02608
G1 X117.644 Y130.189 E.01676
G1 X118.231 Y130.776 E.02606
G1 X118.231 Y131.31 E.01676
G1 X117.644 Y130.722 E.02608
G1 X117.644 Y131.256 E.01676
G1 X118.231 Y131.844 E.02608
G1 X118.231 Y132.378 E.01676
G1 X117.644 Y131.79 E.02608
G1 X117.644 Y132.324 E.01676
G1 X118.231 Y132.912 E.02608
G1 X118.231 Y133.446 E.01676
G1 X117.644 Y132.858 E.02608
G1 X117.644 Y133.392 E.01676
G1 X118.231 Y133.979 E.02606
G1 X118.231 Y134.513 E.01676
G1 X117.644 Y133.925 E.02608
G1 X117.644 Y134.459 E.01676
G1 X118.231 Y135.047 E.02608
G1 X118.231 Y135.581 E.01676
G1 X117.644 Y134.993 E.02608
G1 X117.644 Y135.527 E.01676
G1 X118.231 Y136.115 E.02608
G1 X118.231 Y136.649 E.01676
G1 X117.644 Y136.061 E.02608
G1 X117.644 Y136.595 E.01676
G1 X118.231 Y137.182 E.02606
G1 X118.231 Y137.716 E.01676
G1 X117.644 Y137.128 E.02608
G1 X117.644 Y137.662 E.01676
G1 X118.231 Y138.25 E.02608
G1 X118.231 Y138.784 E.01676
G1 X117.644 Y138.196 E.02608
G1 X117.644 Y138.73 E.01676
G1 X118.231 Y139.318 E.02608
G1 X118.231 Y139.851 E.01673
G1 X117.644 Y139.264 E.02606
G1 X117.644 Y139.797 E.01673
G1 X118.403 Y140.557 E.03371
G1 X117.474 Y140.162 F9000
G1 F2400
G1 X119.669 Y142.356 E.09741
G1 X119.135 Y142.356 E.01676
G1 X117.644 Y140.865 E.06618
G1 X117.644 Y141.399 E.01676
G1 X118.601 Y142.356 E.04248
G1 X118.067 Y142.356 E.01676
G1 X117.474 Y141.763 E.02632
M106 S255
;LAYER_CHANGE
;Z:0.4
;HEIGHT:0.2
;BEFORE_LAYER_CHANGE
G92 E0
;0.4


G1 E-3.5 F3600
;WIPE_START
G1 F7200
G1 X118.067 Y142.356 E-.39835
G1 X118.601 Y142.356 E-.25365
G1 X117.644 Y141.399 E-.64287
G1 X117.644 Y140.967 E-.20513
;WIPE_END
G1 Z.4 F9000
;AFTER_LAYER_CHANGE
;0.4
M104 S205 ; set temperature
; stop printing object TestSujetaPerfil_v07.stl id:0 copy 0
G1 X112.904 Y141.763
G1 E5 F2400
;TYPE:Skirt/Brim
;WIDTH:0.42
G1 F3804
G1 X112.904 Y116.093 E.80486
G1 X113.298 Y114.558 E.04969
G1 X114.382 Y113.402 E.04969
G1 X116.093 Y112.904 E.05587
G1 X143.907 Y112.904 E.87209
G1 X145.442 Y113.298 E.04969
G1 X146.598 Y114.382 E.04969
G1 X147.096 Y116.093 E.05587
G1 X147.096 Y143.907 E.87209
