; generated by PrusaSlicer 2.9.3 on 2025-10-19 at 20:20:50 UTC

; 

; external perimeters extrusion width = 0.42mm
; perimeters extrusion width = 0.44mm
; infill extrusion width = 0.44mm
; solid infill extrusion width = 0.44mm
; top infill extrusion width = 0.40mm
; first layer extrusion width = 0.42mm

M201 X500 Y500 Z100 E5000 ; sets maximum accelerations, mm/sec^2
M203 X500 Y500 Z10 E60 ; sets maximum feedrates, mm / sec
M204 S500 T1000 ; sets acceleration (S) and retract acceleration (R), mm/sec^2
M205 X8.00 Y8.00 Z0.40 E5.00 ; sets the jerk limits, mm/sec
M205 S0 T0 ; sets the minimum extruding and travel feed rate, mm/sec

; printing object TestSujetaPerfil_v04.stl id:0 copy 0
; stop printing object TestSujetaPerfil_v04.stl id:0 copy 0

;TYPE:Custom
G90 ; use absolute coordinates
M83 ; extruder relative mode
M104 S150 ; set temporary nozzle temp to prevent oozing during homing
M140 S60 ; set final bed temp
G4 S30 ; allow partial nozzle warmup
G28 ; home all axis
G1 Z50 F240
G1 X2.0 Y10 F3000
M104 S210 ; set final nozzle temp
M190 S60 ; wait for bed temp to stabilize
M109 S210 ; wait for nozzle temp to stabilize
G1 Z0.28 F240
G92 E0
G1 X2.0 Y140 E10 F1500 ; prime the nozzle
G1 X2.3 Y140 F5000
G92 E0
G1 X2.3 Y10 E10 F1200 ; prime the nozzle
G92 E0
G21 ; set units to millimeters
G90 ; use absolute coordinates
M83 ; use relative distances for extrusion
; Filament gcode
M107
;LAYER_CHANGE
;Z:0.2
;HEIGHT:0.2
G1 E-5 F3600
G1 Z.2 F9000
G1 X114.382 Y113.402
G1 E5 F2400
M204 S500
;TYPE:Skirt/Brim
;WIDTH:0.42
G1 X116.093 Y112.904 E.05587
G1 X143.907 Y112.904 E.87209
G1 X145.442 Y113.298 E.04969
G1 X146.598 Y114.382 E.04969
G1 X147.096 Y116.093 E.05587
G1 X147.096 Y143.907 E.87209
G1 X146.702 Y145.442 E.04969
G1 X145.618 Y146.598 E.04969
G1 X143.907 Y147.096 E.05587
G1 X116.093 Y147.096 E.87209
G1 X114.558 Y146.702 E.04969
G1 X113.402 Y145.618 E.04969
G1 X112.904 Y143.907 E.05587
G1 X112.904 Y116.093 E.87209
G1 X113.298 Y114.558 E.04969
G1 X114.341 Y113.446 E.0478
G1 E-3.5 F3600
;WIPE_START
G1 F7200
G1 X114.382 Y113.402 E-.02857
G1 X116.093 Y112.904 E-.84645
G1 X117.409 Y112.904 E-.62498
;WIPE_END
; printing object TestSujetaPerfil_v04.stl id:0 copy 0
G1 X118.668 Y118.681 F9000
G1 E5 F2400
;TYPE:Perimeter
;WIDTH:0.419999
G1 X118.673 Y118.673 E.0003
G1 X118.965 Y118.474 E.01108
G1 X119.339 Y118.397 E.01197
G1 X140.661 Y118.397 E.66854
G1 X141.035 Y118.474 E.01197
G1 X141.327 Y118.673 E.01108
G1 X141.526 Y118.965 E.01108
G1 X141.603 Y119.339 E.01197
G1 X141.603 Y140.661 E.66854
G1 X141.526 Y141.035 E.01197
G1 X141.327 Y141.327 E.01108
G1 X141.035 Y141.526 E.01108
G1 X140.661 Y141.603 E.01197
G1 X119.339 Y141.603 E.66854
G1 X118.965 Y141.526 E.01197
G1 X118.673 Y141.327 E.01108
G1 X118.474 Y141.035 E.01108
G1 X118.397 Y140.661 E.01197
G1 X118.397 Y119.339 E.66854
G1 X118.474 Y118.965 E.01197
G1 X118.634 Y118.73 E.00891
G1 X118.953 Y118.933 F9000
G1 F2400
G1 X119.242 Y118.782 E.01022
G1 X119.339 Y118.774 E.00305
G1 X140.661 Y118.774 E.66854
G1 X140.885 Y118.82 E.00717
G1 X141.06 Y118.94 E.00665
G1 X141.18 Y119.115 E.00665
G1 X141.226 Y119.339 E.00717
G1 X141.226 Y140.661 E.66854
G1 X141.18 Y140.885 E.00717
G1 X141.06 Y141.06 E.00665
G1 X140.758 Y141.218 E.01069
G1 X140.661 Y141.226 E.00305
G1 X119.339 Y141.226 E.66854
G1 X119.115 Y141.18 E.00717
G1 X118.94 Y141.06 E.00665
G1 X118.782 Y140.758 E.01069
G1 X118.774 Y140.661 E.00305
G1 X118.774 Y119.339 E.66854
G1 X118.82 Y119.115 E.00717
G1 X118.914 Y118.977 E.00524
G1 X119.224 Y119.199 F9000
;TYPE:External perimeter
G1 F2400
G1 X119.339 Y119.151 E.00391
G1 X140.661 Y119.151 E.66854
G1 X140.794 Y119.206 E.00451
G1 X140.849 Y119.339 E.00451
G1 X140.849 Y140.661 E.66854
G1 X140.794 Y140.794 E.00451
G1 X140.661 Y140.849 E.00451
G1 X119.339 Y140.849 E.66854
G1 X119.206 Y140.794 E.00451
G1 X119.151 Y140.661 E.00451
G1 X119.151 Y119.339 E.66854
G1 X119.191 Y119.244 E.00323
G1 E-3.5 F3600
;WIPE_START
G1 F7200
G1 X119.224 Y119.199 E-.02651
G1 X119.339 Y119.151 E-.05919
G1 X122.316 Y119.151 E-1.4143
;WIPE_END
G1 X117.353 Y117.353 F9000
G1 E5 F2400
;TYPE:Perimeter
G1 X142.647 Y117.353 E.79307
G1 X142.647 Y118.126 E.02424
G1 X142.647 Y142.647 E.76884
G1 X117.353 Y142.647 E.79307
G1 X117.353 Y117.413 E.79119
G1 X116.976 Y116.976 F9000
G1 F2400
G1 X143.024 Y116.976 E.81672
G1 X143.024 Y118.126 E.03606
G1 X143.024 Y143.024 E.78066
G1 X116.976 Y143.024 E.81672
G1 X116.976 Y117.036 E.81483
G1 X116.599 Y116.599 F9000
;TYPE:External perimeter
G1 F2400
G1 X143.401 Y116.599 E.84036
G1 X143.401 Y118.126 E.04788
G1 X143.401 Y143.401 E.79248
G1 X116.599 Y143.401 E.84036
G1 X116.599 Y116.659 E.83848
G1 E-3.5 F3600
;WIPE_START
G1 F7200
G1 X116.599 Y116.599 E-.0285
G1 X119.697 Y116.599 E-1.4715
;WIPE_END
G1 X142.526 Y118.237 F9000
G1 E5 F2400
;TYPE:Solid infill
;WIDTH:0.420393
G1 X141.933 Y117.644 E.02632
G1 X141.399 Y117.644 E.01676
G1 X142.356 Y118.601 E.04248
G1 X142.356 Y119.135 E.01676
G1 X140.865 Y117.644 E.06618
G1 X140.331 Y117.644 E.01676
G1 X140.826 Y118.139 E.02197
G1 X141.15 Y118.206 E.01038
G1 X141.534 Y118.466 E.01456
G1 X141.794 Y118.85 E.01456
G1 X141.861 Y119.174 E.01038
G1 X142.526 Y119.838 E.0295
G1 X141.724 Y119.57 F9000
G1 F2400
G1 X142.356 Y120.203 E.02808
G1 X142.356 Y120.736 E.01673
G1 X141.894 Y120.274 E.02051
G1 X141.894 Y120.807 E.01673
G1 X142.356 Y121.27 E.02053
G1 X142.356 Y121.804 E.01676
G1 X141.894 Y121.341 E.02053
G1 X141.894 Y121.875 E.01676
G1 X142.356 Y122.338 E.02053
G1 X142.356 Y122.872 E.01676
G1 X141.894 Y122.409 E.02053
G1 X141.894 Y122.943 E.01676
G1 X142.356 Y123.406 E.02053
G1 X142.356 Y123.939 E.01673
G1 X141.894 Y123.477 E.02051
G1 X141.894 Y124.01 E.01673
G1 X142.356 Y124.473 E.02053
G1 X142.356 Y125.007 E.01676
G1 X141.894 Y124.544 E.02053
G1 X141.894 Y125.078 E.01676
G1 X142.356 Y125.541 E.02053
G1 X142.356 Y126.075 E.01676
G1 X141.894 Y125.612 E.02053
G1 X141.894 Y126.146 E.01676
G1 X142.356 Y126.609 E.02053
G1 X142.356 Y127.142 E.01673
G1 X141.894 Y126.68 E.02051
G1 X141.894 Y127.213 E.01673
G1 X142.356 Y127.676 E.02053
G1 X142.356 Y128.21 E.01676
G1 X141.894 Y127.747 E.02053
G1 X141.894 Y128.281 E.01676
G1 X142.356 Y128.744 E.02053
G1 X142.356 Y129.278 E.01676
G1 X141.894 Y128.815 E.02053
G1 X141.894 Y129.349 E.01676
G1 X142.356 Y129.812 E.02053
G1 X142.356 Y130.345 E.01673
G1 X141.894 Y129.883 E.02051
G1 X141.894 Y130.416 E.01673
G1 X142.356 Y130.879 E.02053
G1 X142.356 Y131.413 E.01676
G1 X141.894 Y130.95 E.02053
G1 X141.894 Y131.484 E.01676
G1 X142.356 Y131.947 E.02053
G1 X142.356 Y132.481 E.01676
G1 X141.894 Y132.018 E.02053
G1 X141.894 Y132.552 E.01676
G1 X142.356 Y133.014 E.02051
G1 X142.356 Y133.548 E.01676
G1 X141.894 Y133.085 E.02053
G1 X141.894 Y133.619 E.01676
G1 X142.356 Y134.082 E.02053
G1 X142.356 Y134.616 E.01676
G1 X141.894 Y134.153 E.02053
G1 X141.894 Y134.687 E.01676
G1 X142.356 Y135.15 E.02053
G1 X142.356 Y135.684 E.01676
G1 X141.894 Y135.221 E.02053
G1 X141.894 Y135.755 E.01676
G1 X142.356 Y136.217 E.02051
G1 X142.356 Y136.751 E.01676
G1 X141.894 Y136.288 E.02053
G1 X141.894 Y136.822 E.01676
G1 X142.356 Y137.285 E.02053
G1 X142.356 Y137.819 E.01676
G1 X141.894 Y137.356 E.02053
G1 X141.894 Y137.89 E.01676
G1 X142.356 Y138.353 E.02053
G1 X142.356 Y138.887 E.01676
G1 X141.894 Y138.424 E.02053
G1 X141.894 Y138.958 E.01676
G1 X142.356 Y139.42 E.02051
G1 X142.356 Y139.954 E.01676
G1 X141.894 Y139.491 E.02053
G1 X141.894 Y140.025 E.01676
G1 X142.356 Y140.488 E.02053
G1 X142.356 Y141.022 E.01676
G1 X141.894 Y140.559 E.02053
G1 X141.875 Y140.875 E.00994
G1 X141.829 Y141.029 E.00504
G1 X142.356 Y141.556 E.02339
G1 X142.356 Y142.09 E.01676
G1 X141.642 Y141.375 E.03172
G1 X141.534 Y141.534 E.00603
G1 X141.375 Y141.642 E.00603
G1 X142.089 Y142.356 E.03169
G1 X141.556 Y142.356 E.01673
G1 X141.029 Y141.829 E.02339
G1 X140.875 Y141.875 E.00504
G1 X140.559 Y141.894 E.00994
G1 X141.022 Y142.356 E.02053
G1 X140.488 Y142.356 E.01676
G1 X140.025 Y141.894 E.02053
G1 X139.491 Y141.894 E.01676
G1 X139.954 Y142.356 E.02053
G1 X139.42 Y142.356 E.01676
G1 X138.957 Y141.894 E.02053
G1 X138.424 Y141.894 E.01673
G1 X138.886 Y142.356 E.02051
G1 X138.353 Y142.356 E.01673
G1 X137.89 Y141.894 E.02053
G1 X137.356 Y141.894 E.01676
G1 X137.819 Y142.356 E.02053
G1 X137.285 Y142.356 E.01676
G1 X136.822 Y141.894 E.02053
G1 X136.288 Y141.894 E.01676
G1 X136.751 Y142.356 E.02053
G1 X136.217 Y142.356 E.01676
G1 X135.755 Y141.894 E.02051
G1 X135.221 Y141.894 E.01676
G1 X135.684 Y142.356 E.02053
G1 X135.15 Y142.356 E.01676
G1 X134.687 Y141.894 E.02053
G1 X134.153 Y141.894 E.01676
G1 X134.616 Y142.356 E.02053
G1 X134.082 Y142.356 E.01676
G1 X133.619 Y141.894 E.02053
G1 X133.085 Y141.894 E.01676
G1 X133.548 Y142.356 E.02053
G1 X133.014 Y142.356 E.01676
G1 X132.552 Y141.894 E.02051
G1 X132.018 Y141.894 E.01676
G1 X132.481 Y142.356 E.02053
G1 X131.947 Y142.356 E.01676
G1 X131.484 Y141.894 E.02053
G1 X130.95 Y141.894 E.01676
G1 X131.413 Y142.356 E.02053
G1 X130.879 Y142.356 E.01676
G1 X130.416 Y141.894 E.02053
G1 X129.882 Y141.894 E.01676
G1 X130.345 Y142.356 E.02053
G1 X129.811 Y142.356 E.01676
G1 X129.349 Y141.894 E.02051
G1 X128.815 Y141.894 E.01676
G1 X129.278 Y142.356 E.02053
G1 X128.744 Y142.356 E.01676
G1 X128.281 Y141.894 E.02053
G1 X127.747 Y141.894 E.01676
G1 X128.21 Y142.356 E.02053
G1 X127.676 Y142.356 E.01676
G1 X127.213 Y141.894 E.02053
G1 X126.679 Y141.894 E.01676
G1 X127.142 Y142.356 E.02053
G1 X126.608 Y142.356 E.01676
G1 X126.146 Y141.894 E.02051
G1 X125.612 Y141.894 E.01676
G1 X126.075 Y142.356 E.02053
G1 X125.541 Y142.356 E.01676
G1 X125.078 Y141.894 E.02053
G1 X124.544 Y141.894 E.01676
G1 X125.007 Y142.356 E.02053
G1 X124.473 Y142.356 E.01676
G1 X124.01 Y141.894 E.02053
G1 X123.476 Y141.894 E.01676
G1 X123.939 Y142.356 E.02053
G1 X123.405 Y142.356 E.01676
G1 X122.943 Y141.894 E.02051
G1 X122.409 Y141.894 E.01676
G1 X122.872 Y142.356 E.02053
G1 X122.338 Y142.356 E.01676
G1 X121.875 Y141.894 E.02053
G1 X121.341 Y141.894 E.01676
G1 X121.804 Y142.356 E.02053
G1 X121.27 Y142.356 E.01676
G1 X120.807 Y141.894 E.02053
G1 X120.274 Y141.894 E.01673
G1 X120.736 Y142.356 E.02051
G1 X120.203 Y142.356 E.01673
G1 X119.57 Y141.724 E.02808
G1 E-3.5 F3600
;WIPE_START
G1 F7200
G1 X120.203 Y142.356 E-.42488
G1 X120.736 Y142.356 E-.25318
G1 X120.274 Y141.894 E-.31035
G1 X120.807 Y141.894 E-.25318
G1 X121.192 Y142.279 E-.25841
;WIPE_END
G1 X140.43 Y118.276 F9000
G1 E5 F2400
G1 X139.797 Y117.644 E.02808
G1 X139.264 Y117.644 E.01673
G1 X139.726 Y118.106 E.02051
G1 X139.193 Y118.106 E.01673
G1 X138.73 Y117.644 E.02053
G1 X138.196 Y117.644 E.01676
G1 X138.659 Y118.106 E.02053
G1 X138.125 Y118.106 E.01676
G1 X137.662 Y117.644 E.02053
G1 X137.128 Y117.644 E.01676
G1 X137.591 Y118.106 E.02053
G1 X137.057 Y118.106 E.01676
G1 X136.594 Y117.644 E.02053
G1 X136.061 Y117.644 E.01673
G1 X136.523 Y118.106 E.02051
G1 X135.99 Y118.106 E.01673
G1 X135.527 Y117.644 E.02053
G1 X134.993 Y117.644 E.01676
G1 X135.456 Y118.106 E.02053
G1 X134.922 Y118.106 E.01676
G1 X134.459 Y117.644 E.02053
G1 X133.925 Y117.644 E.01676
G1 X134.388 Y118.106 E.02053
G1 X133.854 Y118.106 E.01676
G1 X133.391 Y117.644 E.02053
G1 X132.858 Y117.644 E.01673
G1 X133.32 Y118.106 E.02051
G1 X132.787 Y118.106 E.01673
G1 X132.324 Y117.644 E.02053
G1 X131.79 Y117.644 E.01676
G1 X132.253 Y118.106 E.02053
G1 X131.719 Y118.106 E.01676
G1 X131.256 Y117.644 E.02053
G1 X130.722 Y117.644 E.01676
G1 X131.185 Y118.106 E.02053
G1 X130.651 Y118.106 E.01676
G1 X130.188 Y117.644 E.02053
G1 X129.655 Y117.644 E.01673
G1 X130.117 Y118.106 E.02051
G1 X129.584 Y118.106 E.01673
G1 X129.121 Y117.644 E.02053
G1 X128.587 Y117.644 E.01676
G1 X129.05 Y118.106 E.02053
G1 X128.516 Y118.106 E.01676
G1 X128.053 Y117.644 E.02053
G1 X127.519 Y117.644 E.01676
G1 X127.982 Y118.106 E.02053
G1 X127.448 Y118.106 E.01676
G1 X126.986 Y117.644 E.02051
G1 X126.452 Y117.644 E.01676
G1 X126.915 Y118.106 E.02053
G1 X126.381 Y118.106 E.01676
G1 X125.918 Y117.644 E.02053
G1 X125.384 Y117.644 E.01676
G1 X125.847 Y118.106 E.02053
G1 X125.313 Y118.106 E.01676
G1 X124.85 Y117.644 E.02053
G1 X124.316 Y117.644 E.01676
G1 X124.779 Y118.106 E.02053
G1 X124.245 Y118.106 E.01676
G1 X123.783 Y117.644 E.02051
G1 X123.249 Y117.644 E.01676
G1 X123.712 Y118.106 E.02053
G1 X123.178 Y118.106 E.01676
G1 X122.715 Y117.644 E.02053
G1 X122.181 Y117.644 E.01676
G1 X122.644 Y118.106 E.02053
G1 X122.11 Y118.106 E.01676
G1 X121.647 Y117.644 E.02053
G1 X121.113 Y117.644 E.01676
G1 X121.576 Y118.106 E.02053
G1 X121.042 Y118.106 E.01676
G1 X120.58 Y117.644 E.02051
G1 X120.046 Y117.644 E.01676
G1 X120.509 Y118.106 E.02053
G1 X119.975 Y118.106 E.01676
G1 X119.512 Y117.644 E.02053
G1 X118.978 Y117.644 E.01676
G1 X119.441 Y118.106 E.02053
G1 X119.125 Y118.125 E.00994
G1 X118.971 Y118.171 E.00504
G1 X118.444 Y117.644 E.02339
G1 X117.91 Y117.644 E.01676
G1 X118.625 Y118.358 E.03172
G1 X118.466 Y118.466 E.00603
G1 X118.358 Y118.625 E.00603
G1 X117.644 Y117.911 E.03169
G1 X117.644 Y118.444 E.01673
G1 X118.179 Y118.98 E.02377
G1 X118.106 Y119.329 E.01119
G1 X118.106 Y119.441 E.00352
G1 X117.644 Y118.978 E.02053
G1 X117.644 Y119.512 E.01676
G1 X118.106 Y119.975 E.02053
G1 X118.106 Y120.509 E.01676
G1 X117.644 Y120.046 E.02053
G1 X117.644 Y120.58 E.01676
G1 X118.106 Y121.043 E.02053
G1 X118.106 Y121.576 E.01673
G1 X117.644 Y121.114 E.02051
G1 X117.644 Y121.647 E.01673
G1 X118.106 Y122.11 E.02053
G1 X118.106 Y122.644 E.01676
G1 X117.644 Y122.181 E.02053
G1 X117.644 Y122.715 E.01676
G1 X118.106 Y123.178 E.02053
G1 X118.106 Y123.712 E.01676
G1 X117.644 Y123.249 E.02053
G1 X117.644 Y123.783 E.01676
G1 X118.106 Y124.245 E.02051
G1 X118.106 Y124.779 E.01676
G1 X117.644 Y124.316 E.02053
G1 X117.644 Y124.85 E.01676
G1 X118.106 Y125.313 E.02053
G1 X118.106 Y125.847 E.01676
G1 X117.644 Y125.384 E.02053
G1 X117.644 Y125.918 E.01676
G1 X118.106 Y126.381 E.02053
G1 X118.106 Y126.915 E.01676
G1 X117.644 Y126.452 E.02053
G1 X117.644 Y126.986 E.01676
G1 X118.106 Y127.448 E.02051
G1 X118.106 Y127.982 E.01676
G1 X117.644 Y127.519 E.02053
G1 X117.644 Y128.053 E.01676
G1 X118.106 Y128.516 E.02053
G1 X118.106 Y129.05 E.01676
G1 X117.644 Y128.587 E.02053
G1 X117.644 Y129.121 E.01676
G1 X118.106 Y129.584 E.02053
G1 X118.106 Y130.118 E.01676
G1 X117.644 Y129.655 E.02053
G1 X117.644 Y130.189 E.01676
G1 X118.106 Y130.651 E.02051
G1 X118.106 Y131.185 E.01676
G1 X117.644 Y130.722 E.02053
G1 X117.644 Y131.256 E.01676
G1 X118.106 Y131.719 E.02053
G1 X118.106 Y132.253 E.01676
G1 X117.644 Y131.79 E.02053
G1 X117.644 Y132.324 E.01676
G1 X118.106 Y132.787 E.02053
G1 X118.106 Y133.321 E.01676
G1 X117.644 Y132.858 E.02053
G1 X117.644 Y133.392 E.01676
G1 X118.106 Y133.854 E.02051
G1 X118.106 Y134.388 E.01676
G1 X117.644 Y133.925 E.02053
G1 X117.644 Y134.459 E.01676
G1 X118.106 Y134.922 E.02053
G1 X118.106 Y135.456 E.01676
G1 X117.644 Y134.993 E.02053
G1 X117.644 Y135.527 E.01676
G1 X118.106 Y135.99 E.02053
G1 X118.106 Y136.524 E.01676
G1 X117.644 Y136.061 E.02053
G1 X117.644 Y136.595 E.01676
G1 X118.106 Y137.057 E.02051
G1 X118.106 Y137.591 E.01676
G1 X117.644 Y137.128 E.02053
G1 X117.644 Y137.662 E.01676
G1 X118.106 Y138.125 E.02053
G1 X118.106 Y138.659 E.01676
G1 X117.644 Y138.196 E.02053
G1 X117.644 Y138.73 E.01676
G1 X118.106 Y139.193 E.02053
G1 X118.106 Y139.726 E.01673
G1 X117.644 Y139.264 E.02051
G1 X117.644 Y139.797 E.01673
G1 X118.276 Y140.43 E.02808
G1 X117.474 Y140.162 F9000
G1 F2400
G1 X118.119 Y140.806 E.02861
G1 X118.208 Y141.154 E.01127
G1 X118.466 Y141.534 E.01442
G1 X118.85 Y141.794 E.01456
G1 X119.174 Y141.861 E.01038
G1 X119.669 Y142.356 E.02197
G1 X119.135 Y142.356 E.01676
G1 X117.644 Y140.865 E.06618
G1 X117.644 Y141.399 E.01676
G1 X118.601 Y142.356 E.04248
G1 X118.067 Y142.356 E.01676
G1 X117.474 Y141.763 E.02632
M106 S255
;LAYER_CHANGE
;Z:0.4
;HEIGHT:0.2
;BEFORE_LAYER_CHANGE
G92 E0
;0.4


G1 E-3.5 F3600
;WIPE_START
G1 F7200
G1 X118.067 Y142.356 E-.39835
G1 X118.601 Y142.356 E-.25365
G1 X117.644 Y141.399 E-.64287
G1 X117.644 Y140.967 E-.20513
;WIPE_END
G1 Z.4 F9000
;AFTER_LAYER_CHANGE
;0.4
M104 S205 ; set temperature
; stop printing object TestSujetaPerfil_v04.stl id:0 copy 0
G1 X112.904 Y141.763
