; generated by PrusaSlicer 2.9.3 on 2025-10-19 at 19:34:18 UTC

; 

; external perimeters extrusion width = 0.42mm
; perimeters extrusion width = 0.44mm
; infill extrusion width = 0.44mm
; solid infill extrusion width = 0.44mm
; top infill extrusion width = 0.40mm
; first layer extrusion width = 0.42mm

M201 X500 Y500 Z100 E5000 ; sets maximum accelerations, mm/sec^2
M203 X500 Y500 Z10 E60 ; sets maximum feedrates, mm / sec
M204 S500 T1000 ; sets acceleration (S) and retract acceleration (R), mm/sec^2
M205 X8.00 Y8.00 Z0.40 E5.00 ; sets the jerk limits, mm/sec
M205 S0 T0 ; sets the minimum extruding and travel feed rate, mm/sec

; printing object TestSujetaPerfil_v03.stl id:0 copy 0
; stop printing object TestSujetaPerfil_v03.stl id:0 copy 0

;TYPE:Custom
G90 ; use absolute coordinates
M83 ; extruder relative mode
M104 S150 ; set temporary nozzle temp to prevent oozing during homing
M140 S60 ; set final bed temp
G4 S30 ; allow partial nozzle warmup
G28 ; home all axis
G1 Z50 F240
G1 X2.0 Y10 F3000
M104 S210 ; set final nozzle temp
M190 S60 ; wait for bed temp to stabilize
M109 S210 ; wait for nozzle temp to stabilize
G1 Z0.28 F240
G92 E0
G1 X2.0 Y140 E10 F1500 ; prime the nozzle
G1 X2.3 Y140 F5000
G92 E0
G1 X2.3 Y10 E10 F1200 ; prime the nozzle
G92 E0
G21 ; set units to millimeters
G90 ; use absolute coordinates
M83 ; use relative distances for extrusion
; Filament gcode
M107
;LAYER_CHANGE
;Z:0.2
;HEIGHT:0.2
G1 E-5 F3600
G1 Z.2 F9000
G1 X114.382 Y113.402
G1 E5 F2400
M204 S500
;TYPE:Skirt/Brim
;WIDTH:0.42
G1 X116.093 Y112.904 E.05587
G1 X143.907 Y112.904 E.87209
G1 X145.442 Y113.298 E.04969
G1 X146.598 Y114.382 E.04969
G1 X147.096 Y116.093 E.05587
G1 X147.096 Y143.907 E.87209
G1 X146.702 Y145.442 E.04969
G1 X145.618 Y146.598 E.04969
G1 X143.907 Y147.096 E.05587
G1 X116.093 Y147.096 E.87209
G1 X114.558 Y146.702 E.04969
G1 X113.402 Y145.618 E.04969
G1 X112.904 Y143.907 E.05587
G1 X112.904 Y116.093 E.87209
G1 X113.298 Y114.558 E.04969
G1 X114.341 Y113.446 E.0478
G1 E-3.5 F3600
;WIPE_START
G1 F7200
G1 X114.382 Y113.402 E-.02857
G1 X116.093 Y112.904 E-.84645
G1 X117.409 Y112.904 E-.62498
;WIPE_END
; printing object TestSujetaPerfil_v03.stl id:0 copy 0
G1 X118.41 Y118.453 F9000
G1 E5 F2400
;TYPE:Perimeter
;WIDTH:0.419999
G1 X118.423 Y118.423 E.00103
G1 X118.927 Y118.161 E.01781
G1 X119.089 Y118.147 E.0051
G1 X140.911 Y118.147 E.68421
G1 X141.577 Y118.423 E.0226
G1 X141.853 Y119.089 E.0226
G1 X141.853 Y140.911 E.68421
G1 X141.839 Y141.073 E.0051
G1 X141.577 Y141.577 E.01781
G1 X141.073 Y141.839 E.01781
G1 X140.911 Y141.853 E.0051
G1 X119.089 Y141.853 E.68421
G1 X118.423 Y141.577 E.0226
G1 X118.161 Y141.073 E.01781
G1 X118.147 Y140.911 E.0051
G1 X118.147 Y119.089 E.68421
G1 X118.387 Y118.508 E.01971
G1 X118.681 Y118.709 F9000
G1 F2400
G1 X118.69 Y118.69 E.00066
G1 X118.992 Y118.532 E.01069
G1 X119.089 Y118.524 E.00305
G1 X140.911 Y118.524 E.68421
G1 X141.31 Y118.69 E.01355
G1 X141.476 Y119.089 E.01355
G1 X141.476 Y140.911 E.68421
G1 X141.468 Y141.008 E.00305
G1 X141.31 Y141.31 E.01069
G1 X141.008 Y141.468 E.01069
G1 X140.911 Y141.476 E.00305
G1 X119.089 Y141.476 E.68421
G1 X118.69 Y141.31 E.01355
G1 X118.532 Y141.008 E.01069
G1 X118.524 Y140.911 E.00305
G1 X118.524 Y119.089 E.68421
G1 X118.658 Y118.765 E.01099
G1 X118.949 Y118.974 F9000
;TYPE:External perimeter
G1 F2400
G1 X118.956 Y118.956 E.00061
G1 X119.089 Y118.901 E.00451
G1 X140.911 Y118.901 E.68421
G1 X141.044 Y118.956 E.00451
G1 X141.099 Y119.089 E.00451
G1 X141.099 Y140.911 E.68421
G1 X141.044 Y141.044 E.00451
G1 X140.911 Y141.099 E.00451
G1 X119.089 Y141.099 E.68421
G1 X118.956 Y141.044 E.00451
G1 X118.901 Y140.911 E.00451
G1 X118.901 Y119.089 E.68421
G1 X118.926 Y119.029 E.00204
G1 E-3.5 F3600
;WIPE_START
G1 F7200
G1 X118.949 Y118.974 E-.02832
G1 X118.956 Y118.956 E-.00917
G1 X119.089 Y118.901 E-.06836
G1 X122.024 Y118.901 E-1.39415
;WIPE_END
G1 X117.353 Y117.353 F9000
G1 E5 F2400
;TYPE:Perimeter
G1 X142.647 Y117.353 E.79307
G1 X142.647 Y117.98 E.01966
G1 X142.647 Y142.647 E.77342
G1 X117.353 Y142.647 E.79307
G1 X117.353 Y117.413 E.79119
G1 X116.976 Y116.976 F9000
G1 F2400
G1 X143.024 Y116.976 E.81672
G1 X143.024 Y117.98 E.03148
G1 X143.024 Y143.024 E.78524
G1 X116.976 Y143.024 E.81672
G1 X116.976 Y117.036 E.81483
G1 X116.599 Y116.599 F9000
;TYPE:External perimeter
G1 F2400
G1 X143.401 Y116.599 E.84036
G1 X143.401 Y117.98 E.0433
G1 X143.401 Y143.401 E.79706
G1 X116.599 Y143.401 E.84036
G1 X116.599 Y116.659 E.83848
G1 E-3.5 F3600
;WIPE_START
G1 F7200
G1 X116.599 Y116.599 E-.0285
G1 X119.697 Y116.599 E-1.4715
;WIPE_END
G1 X142.526 Y118.237 F9000
G1 E5 F2400
;TYPE:Solid infill
;WIDTH:0.420393
G1 X141.933 Y117.644 E.02632
G1 X141.399 Y117.644 E.01676
G1 X142.356 Y118.601 E.04248
G1 X142.356 Y119.135 E.01676
G1 X142.04 Y118.818 E.01405
G1 X141.788 Y118.212 E.0206
G1 X141.182 Y117.96 E.0206
G1 X140.695 Y117.474 E.02159
G1 X140.714 Y118.026 F9000
G1 F2400
G1 X140.331 Y117.644 E.01698
G1 X139.797 Y117.644 E.01676
G1 X140.01 Y117.856 E.00943
G1 X139.476 Y117.856 E.01676
G1 X139.264 Y117.644 E.00941
G1 X138.73 Y117.644 E.01676
G1 X138.943 Y117.856 E.00943
G1 X138.409 Y117.856 E.01676
G1 X138.196 Y117.644 E.00943
G1 X137.662 Y117.644 E.01676
G1 X137.875 Y117.856 E.00943
G1 X137.341 Y117.856 E.01676
G1 X137.128 Y117.644 E.00943
G1 X136.594 Y117.644 E.01676
G1 X136.807 Y117.856 E.00943
G1 X136.273 Y117.856 E.01676
G1 X136.061 Y117.644 E.00941
G1 X135.527 Y117.644 E.01676
G1 X135.74 Y117.856 E.00943
G1 X135.206 Y117.856 E.01676
G1 X134.993 Y117.644 E.00943
G1 X134.459 Y117.644 E.01676
G1 X134.672 Y117.856 E.00943
G1 X134.138 Y117.856 E.01676
G1 X133.925 Y117.644 E.00943
G1 X133.391 Y117.644 E.01676
G1 X133.604 Y117.856 E.00943
G1 X133.07 Y117.856 E.01676
G1 X132.858 Y117.644 E.00941
G1 X132.324 Y117.644 E.01676
G1 X132.537 Y117.856 E.00943
G1 X132.003 Y117.856 E.01676
G1 X131.79 Y117.644 E.00943
G1 X131.256 Y117.644 E.01676
G1 X131.469 Y117.856 E.00943
G1 X130.935 Y117.856 E.01676
G1 X130.722 Y117.644 E.00943
G1 X130.188 Y117.644 E.01676
G1 X130.401 Y117.856 E.00943
G1 X129.867 Y117.856 E.01676
G1 X129.655 Y117.644 E.00941
G1 X129.121 Y117.644 E.01676
G1 X129.334 Y117.856 E.00943
G1 X128.8 Y117.856 E.01676
G1 X128.587 Y117.644 E.00943
G1 X128.053 Y117.644 E.01676
G1 X128.266 Y117.856 E.00943
G1 X127.732 Y117.856 E.01676
G1 X127.519 Y117.644 E.00943
G1 X126.986 Y117.644 E.01673
G1 X127.198 Y117.856 E.00941
G1 X126.665 Y117.856 E.01673
G1 X126.452 Y117.644 E.00943
G1 X125.918 Y117.644 E.01676
G1 X126.131 Y117.856 E.00943
G1 X125.597 Y117.856 E.01676
G1 X125.384 Y117.644 E.00943
G1 X124.85 Y117.644 E.01676
G1 X125.063 Y117.856 E.00943
G1 X124.529 Y117.856 E.01676
G1 X124.316 Y117.644 E.00943
G1 X123.783 Y117.644 E.01673
G1 X123.995 Y117.856 E.00941
G1 X123.462 Y117.856 E.01673
G1 X123.249 Y117.644 E.00943
G1 X122.715 Y117.644 E.01676
G1 X122.928 Y117.856 E.00943
G1 X122.394 Y117.856 E.01676
G1 X122.181 Y117.644 E.00943
G1 X121.647 Y117.644 E.01676
G1 X121.86 Y117.856 E.00943
G1 X121.326 Y117.856 E.01676
G1 X121.113 Y117.644 E.00943
G1 X120.58 Y117.644 E.01673
G1 X120.792 Y117.856 E.00941
G1 X120.259 Y117.856 E.01673
G1 X120.046 Y117.644 E.00943
G1 X119.512 Y117.644 E.01676
G1 X119.725 Y117.856 E.00943
G1 X119.191 Y117.856 E.01676
G1 X118.978 Y117.644 E.00943
G1 X118.444 Y117.644 E.01676
G1 X118.741 Y117.94 E.01316
G1 X118.39 Y118.123 E.01242
G1 X117.91 Y117.644 E.02128
G1 X117.644 Y117.644 E.00835
G1 X117.644 Y117.911 E.00838
G1 X118.133 Y118.4 E.02171
G1 X117.977 Y118.778 E.01283
G1 X117.644 Y118.444 E.0148
G1 X117.644 Y118.978 E.01676
G1 X117.856 Y119.191 E.00943
G1 X117.856 Y119.725 E.01676
G1 X117.644 Y119.512 E.00943
G1 X117.644 Y120.046 E.01676
G1 X117.856 Y120.259 E.00943
G1 X117.856 Y120.793 E.01676
G1 X117.644 Y120.58 E.00943
G1 X117.644 Y121.114 E.01676
G1 X117.856 Y121.326 E.00941
G1 X117.856 Y121.86 E.01676
G1 X117.644 Y121.647 E.00943
G1 X117.644 Y122.181 E.01676
G1 X117.856 Y122.394 E.00943
G1 X117.856 Y122.928 E.01676
G1 X117.644 Y122.715 E.00943
G1 X117.644 Y123.249 E.01676
G1 X117.856 Y123.462 E.00943
G1 X117.856 Y123.995 E.01673
G1 X117.644 Y123.783 E.00941
G1 X117.644 Y124.316 E.01673
G1 X117.856 Y124.529 E.00943
G1 X117.856 Y125.063 E.01676
G1 X117.644 Y124.85 E.00943
G1 X117.644 Y125.384 E.01676
G1 X117.856 Y125.597 E.00943
G1 X117.856 Y126.131 E.01676
G1 X117.644 Y125.918 E.00943
G1 X117.644 Y126.452 E.01676
G1 X117.856 Y126.665 E.00943
G1 X117.856 Y127.198 E.01673
G1 X117.644 Y126.986 E.00941
G1 X117.644 Y127.519 E.01673
G1 X117.856 Y127.732 E.00943
G1 X117.856 Y128.266 E.01676
G1 X117.644 Y128.053 E.00943
G1 X117.644 Y128.587 E.01676
G1 X117.856 Y128.8 E.00943
G1 X117.856 Y129.334 E.01676
G1 X117.644 Y129.121 E.00943
G1 X117.644 Y129.655 E.01676
G1 X117.856 Y129.868 E.00943
G1 X117.856 Y130.401 E.01673
G1 X117.644 Y130.189 E.00941
G1 X117.644 Y130.722 E.01673
G1 X117.856 Y130.935 E.00943
G1 X117.856 Y131.469 E.01676
G1 X117.644 Y131.256 E.00943
G1 X117.644 Y131.79 E.01676
G1 X117.856 Y132.003 E.00943
G1 X117.856 Y132.537 E.01676
G1 X117.644 Y132.324 E.00943
G1 X117.644 Y132.858 E.01676
G1 X117.856 Y133.071 E.00943
G1 X117.856 Y133.604 E.01673
G1 X117.644 Y133.392 E.00941
G1 X117.644 Y133.925 E.01673
G1 X117.856 Y134.138 E.00943
G1 X117.856 Y134.672 E.01676
G1 X117.644 Y134.459 E.00943
G1 X117.644 Y134.993 E.01676
G1 X117.856 Y135.206 E.00943
G1 X117.856 Y135.74 E.01676
G1 X117.644 Y135.527 E.00943
G1 X117.644 Y136.061 E.01676
G1 X117.856 Y136.274 E.00943
G1 X117.856 Y136.807 E.01673
G1 X117.644 Y136.595 E.00941
G1 X117.644 Y137.128 E.01673
G1 X117.856 Y137.341 E.00943
G1 X117.856 Y137.875 E.01676
G1 X117.644 Y137.662 E.00943
G1 X117.644 Y138.196 E.01676
G1 X117.856 Y138.409 E.00943
G1 X117.856 Y138.943 E.01676
G1 X117.644 Y138.73 E.00943
G1 X117.644 Y139.264 E.01676
G1 X117.856 Y139.476 E.00941
G1 X117.856 Y140.01 E.01676
G1 X117.644 Y139.797 E.00943
G1 X117.644 Y140.331 E.01676
G1 X118.026 Y140.714 E.01698
G1 E-3.5 F3600
;WIPE_START
G1 F7200
G1 X117.644 Y140.331 E-.25695
G1 X117.644 Y139.797 E-.25365
G1 X117.856 Y140.01 E-.14275
G1 X117.856 Y139.476 E-.25365
G1 X117.644 Y139.264 E-.14241
G1 X117.644 Y138.73 E-.25365
G1 X117.856 Y138.943 E-.14275
G1 X117.856 Y138.829 E-.05419
;WIPE_END
G1 X141.974 Y119.286 F9000
G1 E5 F2400
G1 X142.356 Y119.669 E.01698
G1 X142.356 Y120.203 E.01676
G1 X142.144 Y119.99 E.00943
G1 X142.144 Y120.524 E.01676
G1 X142.356 Y120.736 E.00941
G1 X142.356 Y121.27 E.01676
G1 X142.144 Y121.057 E.00943
G1 X142.144 Y121.591 E.01676
G1 X142.356 Y121.804 E.00943
G1 X142.356 Y122.338 E.01676
G1 X142.144 Y122.125 E.00943
G1 X142.144 Y122.659 E.01676
G1 X142.356 Y122.872 E.00943
G1 X142.356 Y123.406 E.01676
G1 X142.144 Y123.193 E.00943
G1 X142.144 Y123.727 E.01676
G1 X142.356 Y123.939 E.00941
G1 X142.356 Y124.473 E.01676
G1 X142.144 Y124.26 E.00943
G1 X142.144 Y124.794 E.01676
G1 X142.356 Y125.007 E.00943
G1 X142.356 Y125.541 E.01676
G1 X142.144 Y125.328 E.00943
G1 X142.144 Y125.862 E.01676
G1 X142.356 Y126.075 E.00943
G1 X142.356 Y126.609 E.01676
G1 X142.144 Y126.396 E.00943
G1 X142.144 Y126.93 E.01676
G1 X142.356 Y127.142 E.00941
G1 X142.356 Y127.676 E.01676
G1 X142.144 Y127.463 E.00943
G1 X142.144 Y127.997 E.01676
G1 X142.356 Y128.21 E.00943
G1 X142.356 Y128.744 E.01676
G1 X142.144 Y128.531 E.00943
G1 X142.144 Y129.065 E.01676
G1 X142.356 Y129.278 E.00943
G1 X142.356 Y129.812 E.01676
G1 X142.144 Y129.599 E.00943
G1 X142.144 Y130.133 E.01676
G1 X142.356 Y130.345 E.00941
G1 X142.356 Y130.879 E.01676
G1 X142.144 Y130.666 E.00943
G1 X142.144 Y131.2 E.01676
G1 X142.356 Y131.413 E.00943
G1 X142.356 Y131.947 E.01676
G1 X142.144 Y131.734 E.00943
G1 X142.144 Y132.268 E.01676
G1 X142.356 Y132.481 E.00943
G1 X142.356 Y133.014 E.01673
G1 X142.144 Y132.802 E.00941
G1 X142.144 Y133.335 E.01673
G1 X142.356 Y133.548 E.00943
G1 X142.356 Y134.082 E.01676
G1 X142.144 Y133.869 E.00943
G1 X142.144 Y134.403 E.01676
G1 X142.356 Y134.616 E.00943
G1 X142.356 Y135.15 E.01676
G1 X142.144 Y134.937 E.00943
G1 X142.144 Y135.471 E.01676
G1 X142.356 Y135.684 E.00943
G1 X142.356 Y136.217 E.01673
G1 X142.144 Y136.005 E.00941
G1 X142.144 Y136.538 E.01673
G1 X142.356 Y136.751 E.00943
G1 X142.356 Y137.285 E.01676
G1 X142.144 Y137.072 E.00943
G1 X142.144 Y137.606 E.01676
G1 X142.356 Y137.819 E.00943
G1 X142.356 Y138.353 E.01676
G1 X142.144 Y138.14 E.00943
G1 X142.144 Y138.674 E.01676
G1 X142.356 Y138.887 E.00943
G1 X142.356 Y139.42 E.01673
G1 X142.144 Y139.208 E.00941
G1 X142.144 Y139.741 E.01673
G1 X142.356 Y139.954 E.00943
G1 X142.356 Y140.488 E.01676
G1 X142.144 Y140.275 E.00943
G1 X142.144 Y140.809 E.01676
G1 X142.356 Y141.022 E.00943
G1 X142.356 Y141.556 E.01676
G1 X142.06 Y141.259 E.01316
G1 X141.877 Y141.61 E.01242
G1 X142.356 Y142.09 E.02128
G1 X142.356 Y142.356 E.00835
G1 X142.089 Y142.356 E.00838
G1 X141.61 Y141.877 E.02126
G1 X141.259 Y142.06 E.01242
G1 X141.556 Y142.356 E.01316
G1 X141.022 Y142.356 E.01676
G1 X140.809 Y142.144 E.00943
G1 X140.275 Y142.144 E.01676
G1 X140.488 Y142.356 E.00943
G1 X139.954 Y142.356 E.01676
G1 X139.741 Y142.144 E.00943
G1 X139.207 Y142.144 E.01676
G1 X139.42 Y142.356 E.00943
G1 X138.886 Y142.356 E.01676
G1 X138.674 Y142.144 E.00941
G1 X138.14 Y142.144 E.01676
G1 X138.353 Y142.356 E.00943
G1 X137.819 Y142.356 E.01676
G1 X137.606 Y142.144 E.00943
G1 X137.072 Y142.144 E.01676
G1 X137.285 Y142.356 E.00943
G1 X136.751 Y142.356 E.01676
G1 X136.538 Y142.144 E.00943
G1 X136.005 Y142.144 E.01673
G1 X136.217 Y142.356 E.00941
G1 X135.684 Y142.356 E.01673
G1 X135.471 Y142.144 E.00943
G1 X134.937 Y142.144 E.01676
G1 X135.15 Y142.356 E.00943
G1 X134.616 Y142.356 E.01676
G1 X134.403 Y142.144 E.00943
G1 X133.869 Y142.144 E.01676
G1 X134.082 Y142.356 E.00943
G1 X133.548 Y142.356 E.01676
G1 X133.335 Y142.144 E.00943
G1 X132.802 Y142.144 E.01673
G1 X133.014 Y142.356 E.00941
G1 X132.481 Y142.356 E.01673
G1 X132.268 Y142.144 E.00943
G1 X131.734 Y142.144 E.01676
G1 X131.947 Y142.356 E.00943
G1 X131.413 Y142.356 E.01676
G1 X131.2 Y142.144 E.00943
G1 X130.666 Y142.144 E.01676
G1 X130.879 Y142.356 E.00943
G1 X130.345 Y142.356 E.01676
G1 X130.132 Y142.144 E.00943
G1 X129.599 Y142.144 E.01673
G1 X129.811 Y142.356 E.00941
G1 X129.278 Y142.356 E.01673
G1 X129.065 Y142.144 E.00943
G1 X128.531 Y142.144 E.01676
G1 X128.744 Y142.356 E.00943
G1 X128.21 Y142.356 E.01676
G1 X127.997 Y142.144 E.00943
G1 X127.463 Y142.144 E.01676
G1 X127.676 Y142.356 E.00943
G1 X127.142 Y142.356 E.01676
G1 X126.929 Y142.144 E.00943
G1 X126.396 Y142.144 E.01673
G1 X126.608 Y142.356 E.00941
G1 X126.075 Y142.356 E.01673
G1 X125.862 Y142.144 E.00943
G1 X125.328 Y142.144 E.01676
G1 X125.541 Y142.356 E.00943
G1 X125.007 Y142.356 E.01676
G1 X124.794 Y142.144 E.00943
G1 X124.26 Y142.144 E.01676
G1 X124.473 Y142.356 E.00943
G1 X123.939 Y142.356 E.01676
G1 X123.726 Y142.144 E.00943
G1 X123.193 Y142.144 E.01673
G1 X123.405 Y142.356 E.00941
G1 X122.872 Y142.356 E.01673
G1 X122.659 Y142.144 E.00943
G1 X122.125 Y142.144 E.01676
G1 X122.338 Y142.356 E.00943
G1 X121.804 Y142.356 E.01676
G1 X121.591 Y142.144 E.00943
G1 X121.057 Y142.144 E.01676
G1 X121.27 Y142.356 E.00943
G1 X120.736 Y142.356 E.01676
G1 X120.524 Y142.144 E.00941
G1 X119.99 Y142.144 E.01676
G1 X120.203 Y142.356 E.00943
G1 X119.669 Y142.356 E.01676
G1 X119.286 Y141.974 E.01698
G1 X119.305 Y142.526 F9000
G1 F2400
G1 X118.818 Y142.04 E.02159
G1 X118.216 Y141.79 E.02046
G1 X117.876 Y141.135 E.02316
G1 X117.872 Y141.094 E.00129
G1 X117.644 Y140.865 E.01014
G1 X117.644 Y141.399 E.01676
G1 X118.601 Y142.356 E.04248
G1 X118.067 Y142.356 E.01676
G1 X117.474 Y141.763 E.02632
M106 S255
;LAYER_CHANGE
;Z:0.4
;HEIGHT:0.2
;BEFORE_LAYER_CHANGE
G92 E0
;0.4


G1 E-3.5 F3600
;WIPE_START
G1 F7200
G1 X118.067 Y142.356 E-.39835
G1 X118.601 Y142.356 E-.25365
G1 X117.644 Y141.399 E-.64287
G1 X117.644 Y140.967 E-.20513
;WIPE_END
G1 Z.4 F9000
;AFTER_LAYER_CHANGE
;0.4
M104 S205 ; set temperature
; stop printing object TestSujetaPerfil_v03.stl id:0 copy 0
G1 X112.904 Y141.763
G1 E5 F2400
;TYPE:Skirt/Brim
;WIDTH:0.42
G1 F3349
G1 X112.904 Y116.093 E.80486
G1 X113.298 Y114.558 E.04969
G1 X114.382 Y113.402 E.04969
G1 X116.093 Y112.904 E.05587
