; generated by PrusaSlicer 2.9.3 on 2025-10-19 at 18:44:09 UTC

; 

; external perimeters extrusion width = 0.42mm
; perimeters extrusion width = 0.44mm
; infill extrusion width = 0.44mm
; solid infill extrusion width = 0.44mm
; top infill extrusion width = 0.40mm
; first layer extrusion width = 0.42mm

M201 X500 Y500 Z100 E5000 ; sets maximum accelerations, mm/sec^2
M203 X500 Y500 Z10 E60 ; sets maximum feedrates, mm / sec
M204 S500 T1000 ; sets acceleration (S) and retract acceleration (R), mm/sec^2
M205 X8.00 Y8.00 Z0.40 E5.00 ; sets the jerk limits, mm/sec
M205 S0 T0 ; sets the minimum extruding and travel feed rate, mm/sec

; printing object TestSujetaPerfil_v02.stl id:0 copy 0
; stop printing object TestSujetaPerfil_v02.stl id:0 copy 0

;TYPE:Custom
G90 ; use absolute coordinates
M83 ; extruder relative mode
M104 S150 ; set temporary nozzle temp to prevent oozing during homing
M140 S60 ; set final bed temp
G4 S30 ; allow partial nozzle warmup
G28 ; home all axis
G1 Z50 F240
G1 X2.0 Y10 F3000
M104 S210 ; set final nozzle temp
M190 S60 ; wait for bed temp to stabilize
M109 S210 ; wait for nozzle temp to stabilize
G1 Z0.28 F240
G92 E0
G1 X2.0 Y140 E10 F1500 ; prime the nozzle
G1 X2.3 Y140 F5000
G92 E0
G1 X2.3 Y10 E10 F1200 ; prime the nozzle
G92 E0
G21 ; set units to millimeters
G90 ; use absolute coordinates
M83 ; use relative distances for extrusion
; Filament gcode
M107
;LAYER_CHANGE
;Z:0.2
;HEIGHT:0.2
G1 E-5 F3600
G1 Z.2 F9000
G1 X114.382 Y113.402
G1 E5 F2400
M204 S500
;TYPE:Skirt/Brim
;WIDTH:0.42
G1 X116.093 Y112.904 E.05587
G1 X143.907 Y112.904 E.87209
G1 X145.442 Y113.298 E.04969
G1 X146.598 Y114.382 E.04969
G1 X147.096 Y116.093 E.05587
G1 X147.096 Y143.907 E.87209
G1 X146.702 Y145.442 E.04969
G1 X145.618 Y146.598 E.04969
G1 X143.907 Y147.096 E.05587
G1 X116.093 Y147.096 E.87209
G1 X114.558 Y146.702 E.04969
G1 X113.402 Y145.618 E.04969
G1 X112.904 Y143.907 E.05587
G1 X112.904 Y116.093 E.87209
G1 X113.298 Y114.558 E.04969
G1 X114.341 Y113.446 E.0478
G1 E-3.5 F3600
;WIPE_START
G1 F7200
G1 X114.382 Y113.402 E-.02857
G1 X116.093 Y112.904 E-.84645
G1 X117.409 Y112.904 E-.62498
;WIPE_END
; printing object TestSujetaPerfil_v02.stl id:0 copy 0
G1 X118.316 Y118.335 F9000
G1 E5 F2400
;TYPE:Perimeter
;WIDTH:0.459554
G1 X118.323 Y118.323 E.00048
;WIDTH:0.461997
G1 X118.445 Y118.237 E.0052
;WIDTH:0.503995
G1 X118.567 Y118.151 E.00572
;WIDTH:0.545993
G1 X118.69 Y118.064 E.0063
;WIDTH:0.58799
G1 X118.812 Y117.978 E.00677
G1 X118.989 Y117.968 E.00803
;WIDTH:0.57822
G1 X141.011 Y117.968 E.98021
G1 X141.177 Y118.056 E.00836
;WIDTH:0.538665
G1 X141.344 Y118.145 E.0078
;WIDTH:0.49911
G1 X141.51 Y118.234 E.00714
;WIDTH:0.459555
G1 X141.677 Y118.323 E.00656
G1 X141.766 Y118.49 E.00656
;WIDTH:0.499109
G1 X141.855 Y118.656 E.00714
;WIDTH:0.538664
G1 X141.944 Y118.823 E.0078
;WIDTH:0.578219
G1 X142.032 Y118.989 E.00836
G1 X142.032 Y141.011 E.98021
;WIDTH:0.587989
G1 X142.022 Y141.188 E.00803
G1 X141.936 Y141.31 E.00677
;WIDTH:0.545992
G1 X141.849 Y141.433 E.0063
;WIDTH:0.503994
G1 X141.763 Y141.555 E.00572
;WIDTH:0.461997
G1 X141.677 Y141.677 E.0052
G1 X141.555 Y141.763 E.0052
;WIDTH:0.503994
G1 X141.433 Y141.849 E.00572
;WIDTH:0.545992
G1 X141.31 Y141.936 E.0063
;WIDTH:0.587989
G1 X141.188 Y142.022 E.00677
G1 X141.011 Y142.032 E.00803
;WIDTH:0.578219
G1 X118.989 Y142.032 E.98021
G1 X118.823 Y141.944 E.00836
;WIDTH:0.538664
G1 X118.656 Y141.855 E.0078
;WIDTH:0.499109
G1 X118.49 Y141.766 E.00714
;WIDTH:0.459554
G1 X118.323 Y141.677 E.00656
;WIDTH:0.461997
G1 X118.237 Y141.555 E.0052
;WIDTH:0.503994
G1 X118.151 Y141.433 E.00572
;WIDTH:0.545992
G1 X118.064 Y141.31 E.0063
;WIDTH:0.587989
G1 X117.978 Y141.188 E.00677
G1 X117.968 Y141.011 E.00803
;WIDTH:0.578219
G1 X117.968 Y118.989 E.98021
G1 X118.056 Y118.823 E.00836
;WIDTH:0.538664
G1 X118.145 Y118.656 E.0078
;WIDTH:0.499109
G1 X118.234 Y118.49 E.00714
;WIDTH:0.459554
G1 X118.288 Y118.388 E.004
G1 X118.581 Y118.609 F9000
;WIDTH:0.419999
G1 F2400
G1 X118.59 Y118.59 E.00066
G1 X118.892 Y118.432 E.01069
G1 X118.989 Y118.424 E.00305
G1 X141.011 Y118.424 E.69048
G1 X141.41 Y118.59 E.01355
G1 X141.576 Y118.989 E.01355
G1 X141.576 Y141.011 E.69048
G1 X141.568 Y141.108 E.00305
G1 X141.41 Y141.41 E.01069
G1 X141.108 Y141.568 E.01069
G1 X141.011 Y141.576 E.00305
G1 X118.989 Y141.576 E.69048
G1 X118.59 Y141.41 E.01355
G1 X118.432 Y141.108 E.01069
G1 X118.424 Y141.011 E.00305
G1 X118.424 Y118.989 E.69048
G1 X118.558 Y118.665 E.01099
G1 X118.874 Y118.849 F9000
;TYPE:External perimeter
G1 F2400
G1 X118.989 Y118.801 E.00391
G1 X141.011 Y118.801 E.69048
G1 X141.144 Y118.856 E.00451
G1 X141.199 Y118.989 E.00451
G1 X141.199 Y141.011 E.69048
G1 X141.144 Y141.144 E.00451
G1 X141.011 Y141.199 E.00451
G1 X118.989 Y141.199 E.69048
G1 X118.856 Y141.144 E.00451
G1 X118.801 Y141.011 E.00451
G1 X118.801 Y118.989 E.69048
G1 X118.841 Y118.894 E.00323
G1 E-3.5 F3600
;WIPE_START
G1 F7200
G1 X118.874 Y118.849 E-.02651
G1 X118.989 Y118.801 E-.05919
G1 X121.966 Y118.801 E-1.4143
;WIPE_END
G1 X117.353 Y117.353 F9000
G1 E5 F2400
;TYPE:Perimeter
G1 X117.921 Y117.353 E.01781
;WIDTH:0.459555
G1 X118.188 Y117.373 E.00928
;WIDTH:0.49911
G1 X118.455 Y117.393 E.01016
;WIDTH:0.538665
G1 X118.722 Y117.413 E.01104
;WIDTH:0.57822
G1 X118.989 Y117.432 E.01191
G1 X141.011 Y117.432 E.98021
G1 X141.278 Y117.413 E.01191
;WIDTH:0.538665
G1 X141.545 Y117.393 E.01104
;WIDTH:0.49911
G1 X141.812 Y117.373 E.01016
;WIDTH:0.459555
G1 X142.079 Y117.353 E.00928
;WIDTH:0.419999
G1 X142.647 Y117.353 E.01781
G1 X142.647 Y117.921 E.01781
;WIDTH:0.459554
G1 X142.627 Y118.188 E.00928
;WIDTH:0.499109
G1 X142.607 Y118.455 E.01016
;WIDTH:0.538664
G1 X142.587 Y118.722 E.01104
;WIDTH:0.578219
G1 X142.568 Y118.989 E.01191
G1 X142.568 Y141.011 E.98021
;WIDTH:0.587989
G1 X142.563 Y141.235 E.01015
G1 X142.584 Y141.446 E.00961
;WIDTH:0.545992
G1 X142.605 Y141.657 E.00887
;WIDTH:0.503994
G1 X142.626 Y141.868 E.00813
;WIDTH:0.461997
G1 X142.647 Y142.079 E.00739
;WIDTH:0.419999
G1 X142.647 Y142.647 E.01781
G1 X142.079 Y142.647 E.01781
;WIDTH:0.459554
G1 X141.812 Y142.627 E.00928
;WIDTH:0.499109
G1 X141.545 Y142.607 E.01016
;WIDTH:0.538664
G1 X141.278 Y142.587 E.01104
;WIDTH:0.578219
G1 X141.011 Y142.568 E.01191
G1 X118.989 Y142.568 E.98021
G1 X118.722 Y142.587 E.01191
;WIDTH:0.538664
G1 X118.455 Y142.607 E.01104
;WIDTH:0.499109
G1 X118.188 Y142.627 E.01016
;WIDTH:0.459554
G1 X117.921 Y142.647 E.00928
;WIDTH:0.419999
G1 X117.353 Y142.647 E.01781
G1 X117.353 Y142.079 E.01781
;WIDTH:0.459554
G1 X117.373 Y141.812 E.00928
;WIDTH:0.499109
G1 X117.393 Y141.545 E.01016
;WIDTH:0.538664
G1 X117.413 Y141.278 E.01104
;WIDTH:0.578219
G1 X117.432 Y141.011 E.01191
G1 X117.432 Y118.989 E.98021
G1 X117.413 Y118.722 E.01191
;WIDTH:0.538664
G1 X117.393 Y118.455 E.01104
;WIDTH:0.499109
G1 X117.373 Y118.188 E.01016
;WIDTH:0.459554
G1 X117.353 Y117.921 E.00928
;WIDTH:0.419999
G1 X117.353 Y117.413 E.01593
G1 X116.976 Y116.976 F9000
G1 F2400
G1 X143.024 Y116.976 E.81672
G1 X143.024 Y117.921 E.02963
G1 X143.024 Y143.024 E.78709
G1 X116.976 Y143.024 E.81672
G1 X116.976 Y117.036 E.81483
G1 X116.599 Y116.599 F9000
;TYPE:External perimeter
G1 F2400
G1 X143.401 Y116.599 E.84036
G1 X143.401 Y117.921 E.04145
G1 X143.401 Y143.401 E.79891
G1 X116.599 Y143.401 E.84036
G1 X116.599 Y116.659 E.83848
G1 E-3.5 F3600
;WIPE_START
G1 F7200
G1 X116.599 Y116.599 E-.0285
G1 X119.697 Y116.599 E-1.4715
;WIPE_END
G1 X118.474 Y118.041 F9000
G1 E5 F2400
;TYPE:Solid infill
;WIDTH:0.451509
G1 X118.118 Y117.685 E.0171
G1 X117.911 Y117.644 E.00717
G1 X117.644 Y117.644 E.00907
G1 X117.644 Y117.788 E.00489
G1 X118.061 Y118.205 E.02004
G1 X117.841 Y118.564 E.0143
G1 X117.521 Y118.244 E.01538
G1 E-3.5 F3600
;WIPE_START
G1 F7200
G1 X117.841 Y118.564 E-.21496
G1 X118.061 Y118.205 E-.2
G1 X117.644 Y117.788 E-.28012
G1 X117.644 Y117.644 E-.0684
G1 X117.911 Y117.644 E-.12682
G1 X118.118 Y117.685 E-.10024
G1 X118.474 Y118.041 E-.23914
;WIPE_END
G1 E-.27032 F3600
G1 X118.386 Y142.458 F9000
G1 E5 F2400
;WIDTH:0.495415
G1 X117.706 Y141.778 E.03618
G1 X117.644 Y142.089 E.01193
G1 X117.644 Y142.356 E.01005
G1 X117.814 Y142.526 E.00905
G1 E-3.5 F3600
;WIPE_START
G1 F7200
G1 X117.644 Y142.356 E-.1142
G1 X117.644 Y142.089 E-.12682
G1 X117.706 Y141.778 E-.15063
G1 X118.386 Y142.458 E-.45679
;WIPE_END
G1 E-.65156 F3600
G1 X142.526 Y142.186 F9000
G1 E5 F2400
G1 X142.037 Y141.697 E.02602
G1 X141.883 Y141.883 E.00909
G1 X141.719 Y142.019 E.00802
G1 X142.226 Y142.526 E.02698
G1 E-3.5 F3600
;WIPE_START
G1 F7200
G1 X141.719 Y142.019 E-.34058
G1 X141.883 Y141.883 E-.1012
G1 X142.037 Y141.697 E-.1147
G1 X142.526 Y142.186 E-.32849
;WIPE_END
G1 E-.61503 F3600
G1 X142.465 Y118.336 F9000
G1 E5 F2400
G1 X141.664 Y117.535 E.04262
M106 S255
;LAYER_CHANGE
;Z:0.4
;HEIGHT:0.2
;BEFORE_LAYER_CHANGE
G92 E0
;0.4


G1 E-3.5 F3600
;WIPE_START
G1 F7200
G1 X142.465 Y118.336 E-.53807
;WIPE_END
G1 E-.96193 F3600
G1 Z.4 F9000
;AFTER_LAYER_CHANGE
;0.4
M104 S205 ; set temperature
; stop printing object TestSujetaPerfil_v02.stl id:0 copy 0
G1 X141.664 Y112.904
G1 E5 F2400
;TYPE:Skirt/Brim
;WIDTH:0.42
G1 F3154
G1 X143.907 Y112.904 E.07033
G1 X145.442 Y113.298 E.04969
G1 X146.598 Y114.382 E.04969
G1 X147.096 Y116.093 E.05587
G1 X147.096 Y143.907 E.87209
G1 X146.702 Y145.442 E.04969
G1 X145.618 Y146.598 E.04969
G1 X143.907 Y147.096 E.05587
G1 X116.093 Y147.096 E.87209
G1 X114.558 Y146.702 E.04969
G1 X113.402 Y145.618 E.04969
G1 X112.904 Y143.907 E.05587
G1 X112.904 Y116.093 E.87209
G1 X113.298 Y114.558 E.04969
G1 X114.382 Y113.402 E.04969
G1 X116.093 Y112.904 E.05587
G1 X141.604 Y112.904 E.79988
G1 E-3.5 F3600
;WIPE_START
G1 F7200
G1 X141.664 Y112.904 E-.0285
G1 X143.907 Y112.904 E-1.06542
G1 X144.735 Y113.116 E-.40608
;WIPE_END
; printing object TestSujetaPerfil_v02.stl id:0 copy 0
G1 X141.398 Y118.595 F9000
G1 E5 F2400
;TYPE:Perimeter
;WIDTH:0.439999
G1 F3154
G1 X141.402 Y118.598 E.00017
G1 X141.607 Y118.9 E.01205
G1 X141.687 Y119.286 E.01302
G1 X141.687 Y140.714 E.70749
G1 X141.607 Y141.101 E.01305
G1 X141.402 Y141.402 E.01202
G1 X141.101 Y141.607 E.01202
G1 X140.714 Y141.687 E.01305
G1 X119.286 Y141.687 E.70749
G1 X118.9 Y141.607 E.01302
G1 X118.598 Y141.402 E.01205
G1 X118.393 Y141.101 E.01202
G1 X118.313 Y140.714 E.01305
G1 X118.313 Y119.286 E.70749
G1 X118.393 Y118.9 E.01302
G1 X118.598 Y118.598 E.01205
G1 X118.9 Y118.393 E.01205
G1 X119.286 Y118.313 E.01302
G1 X140.714 Y118.313 E.70749
G1 X141.101 Y118.393 E.01305
G1 X141.348 Y118.562 E.00988
G1 X141.119 Y118.877 F9000
G1 F3154
G1 X141.121 Y118.879 E.00009
G1 X141.242 Y119.057 E.00711
G1 X141.29 Y119.286 E.00773
G1 X141.29 Y140.714 E.70749
G1 X141.242 Y140.943 E.00773
G1 X141.121 Y141.121 E.00711
G1 X140.943 Y141.242 E.00711
G1 X140.714 Y141.29 E.00773
G1 X119.286 Y141.29 E.70749
G1 X119.057 Y141.242 E.00773
G1 X118.879 Y141.121 E.00711
G1 X118.758 Y140.943 E.00711
G1 X118.71 Y140.714 E.00773
G1 X118.71 Y119.286 E.70749
G1 X118.758 Y119.057 E.00773
G1 X118.879 Y118.879 E.00711
G1 X119.057 Y118.758 E.00711
G1 X119.286 Y118.71 E.00773
G1 X140.714 Y118.71 E.70749
G1 X140.943 Y118.758 E.00773
G1 X141.069 Y118.843 E.00502
G1 X140.842 Y119.15 F9000
;TYPE:External perimeter
;WIDTH:0.419999
G1 F3154
G1 X140.847 Y119.153 E.00018
G1 X140.903 Y119.286 E.00452
G1 X140.903 Y140.714 E.67186
G1 X140.847 Y140.847 E.00452
G1 X140.714 Y140.903 E.00452
G1 X119.286 Y140.903 E.67186
G1 X119.153 Y140.847 E.00452
G1 X119.097 Y140.714 E.00452
G1 X119.097 Y119.286 E.67186
G1 X119.153 Y119.153 E.00452
G1 X119.286 Y119.097 E.00452
G1 X140.714 Y119.097 E.67186
G1 X140.786 Y119.127 E.00245
G1 E-3.5 F3600
;WIPE_START
G1 F7200
G1 X140.842 Y119.15 E-.02876
G1 X140.847 Y119.153 E-.00277
G1 X140.903 Y119.286 E-.06855
G1 X140.903 Y122.233 E-1.39992
;WIPE_END
G1 X142.913 Y117.087 F9000
G1 E5 F2400
;TYPE:Perimeter
;WIDTH:0.439999
G1 F3154
G1 X142.913 Y117.972 E.02922
G1 X142.913 Y142.913 E.82348
G1 X117.087 Y142.913 E.8527
G1 X117.087 Y117.087 E.8527
G1 X142.853 Y117.087 E.85072
G1 X143.31 Y116.69 F9000
G1 F3154
G1 X143.31 Y117.972 E.04233
G1 X143.31 Y143.31 E.83659
G1 X116.69 Y143.31 E.87892
G1 X116.69 Y116.69 E.87892
G1 X143.25 Y116.69 E.87694
G1 X143.697 Y116.303 F9000
;TYPE:External perimeter
;WIDTH:0.419999
G1 F3154
G1 X143.697 Y117.972 E.05233
G1 X143.697 Y143.697 E.80659
G1 X116.303 Y143.697 E.85892
G1 X116.303 Y116.303 E.85892
G1 X143.637 Y116.303 E.85704
G1 E-3.5 F3600
;WIPE_START
G1 F7200
G1 X143.697 Y116.303 E-.0285
G1 X143.697 Y117.972 E-.79278
G1 X143.697 Y119.401 E-.67872
;WIPE_END
G1 X140.506 Y117.447 F9000
G1 E5 F2400
;TYPE:Solid infill
;WIDTH:0.548848
G1 F3154
G1 X119.29 Y117.447 E.89252
G1 X119.109 Y117.429 E.00765
;WIDTH:0.512565
G1 X118.929 Y117.411 E.00706
;WIDTH:0.476282
G1 X118.748 Y117.393 E.00655
;WIDTH:0.439999
G1 X117.393 Y117.393 E.04474
G1 X117.393 Y118.744 E.04461
;WIDTH:0.476282
G1 X117.411 Y118.928 E.00666
;WIDTH:0.512565
G1 X117.429 Y119.111 E.00718
;WIDTH:0.548847
G1 X117.447 Y119.295 E.00778
G1 X117.447 Y140.71 E.90089
G1 X117.429 Y140.891 E.00765
;WIDTH:0.512565
G1 X117.411 Y141.071 E.00706
;WIDTH:0.476282
G1 X117.393 Y141.252 E.00655
;WIDTH:0.439999
G1 X117.393 Y142.607 E.04474
G1 X118.744 Y142.607 E.04461
;WIDTH:0.476282
G1 X118.928 Y142.589 E.00666
;WIDTH:0.512565
G1 X119.111 Y142.571 E.00718
;WIDTH:0.548847
G1 X119.295 Y142.553 E.00778
G1 X140.71 Y142.553 E.90089
G1 X140.891 Y142.571 E.00765
;WIDTH:0.512564
G1 X141.071 Y142.589 E.00706
;WIDTH:0.476282
G1 X141.252 Y142.607 E.00655
;WIDTH:0.439999
G1 X142.607 Y142.607 E.04474
G1 X142.607 Y141.252 E.04474
;WIDTH:0.476282
G1 X142.589 Y141.071 E.00655
;WIDTH:0.512565
G1 X142.571 Y140.891 E.00706
;WIDTH:0.548847
G1 X142.553 Y140.71 E.00765
G1 X142.553 Y119.295 E.90089
G1 X142.571 Y119.111 E.00778
;WIDTH:0.512565
G1 X142.589 Y118.928 E.00718
;WIDTH:0.476282
G1 X142.607 Y118.744 E.00666
;WIDTH:0.439999
G1 X142.607 Y117.393 E.04461
G1 X141.256 Y117.393 E.04461
;WIDTH:0.476282
G1 X141.072 Y117.411 E.00666
;WIDTH:0.512564
G1 X140.889 Y117.429 E.00718
;WIDTH:0.548846
G1 X140.705 Y117.447 E.00778
G1 E-3.5 F3600
;WIPE_START
G1 F7200
G1 X140.889 Y117.429 E-.08782
G1 X141.072 Y117.411 E-.08734
G1 X141.256 Y117.393 E-.08782
G1 X142.607 Y117.393 E-.64172
G1 X142.607 Y118.646 E-.5953
;WIPE_END
G1 X118.592 Y117.782 F9000
G1 E5 F2400
;WIDTH:0.424535
G1 F3154
G1 X118.53 Y117.808 E.00213
G1 X118.108 Y118.108 E.01643
G1 X117.782 Y118.594 E.01857
G1 X117.782 Y117.782 E.02577
G1 X118.393 Y117.782 E.01939
G1 E-3.5 F3600
;WIPE_START
G1 F7200
G1 X117.782 Y117.782 E-.29023
G1 X117.782 Y118.594 E-.3857
G1 X118.108 Y118.108 E-.27798
G1 X118.53 Y117.808 E-.24594
G1 X118.592 Y117.782 E-.03193
;WIPE_END
G1 E-.26822 F3600
G1 X140.506 Y117.953 F9000
G1 E5 F2400
;WIDTH:0.548848
G1 F3154
G1 X119.29 Y117.953 E.89252
G1 X119.133 Y118.002 E.00692
;WIDTH:0.512565
G1 X118.977 Y118.051 E.00639
;WIDTH:0.476282
G1 X118.82 Y118.1 E.00593
;WIDTH:0.439999
G1 X118.383 Y118.383 E.01719
G1 X118.102 Y118.817 E.01707
;WIDTH:0.476282
G1 X118.053 Y118.976 E.006
;WIDTH:0.512565
G1 X118.003 Y119.136 E.00655
;WIDTH:0.548847
G1 X117.953 Y119.295 E.00701
G1 X117.953 Y140.71 E.90089
G1 X118.002 Y140.867 E.00692
;WIDTH:0.512565
G1 X118.051 Y141.023 E.00639
;WIDTH:0.476282
G1 X118.1 Y141.18 E.00593
;WIDTH:0.439999
G1 X118.383 Y141.617 E.01719
G1 X118.817 Y141.898 E.01707
;WIDTH:0.476282
G1 X118.976 Y141.947 E.006
;WIDTH:0.512565
G1 X119.136 Y141.997 E.00655
;WIDTH:0.548847
G1 X119.295 Y142.047 E.00701
G1 X140.71 Y142.047 E.90089
G1 X140.867 Y141.998 E.00692
;WIDTH:0.512564
G1 X141.023 Y141.949 E.00639
;WIDTH:0.476282
G1 X141.18 Y141.9 E.00593
;WIDTH:0.439999
G1 X141.617 Y141.617 E.01719
G1 X141.87 Y141.251 E.01469
;WIDTH:0.476282
G1 X141.929 Y141.071 E.00683
;WIDTH:0.512565
G1 X141.988 Y140.891 E.0074
;WIDTH:0.548847
G1 X142.047 Y140.71 E.00801
G1 X142.047 Y119.295 E.90089
G1 X141.997 Y119.136 E.00701
;WIDTH:0.512565
G1 X141.947 Y118.976 E.00655
;WIDTH:0.476282
G1 X141.898 Y118.817 E.006
;WIDTH:0.439999
G1 X141.617 Y118.383 E.01707
G1 X141.183 Y118.102 E.01707
;WIDTH:0.476282
G1 X141.024 Y118.053 E.006
;WIDTH:0.512564
G1 X140.864 Y118.003 E.00655
;WIDTH:0.548846
G1 X140.705 Y117.953 E.00701
